src/ipa/rpi/vc4/data/imx477.json
{
    "version": 2.0,
    "target": "bcm2835",
    "algorithms": [
        {
            "rpi.black_level":
            {
                "black_level": 4096
            }
        },
        {
            "rpi.dpc": { }
        },
        {
            "rpi.lux":
            {
                "reference_shutter_speed": 27242,
                "reference_gain": 1.0,
                "reference_aperture": 1.0,
                "reference_lux": 830,
                "reference_Y": 17755
            }
        },
        {
            "rpi.noise":
            {
                "reference_constant": 0,
                "reference_slope": 2.767
            }
        },
        {
            "rpi.geq":
            {
                "offset": 204,
                "slope": 0.01078
            }
        },
        {
            "rpi.sdn": { }
        },
        {
            "rpi.awb":
            {
                "enabled": true,
                "priors": [
                    {
                        "lux": 0,
                        "prior":
                        [
                            2000, 1.0,
                            3000, 0.0,
                            13000, 0.0
                        ]
                    },
                    {
                        "lux": 800,
                        "prior":
                        [
                            2000, 0.0,
                            6000, 2.0,
                            13000, 2.0
                        ]
                    },
                    {
                        "lux": 1500,
                        "prior":
                        [
                            2000, 0.0,
                            4000, 1.0,
                            6000, 6.0,
                            6500, 7.0,
                            7000, 1.0,
                            13000, 1.0
                        ]
                    }
                ],
                "modes":
                {
                    "auto":
                    {
                        "lo": 2500,
                        "hi": 8000
                    },
                    "incandescent":
                    {
                        "lo": 2500,
                        "hi": 3000
                    },
                    "tungsten":
                    {
                        "lo": 3000,
                        "hi": 3500
                    },
                    "fluorescent":
                    {
                        "lo": 4000,
                        "hi": 4700
                    },
                    "indoor":
                    {
                        "lo": 3000,
                        "hi": 5000
                    },
                    "daylight":
                    {
                        "lo": 5500,
                        "hi": 6500
                    },
                    "cloudy":
                    {
                        "lo": 7000,
                        "hi": 8600
                    }
                },
                "bayes": 1,
                "ct_curve":
                [
                    2360.0, 0.6009, 0.3093,
                    2848.0, 0.5071, 0.4,
                    2903.0, 0.4905, 0.4392,
                    3628.0, 0.4261, 0.5564,
                    3643.0, 0.4228, 0.5623,
                    4660.0, 0.3529, 0.68,
                    5579.0, 0.3227, 0.7,
                    6125.0, 0.3129, 0.71,
                    6671.0, 0.3065, 0.72,
                    7217.0, 0.3014, 0.73,
                    7763.0, 0.295, 0.74,
                    9505.0, 0.2524, 0.7856
                ],
                "sensitivity_r": 1.05,
                "sensitivity_b": 1.05,
                "transverse_pos": 0.0238,
                "transverse_neg": 0.04429
            }
        },
        {
            "rpi.nn.awb":
            {
                "enabled": false,
                "modes":
                {
                    "auto":
                    {
                        "lo": 2500,
                        "hi": 8000
                    },
                    "incandescent":
                    {
                        "lo": 2500,
                        "hi": 3000
                    },
                    "tungsten":
                    {
                        "lo": 3000,
                        "hi": 3500
                    },
                    "fluorescent":
                    {
                        "lo": 4000,
                        "hi": 4700
                    },
                    "indoor":
                    {
                        "lo": 3000,
                        "hi": 5000
                    },
                    "daylight":
                    {
                        "lo": 5500,
                        "hi": 6500
                    },
                    "cloudy":
                    {
                        "lo": 7000,
                        "hi": 8600
                    }
                },
                "ct_curve":
                [
                    2360.0, 0.6009, 0.3093,
                    2848.0, 0.5071, 0.4,
                    2903.0, 0.4905, 0.4392,
                    3628.0, 0.4261, 0.5564,
                    3643.0, 0.4228, 0.5623,
                    4660.0, 0.3529, 0.68,
                    5579.0, 0.3227, 0.7,
                    6125.0, 0.3129, 0.71,
                    6671.0, 0.3065, 0.72,
                    7217.0, 0.3014, 0.73,
                    7763.0, 0.295, 0.74,
                    9505.0, 0.2524, 0.7856
                ],
                "sensitivity_r": 1.05,
                "sensitivity_b": 1.05,
                "transverse_pos": 0.0238,
                "transverse_neg": 0.04429,
                "ccm":
                [
                    2.1643743343419066, -0.972589984871407, -0.19177768532526474,
                    -0.3769567095310136, 2.0993768608169443, -0.722416815431165,
                    -0.11786965204236007, -0.4893621633888049, 1.607231815431165
                ],
                "enable_nn": 1
            }
        },
        {
            "rpi.agc":
            {
                "channels": [
                    {
                        "metering_modes":
                        {
                            "centre-weighted":
                            {
                                "weights":
                                [
                                    3, 3, 3, 2, 2, 2, 2, 1, 1, 1, 1, 0, 0, 0, 0
                                ]
                            },
                            "spot":
                            {
                                "weights":
                                [
                                    2, 1, 1, 0, 0, 0, 0, 0, 0, 0, 0, 0, 0, 0, 0
                                ]
                            },
                            "matrix":
                            {
                                "weights":
                                [
                                    1, 1, 1, 1, 1, 1, 1, 1, 1, 1, 1, 1, 1, 1, 1
                                ]
                            }
                        },
                        "exposure_modes":
                        {
                            "normal":
                            {
                                "shutter": [ 100, 10000, 30000, 60000, 66666 ],
                                "gain": [ 1.0, 2.0, 4.0, 6.0, 16.0 ]
                            },
                            "short":
                            {
                                "shutter": [ 100, 5000, 10000, 20000, 66666 ],
                                "gain": [ 1.0, 2.0, 4.0, 6.0, 16.0 ]
                            },
                            "long":
                            {
                                "shutter": [ 100, 10000, 30000, 60000, 120000 ],
                                "gain": [ 1.0, 2.0, 4.0, 6.0, 16.0 ]
                            }
                        },
                        "constraint_modes":
                        {
                            "normal": [
                                {
                                    "bound": "LOWER",
                                    "q_lo": 0.98,
                                    "q_hi": 1.0,
                                    "y_target":
                                    [
                                        0, 0.3,
                                        1000, 0.3
                                    ]
                                }
                            ],
                            "highlight": [
                                {
                                    "bound": "LOWER",
                                    "q_lo": 0.98,
                                    "q_hi": 1.0,
                                    "y_target":
                                    [
                                        0, 0.3,
                                        1000, 0.3
                                    ]
                                },
                                {
                                    "bound": "UPPER",
                                    "q_lo": 0.98,
                                    "q_hi": 1.0,
                                    "y_target":
                                    [
                                        0, 0.8,
                                        1000, 0.8
                                    ]
                                }
                            ],
                            "shadows": [
                                {
                                    "bound": "LOWER",
                                    "q_lo": 0.0,
                                    "q_hi": 0.5,
                                    "y_target":
                                    [
                                        0, 0.17,
                                        1000, 0.17
                                    ]
                                }
                            ]
                        },
                        "y_target":
                        [
                            0, 0.16,
                            1000, 0.165,
                            10000, 0.17
                        ]
                    },
                    {
                        "base_ev": 0.125,
                        "metering_modes":
                        {
                            "centre-weighted":
                            {
                                "weights":
                                [
                                    3, 3, 3, 2, 2, 2, 2, 1, 1, 1, 1, 0, 0, 0, 0
                                ]
                            },
                            "spot":
                            {
                                "weights":
                                [
                                    2, 1, 1, 0, 0, 0, 0, 0, 0, 0, 0, 0, 0, 0, 0
                                ]
                            },
                            "matrix":
                            {
                                "weights":
                                [
                                    1, 1, 1, 1, 1, 1, 1, 1, 1, 1, 1, 1, 1, 1, 1
                                ]
                            }
                        },
                        "exposure_modes":
                        {
                            "normal":
                            {
                                "shutter": [ 100, 10000, 30000, 60000, 66666 ],
                                "gain": [ 1.0, 2.0, 4.0, 6.0, 8.0 ]
                            },
                            "short":
                            {
                                "shutter": [ 100, 5000, 10000, 20000, 33333 ],
                                "gain": [ 1.0, 2.0, 4.0, 6.0, 8.0 ]
                            },
                            "long":
                            {
                                "shutter": [ 100, 10000, 30000, 60000, 120000 ],
                                "gain": [ 1.0, 2.0, 4.0, 6.0, 12.0 ]
                            }
                        },
                        "constraint_modes":
                        {
                            "normal": [
                                {
                                    "bound": "LOWER",
                                    "q_lo": 0.98,
                                    "q_hi": 1.0,
                                    "y_target":
                                    [
                                        0, 0.3,
                                        1000, 0.3
                                    ]
                                }
                            ],
                            "highlight": [
                                {
                                    "bound": "LOWER",
                                    "q_lo": 0.98,
                                    "q_hi": 1.0,
                                    "y_target":
                                    [
                                        0, 0.3,
                                        1000, 0.3
                                    ]
                                },
                                {
                                    "bound": "UPPER",
                                    "q_lo": 0.98,
                                    "q_hi": 1.0,
                                    "y_target":
                                    [
                                        0, 0.8,
                                        1000, 0.8
                                    ]
                                }
                            ],
                            "shadows": [
                                {
                                    "bound": "LOWER",
                                    "q_lo": 0.0,
                                    "q_hi": 0.5,
                                    "y_target":
                                    [
                                        0, 0.17,
                                        1000, 0.17
                                    ]
                                }
                            ]
                        },
                        "y_target":
                        [
                            0, 0.16,
                            1000, 0.165,
                            10000, 0.17
                        ]
                    },
                    {
                        "base_ev": 1.5,
                        "metering_modes":
                        {
                            "centre-weighted":
                            {
                                "weights":
                                [
                                    3, 3, 3, 2, 2, 2, 2, 1, 1, 1, 1, 0, 0, 0, 0
                                ]
                            },
                            "spot":
                            {
                                "weights":
                                [
                                    2, 1, 1, 0, 0, 0, 0, 0, 0, 0, 0, 0, 0, 0, 0
                                ]
                            },
                            "matrix":
                            {
                                "weights":
                                [
                                    1, 1, 1, 1, 1, 1, 1, 1, 1, 1, 1, 1, 1, 1, 1
                                ]
                            }
                        },
                        "exposure_modes":
                        {
                            "normal":
                            {
                                "shutter": [ 100, 10000, 30000, 60000, 66666 ],
                                "gain": [ 1.0, 2.0, 4.0, 6.0, 8.0 ]
                            },
                            "short":
                            {
                                "shutter": [ 100, 5000, 10000, 20000, 33333 ],
                                "gain": [ 1.0, 2.0, 4.0, 6.0, 8.0 ]
                            },
                            "long":
                            {
                                "shutter": [ 100, 10000, 30000, 60000, 120000 ],
                                "gain": [ 1.0, 2.0, 4.0, 6.0, 12.0 ]
                            }
                        },
                        "constraint_modes":
                        {
                            "normal": [
                                {
                                    "bound": "LOWER",
                                    "q_lo": 0.98,
                                    "q_hi": 1.0,
                                    "y_target":
                                    [
                                        0, 0.3,
                                        1000, 0.3
                                    ]
                                }
                            ],
                            "highlight": [
                                {
                                    "bound": "LOWER",
                                    "q_lo": 0.98,
                                    "q_hi": 1.0,
                                    "y_target":
                                    [
                                        0, 0.3,
                                        1000, 0.3
                                    ]
                                },
                                {
                                    "bound": "UPPER",
                                    "q_lo": 0.98,
                                    "q_hi": 1.0,
                                    "y_target":
                                    [
                                        0, 0.8,
                                        1000, 0.8
                                    ]
                                }
                            ],
                            "shadows": [
                                {
                                    "bound": "LOWER",
                                    "q_lo": 0.0,
                                    "q_hi": 0.5,
                                    "y_target":
                                    [
                                        0, 0.17,
                                        1000, 0.17
                                    ]
                                }
                            ]
                        },
                        "y_target":
                        [
                            0, 0.16,
                            1000, 0.165,
                            10000, 0.17
                        ]
                    }
                ]
            }
        },
        {
            "rpi.alsc":
            {
                "omega": 1.3,
                "n_iter": 100,
                "luminance_strength": 0.5,
                "calibrations_Cr": [
                    {
                        "ct": 2960,
                        "table":
                        [
                            2.088, 2.086, 2.082, 2.081, 2.077, 2.071, 2.068, 2.068, 2.072, 2.073, 2.075, 2.078, 2.084, 2.092, 2.095, 2.098,
                            2.086, 2.084, 2.079, 2.078, 2.075, 2.068, 2.064, 2.063, 2.068, 2.071, 2.072, 2.075, 2.081, 2.089, 2.092, 2.094,
                            2.083, 2.081, 2.077, 2.072, 2.069, 2.062, 2.059, 2.059, 2.063, 2.067, 2.069, 2.072, 2.079, 2.088, 2.089, 2.089,
                            2.081, 2.077, 2.072, 2.068, 2.065, 2.058, 2.055, 2.054, 2.057, 2.062, 2.066, 2.069, 2.077, 2.084, 2.086, 2.086,
                            2.078, 2.075, 2.069, 2.065, 2.061, 2.055, 2.052, 2.049, 2.051, 2.056, 2.062, 2.065, 2.072, 2.079, 2.081, 2.079,
                            2.079, 2.075, 2.069, 2.064, 2.061, 2.053, 2.049, 2.046, 2.049, 2.051, 2.057, 2.062, 2.069, 2.075, 2.077, 2.075,
                            2.082, 2.079, 2.072, 2.065, 2.061, 2.054, 2.049, 2.047, 2.049, 2.051, 2.056, 2.061, 2.066, 2.073, 2.073, 2.069,
                            2.086, 2.082, 2.075, 2.068, 2.062, 2.054, 2.051, 2.049, 2.051, 2.052, 2.056, 2.061, 2.066, 2.073, 2.073, 2.072,
                            2.088, 2.086, 2.079, 2.074, 2.066, 2.057, 2.051, 2.051, 2.054, 2.055, 2.056, 2.061, 2.067, 2.072, 2.073, 2.072,
                            2.091, 2.087, 2.079, 2.075, 2.068, 2.057, 2.052, 2.052, 2.056, 2.055, 2.055, 2.059, 2.066, 2.072, 2.072, 2.072,
                            2.093, 2.088, 2.081, 2.077, 2.069, 2.059, 2.054, 2.054, 2.057, 2.056, 2.056, 2.058, 2.066, 2.072, 2.073, 2.073,
                            2.095, 2.091, 2.084, 2.078, 2.075, 2.067, 2.057, 2.057, 2.059, 2.059, 2.058, 2.059, 2.068, 2.073, 2.075, 2.078
                        ]
                    },
                    {
                        "ct": 4850,
                        "table":
                        [
                            2.973, 2.968, 2.956, 2.943, 2.941, 2.932, 2.923, 2.921, 2.924, 2.929, 2.931, 2.939, 2.953, 2.965, 2.966, 2.976,
                            2.969, 2.962, 2.951, 2.941, 2.934, 2.928, 2.919, 2.918, 2.919, 2.923, 2.927, 2.933, 2.945, 2.957, 2.962, 2.962,
                            2.964, 2.956, 2.944, 2.932, 2.929, 2.924, 2.915, 2.914, 2.915, 2.919, 2.924, 2.928, 2.941, 2.952, 2.958, 2.959,
                            2.957, 2.951, 2.939, 2.928, 2.924, 2.919, 2.913, 2.911, 2.911, 2.915, 2.919, 2.925, 2.936, 2.947, 2.952, 2.953,
                            2.954, 2.947, 2.935, 2.924, 2.919, 2.915, 2.908, 2.906, 2.906, 2.907, 2.914, 2.921, 2.932, 2.941, 2.943, 2.942,
                            2.953, 2.946, 2.932, 2.921, 2.916, 2.911, 2.904, 2.902, 2.901, 2.904, 2.909, 2.919, 2.926, 2.937, 2.939, 2.939,
                            2.953, 2.947, 2.932, 2.918, 2.915, 2.909, 2.903, 2.901, 2.901, 2.906, 2.911, 2.918, 2.924, 2.936, 2.936, 2.932,
                            2.956, 2.948, 2.934, 2.919, 2.916, 2.908, 2.903, 2.901, 2.902, 2.907, 2.909, 2.917, 2.926, 2.936, 2.939, 2.939,
                            2.957, 2.951, 2.936, 2.923, 2.917, 2.907, 2.904, 2.901, 2.902, 2.908, 2.911, 2.919, 2.929, 2.939, 2.942, 2.942,
                            2.961, 2.951, 2.936, 2.922, 2.918, 2.906, 2.904, 2.901, 2.901, 2.907, 2.911, 2.921, 2.931, 2.941, 2.942, 2.944,
                            2.964, 2.954, 2.936, 2.924, 2.918, 2.909, 2.905, 2.905, 2.905, 2.907, 2.912, 2.923, 2.933, 2.942, 2.944, 2.944,
                            2.964, 2.958, 2.943, 2.927, 2.921, 2.914, 2.909, 2.907, 2.907, 2.912, 2.916, 2.928, 2.936, 2.944, 2.947, 2.952
                        ]
                    },
                    {
                        "ct": 5930,
                        "table":
                        [
                            3.312, 3.308, 3.301, 3.294, 3.288, 3.277, 3.268, 3.261, 3.259, 3.261, 3.267, 3.273, 3.285, 3.301, 3.303, 3.312,
                            3.308, 3.304, 3.294, 3.291, 3.283, 3.271, 3.263, 3.259, 3.257, 3.258, 3.261, 3.268, 3.278, 3.293, 3.299, 3.299,
                            3.302, 3.296, 3.288, 3.282, 3.276, 3.267, 3.259, 3.254, 3.252, 3.253, 3.256, 3.261, 3.273, 3.289, 3.292, 3.292,
                            3.296, 3.289, 3.282, 3.276, 3.269, 3.263, 3.256, 3.251, 3.248, 3.249, 3.251, 3.257, 3.268, 3.279, 3.284, 3.284,
                            3.292, 3.285, 3.279, 3.271, 3.264, 3.257, 3.249, 3.243, 3.241, 3.241, 3.246, 3.252, 3.261, 3.274, 3.275, 3.273,
                            3.291, 3.285, 3.276, 3.268, 3.259, 3.251, 3.242, 3.239, 3.236, 3.238, 3.244, 3.248, 3.258, 3.268, 3.269, 3.265,
                            3.294, 3.288, 3.275, 3.266, 3.257, 3.248, 3.239, 3.238, 3.237, 3.238, 3.243, 3.246, 3.255, 3.264, 3.264, 3.257,
                            3.297, 3.293, 3.279, 3.268, 3.258, 3.249, 3.238, 3.237, 3.239, 3.239, 3.243, 3.245, 3.255, 3.264, 3.264, 3.263,
                            3.301, 3.295, 3.281, 3.271, 3.259, 3.248, 3.237, 3.237, 3.239, 3.241, 3.243, 3.246, 3.257, 3.265, 3.266, 3.264,
