src/ipa/rpi/vc4/data/imx500.json
{
    "version": 2.0,
    "target": "bcm2835",
    "algorithms": [
        {
            "rpi.black_level":
            {
                "black_level": 4096
            }
        },
        {
            "rpi.dpc": { }
        },
        {
            "rpi.lux":
            {
                "reference_shutter_speed": 10369,
                "reference_gain": 2.0,
                "reference_aperture": 1.0,
                "reference_lux": 950,
                "reference_Y": 12457
            }
        },
        {
            "rpi.noise":
            {
                "reference_constant": 0,
                "reference_slope": 2.747
            }
        },
        {
            "rpi.geq":
            {
                "offset": 223,
                "slope": 0.00933
            }
        },
        {
            "rpi.sdn": { }
        },
        {
            "rpi.awb":
            {
                "enabled": true,
                "priors": [
                    {
                        "lux": 0,
                        "prior":
                        [
                            2000, 1.0,
                            3000, 0.0,
                            13000, 0.0
                        ]
                    },
                    {
                        "lux": 800,
                        "prior":
                        [
                            2000, 0.0,
                            6000, 2.0,
                            13000, 2.0
                        ]
                    },
                    {
                        "lux": 1500,
                        "prior":
                        [
                            2000, 0.0,
                            4000, 1.0,
                            6000, 6.0,
                            6500, 7.0,
                            7000, 1.0,
                            13000, 1.0
                        ]
                    }
                ],
                "modes":
                {
                    "auto":
                    {
                        "lo": 2800,
                        "hi": 8000
                    },
                    "incandescent":
                    {
                        "lo": 2800,
                        "hi": 3000
                    },
                    "tungsten":
                    {
                        "lo": 3000,
                        "hi": 3500
                    },
                    "fluorescent":
                    {
                        "lo": 4000,
                        "hi": 4700
                    },
                    "indoor":
                    {
                        "lo": 3000,
                        "hi": 5000
                    },
                    "daylight":
                    {
                        "lo": 5500,
                        "hi": 6500
                    },
                    "cloudy":
                    {
                        "lo": 7000,
                        "hi": 7600
                    }
                },
                "bayes": 1,
                "ct_curve":
                [
                    2800.0, 0.7126, 0.3567,
                    2860.0, 0.6681, 0.4042,
                    2880.0, 0.6651, 0.4074,
                    3580.0, 0.5674, 0.5091,
                    3650.0, 0.5629, 0.5137,
                    4500.0, 0.4792, 0.5982,
                    4570.0, 0.4752, 0.6022,
                    5648.0, 0.4137, 0.6628,
                    5717.0, 0.4116, 0.6648,
                    7600.0, 0.3609, 0.7138
                ],
                "sensitivity_r": 1.0,
                "sensitivity_b": 1.0,
                "transverse_pos": 0.02798,
                "transverse_neg": 0.02626
            }
        },
        {
            "rpi.nn.awb":
            {
                "enabled": false,
                "modes":
                {
                    "auto":
                    {
                        "lo": 2800,
                        "hi": 8000
                    },
                    "incandescent":
                    {
                        "lo": 2800,
                        "hi": 3000
                    },
                    "tungsten":
                    {
                        "lo": 3000,
                        "hi": 3500
                    },
                    "fluorescent":
                    {
                        "lo": 4000,
                        "hi": 4700
                    },
                    "indoor":
                    {
                        "lo": 3000,
                        "hi": 5000
                    },
                    "daylight":
                    {
                        "lo": 5500,
                        "hi": 6500
                    },
                    "cloudy":
                    {
                        "lo": 7000,
                        "hi": 7600
                    }
                },
                "ct_curve":
                [
                    2800.0, 0.7126, 0.3567,
                    2860.0, 0.6681, 0.4042,
                    2880.0, 0.6651, 0.4074,
                    3580.0, 0.5674, 0.5091,
                    3650.0, 0.5629, 0.5137,
                    4500.0, 0.4792, 0.5982,
                    4570.0, 0.4752, 0.6022,
                    5648.0, 0.4137, 0.6628,
                    5717.0, 0.4116, 0.6648,
                    7600.0, 0.3609, 0.7138
                ],
                "sensitivity_r": 1.02,
                "sensitivity_b": 1.02,
                "transverse_pos": 0.02798,
                "transverse_neg": 0.02626,
                "ccm":
                [
                    1.6856933395176252, -0.4760917810760668, -0.20960155844155848,
                    -0.3666382560296846, 1.9130496103896104, -0.5464153432282004,
                    -0.060413803339517624, -0.4878164935064935, 1.5482282745825604
                ],
                "enable_nn": 1
            }
        },
        {
            "rpi.agc":
            {
                "metering_modes":
                {
                    "centre-weighted":
                    {
                        "weights":
                        [
                            3, 3, 3, 2, 2, 2, 2, 1, 1, 1, 1, 0, 0, 0, 0
                        ]
                    },
                    "spot":
                    {
                        "weights":
                        [
                            2, 1, 1, 0, 0, 0, 0, 0, 0, 0, 0, 0, 0, 0, 0
                        ]
                    },
                    "matrix":
                    {
                        "weights":
                        [
                            1, 1, 1, 1, 1, 1, 1, 1, 1, 1, 1, 1, 1, 1, 1
                        ]
                    }
                },
                "exposure_modes":
                {
                    "normal":
                    {
                        "shutter": [ 100, 10000, 30000, 60000, 120000 ],
                        "gain": [ 1.0, 1.5, 2.0, 4.0, 16.0 ]
                    },
                    "short":
                    {
                        "shutter": [ 100, 5000, 10000, 20000, 120000 ],
                        "gain": [ 1.0, 1.5, 2.0, 4.0, 16.0 ]
                    },
                    "long":
                    {
                        "shutter": [ 100, 10000, 30000, 60000, 90000, 120000 ],
                        "gain": [ 1.0, 1.5, 2.0, 4.0, 8.0, 16.0 ]
                    }
                },
                "constraint_modes":
                {
                    "normal": [
                        {
                            "bound": "LOWER",
                            "q_lo": 0.98,
                            "q_hi": 1.0,
                            "y_target":
                            [
                                0, 0.5,
                                1000, 0.5
                            ]
                        }
                    ],
                    "highlight": [
                        {
                            "bound": "LOWER",
                            "q_lo": 0.98,
                            "q_hi": 1.0,
                            "y_target":
                            [
                                0, 0.5,
                                1000, 0.5
                            ]
                        },
                        {
                            "bound": "UPPER",
                            "q_lo": 0.98,
                            "q_hi": 1.0,
                            "y_target":
                            [
                                0, 0.8,
                                1000, 0.8
                            ]
                        }
                    ]
                },
                "y_target":
                [
                    0, 0.16,
                    1000, 0.165,
                    10000, 0.17
                ]
            }
        },
        {
            "rpi.alsc":
            {
                "omega": 1.3,
                "n_iter": 100,
                "luminance_strength": 0.8,
                "calibrations_Cr": [
                    {
                        "ct": 2800,
                        "table":
                        [
                            1.613, 1.617, 1.621, 1.621, 1.615, 1.607, 1.604, 1.603, 1.603, 1.603, 1.607, 1.619, 1.626, 1.626, 1.622, 1.615,
                            1.613, 1.616, 1.617, 1.615, 1.599, 1.583, 1.571, 1.564, 1.564, 1.571, 1.584, 1.603, 1.621, 1.624, 1.622, 1.618,
                            1.613, 1.614, 1.614, 1.599, 1.577, 1.546, 1.529, 1.521, 1.521, 1.529, 1.548, 1.582, 1.603, 1.621, 1.621, 1.621,
                            1.613, 1.613, 1.604, 1.577, 1.546, 1.521, 1.489, 1.481, 1.481, 1.491, 1.525, 1.548, 1.582, 1.612, 1.621, 1.623,
                            1.614, 1.612, 1.595, 1.561, 1.521, 1.489, 1.475, 1.453, 1.453, 1.479, 1.491, 1.525, 1.567, 1.606, 1.623, 1.624,
                            1.614, 1.612, 1.593, 1.555, 1.513, 1.477, 1.454, 1.452, 1.453, 1.455, 1.481, 1.519, 1.563, 1.604, 1.624, 1.626,
                            1.615, 1.612, 1.593, 1.555, 1.513, 1.477, 1.458, 1.452, 1.453, 1.459, 1.481, 1.519, 1.563, 1.604, 1.625, 1.626,
                            1.615, 1.614, 1.599, 1.564, 1.525, 1.496, 1.477, 1.459, 1.459, 1.481, 1.497, 1.531, 1.572, 1.609, 1.626, 1.627,
                            1.614, 1.614, 1.609, 1.581, 1.552, 1.525, 1.496, 1.488, 1.488, 1.497, 1.531, 1.558, 1.591, 1.619, 1.626, 1.626,
                            1.614, 1.616, 1.618, 1.607, 1.581, 1.552, 1.535, 1.529, 1.529, 1.538, 1.558, 1.591, 1.616, 1.631, 1.631, 1.625,
                            1.613, 1.618, 1.619, 1.621, 1.607, 1.591, 1.579, 1.575, 1.575, 1.582, 1.597, 1.616, 1.631, 1.632, 1.631, 1.625,
                            1.611, 1.616, 1.622, 1.623, 1.621, 1.615, 1.614, 1.614, 1.614, 1.615, 1.619, 1.631, 1.633, 1.633, 1.629, 1.624
                        ]
                    },
                    {
                        "ct": 4000,
                        "table":
                        [
                            2.051, 2.057, 2.058, 2.058, 2.052, 2.045, 2.041, 2.041, 2.041, 2.042, 2.047, 2.062, 2.071, 2.071, 2.068, 2.061,
                            2.051, 2.053, 2.055, 2.051, 2.033, 2.014, 2.001, 1.995, 1.995, 2.004, 2.019, 2.042, 2.064, 2.069, 2.068, 2.062,
                            2.051, 2.051, 2.051, 2.033, 2.005, 1.971, 1.951, 1.943, 1.943, 1.953, 1.976, 2.016, 2.042, 2.064, 2.065, 2.065,
                            2.049, 2.049, 2.037, 2.005, 1.971, 1.939, 1.904, 1.894, 1.894, 1.906, 1.947, 1.976, 2.016, 2.053, 2.065, 2.066,
                            2.051, 2.048, 2.028, 1.987, 1.939, 1.904, 1.884, 1.858, 1.858, 1.891, 1.906, 1.947, 1.998, 2.044, 2.066, 2.068,
                            2.051, 2.048, 2.025, 1.981, 1.929, 1.886, 1.858, 1.855, 1.857, 1.861, 1.892, 1.939, 1.992, 2.041, 2.068, 2.068,
                            2.052, 2.048, 2.025, 1.981, 1.929, 1.886, 1.863, 1.855, 1.858, 1.864, 1.892, 1.939, 1.992, 2.041, 2.068, 2.069,
                            2.053, 2.052, 2.033, 1.992, 1.944, 1.911, 1.886, 1.864, 1.864, 1.892, 1.912, 1.953, 2.003, 2.048, 2.069, 2.069,
                            2.053, 2.053, 2.046, 2.013, 1.978, 1.944, 1.911, 1.901, 1.901, 1.912, 1.953, 1.985, 2.023, 2.059, 2.069, 2.069,
                            2.053, 2.055, 2.058, 2.044, 2.013, 1.978, 1.959, 1.951, 1.951, 1.961, 1.985, 2.023, 2.054, 2.071, 2.071, 2.068,
                            2.052, 2.058, 2.059, 2.061, 2.044, 2.025, 2.011, 2.005, 2.005, 2.014, 2.031, 2.054, 2.071, 2.075, 2.072, 2.068,
                            2.051, 2.056, 2.064, 2.064, 2.061, 2.055, 2.052, 2.052, 2.052, 2.054, 2.058, 2.071, 2.077, 2.077, 2.072, 2.067
                        ]
                    }
                ],
                "calibrations_Cb": [
                    {
                        "ct": 2800,
                        "table":
                        [
                            2.878, 2.876, 2.864, 2.851, 2.847, 2.847, 2.849, 2.854, 2.854, 2.854, 2.854, 2.854, 2.861, 2.873, 2.885, 2.887,
                            2.876, 2.871, 2.859, 2.852, 2.849, 2.849, 2.854, 2.855, 2.855, 2.855, 2.854, 2.852, 2.854, 2.861, 2.875, 2.885,
                            2.872, 2.869, 2.859, 2.856, 2.854, 2.856, 2.859, 2.863, 2.863, 2.861, 2.855, 2.852, 2.853, 2.855, 2.867, 2.875,
                            2.872, 2.871, 2.865, 2.859, 2.858, 2.863, 2.869, 2.877, 2.877, 2.872, 2.861, 2.856, 2.854, 2.857, 2.863, 2.873,
                            2.872, 2.871, 2.868, 2.865, 2.866, 2.872, 2.886, 2.899, 2.899, 2.879, 2.872, 2.861, 2.857, 2.859, 2.862, 2.871,
                            2.872, 2.871, 2.869, 2.869, 2.872, 2.886, 2.901, 2.909, 2.903, 2.899, 2.879, 2.865, 2.859, 2.859, 2.861, 2.869,
                            2.872, 2.871, 2.871, 2.871, 2.873, 2.886, 2.906, 2.909, 2.908, 2.902, 2.879, 2.865, 2.859, 2.859, 2.861, 2.868,
                            2.872, 2.871, 2.871, 2.869, 2.873, 2.884, 2.892, 2.907, 2.903, 2.889, 2.875, 2.864, 2.859, 2.859, 2.861, 2.868,
                            2.875, 2.872, 2.868, 2.867, 2.869, 2.874, 2.884, 2.889, 2.889, 2.877, 2.866, 2.859, 2.859, 2.861, 2.864, 2.872,
                            2.877, 2.875, 2.867, 2.864, 2.865, 2.869, 2.874, 2.877, 2.877, 2.868, 2.861, 2.859, 2.859, 2.863, 2.872, 2.881,
                            2.882, 2.877, 2.868, 2.863, 2.863, 2.863, 2.868, 2.869, 2.868, 2.865, 2.863, 2.861, 2.863, 2.871, 2.881, 2.883,
                            2.885, 2.882, 2.872, 2.864, 2.861, 2.861, 2.865, 2.865, 2.865, 2.864, 2.863, 2.863, 2.866, 2.872, 2.882, 2.891
                        ]
                    },
                    {
                        "ct": 4000,
                        "table":
                        [
                            1.919, 1.919, 1.913, 1.909, 1.909, 1.909, 1.911, 1.912, 1.912, 1.911, 1.909, 1.909, 1.911, 1.914, 1.919, 1.921,
                            1.919, 1.916, 1.913, 1.911, 1.909, 1.912, 1.914, 1.915, 1.914, 1.913, 1.911, 1.909, 1.909, 1.911, 1.915, 1.919,
                            1.916, 1.915, 1.915, 1.914, 1.914, 1.918, 1.921, 1.921, 1.921, 1.919, 1.915, 1.911, 1.909, 1.911, 1.913, 1.916,
                            1.916, 1.916, 1.916, 1.916, 1.919, 1.924, 1.928, 1.932, 1.932, 1.928, 1.919, 1.915, 1.911, 1.911, 1.912, 1.914,
                            1.916, 1.917, 1.918, 1.919, 1.924, 1.928, 1.937, 1.945, 1.945, 1.932, 1.928, 1.919, 1.915, 1.912, 1.912, 1.913,
                            1.916, 1.918, 1.919, 1.923, 1.928, 1.937, 1.946, 1.949, 1.946, 1.945, 1.931, 1.922, 1.916, 1.912, 1.912, 1.913,
                            1.916, 1.918, 1.919, 1.923, 1.928, 1.937, 1.948, 1.949, 1.948, 1.945, 1.931, 1.922, 1.916, 1.912, 1.912, 1.912,
                            1.915, 1.917, 1.918, 1.922, 1.927, 1.933, 1.938, 1.946, 1.945, 1.935, 1.928, 1.919, 1.915, 1.912, 1.912, 1.912,
                            1.916, 1.916, 1.917, 1.918, 1.922, 1.927, 1.933, 1.935, 1.935, 1.928, 1.921, 1.915, 1.913, 1.912, 1.912, 1.914,
                            1.917, 1.916, 1.916, 1.915, 1.917, 1.921, 1.925, 1.926, 1.926, 1.921, 1.918, 1.913, 1.913, 1.913, 1.916, 1.919,
                            1.918, 1.917, 1.915, 1.913, 1.913, 1.916, 1.919, 1.921, 1.921, 1.918, 1.914, 1.913, 1.913, 1.915, 1.918, 1.921,
                            1.919, 1.919, 1.914, 1.912, 1.912, 1.913, 1.914, 1.915, 1.915, 1.915, 1.913, 1.913, 1.913, 1.915, 1.919, 1.922
                        ]
                    }
                ],
                "luminance_lut":
                [
                    3.029, 2.888, 2.497, 2.201, 1.954, 1.761, 1.711, 1.711, 1.711, 1.713, 1.778, 1.975, 2.225, 2.526, 2.925, 3.069,
                    2.888, 2.562, 2.203, 1.999, 1.762, 1.602, 1.495, 1.447, 1.447, 1.503, 1.616, 1.785, 2.019, 2.229, 2.594, 2.925,
                    2.577, 2.319, 2.004, 1.762, 1.602, 1.391, 1.284, 1.241, 1.241, 1.294, 1.409, 1.616, 1.785, 2.031, 2.349, 2.607,
                    2.451, 2.155, 1.861, 1.607, 1.391, 1.284, 1.137, 1.095, 1.095, 1.154, 1.294, 1.409, 1.631, 1.891, 2.185, 2.483,
                    2.393, 2.056, 1.765, 1.501, 1.288, 1.137, 1.091, 1.004, 1.011, 1.095, 1.154, 1.309, 1.527, 1.796, 2.088, 2.425,
                    2.393, 2.015, 1.722, 1.455, 1.245, 1.097, 1.004, 1.001, 1.001, 1.016, 1.115, 1.266, 1.482, 1.752, 2.046, 2.425,
                    2.393, 2.015, 1.722, 1.455, 1.245, 1.097, 1.014, 1.001, 1.011, 1.017, 1.115, 1.266, 1.482, 1.752, 2.046, 2.425,
                    2.399, 2.071, 1.777, 1.515, 1.301, 1.158, 1.097, 1.017, 1.017, 1.114, 1.169, 1.323, 1.543, 1.809, 2.102, 2.429,
                    2.471, 2.178, 1.881, 1.628, 1.419, 1.301, 1.158, 1.117, 1.117, 1.169, 1.323, 1.439, 1.657, 1.915, 2.213, 2.501,
                    2.622, 2.358, 2.034, 1.799, 1.628, 1.419, 1.315, 1.271, 1.271, 1.327, 1.439, 1.657, 1.824, 2.067, 2.394, 2.662,
                    2.959, 2.622, 2.255, 2.034, 1.799, 1.644, 1.536, 1.489, 1.489, 1.548, 1.664, 1.824, 2.066, 2.284, 2.662, 3.018,
                    3.099, 2.959, 2.559, 2.249, 1.994, 1.803, 1.756, 1.756, 1.756, 1.759, 1.824, 2.022, 2.281, 2.601, 3.018, 3.155
                ],
                "sigma": 0.00096,
                "sigma_Cb": 0.00125
            }
        },
        {
            "rpi.contrast":
            {
                "ce_enable": 1,
                "gamma_curve":
                [
                    0, 0,
                    1024, 5040,
                    2048, 9338,
                    3072, 12356,
                    4096, 15312,
                    5120, 18051,
                    6144, 20790,
                    7168, 23193,
                    8192, 25744,
                    9216, 27942,
                    10240, 30035,
                    11264, 32005,
                    12288, 33975,
                    13312, 35815,
                    14336, 37600,
                    15360, 39168,
                    16384, 40642,
                    18432, 43379,
                    20480, 45749,
                    22528, 47753,
                    24576, 49621,
                    26624, 51253,
                    28672, 52698,
                    30720, 53796,
                    32768, 54876,
                    36864, 57012,
                    40960, 58656,
                    45056, 59954,
                    49152, 61183,
                    53248, 62355,
                    57344, 63419,
                    61440, 64476,
                    65535, 65535
                ]
            }
        },
        {
            "rpi.ccm":
            {
                "ccms": [
                    {
                        "ct": 2800,
                        "ccm":
                        [
                            1.61505, -0.29143, -0.32361,
                            -0.36502, 1.73067, -0.36565,
                            0.05048, -1.11795, 2.06747
                        ]
                    },
                    {
                        "ct": 2860,
                        "ccm":
                        [
                            1.61304, -0.35407, -0.25897,
                            -0.49934, 1.98721, -0.48786,
                            -0.03138, -0.70205, 1.73343
                        ]
                    },
                    {
                        "ct": 2880,
                        "ccm":
                        [
                            1.61025, -0.33823, -0.27202,
                            -0.49191, 1.99155, -0.49964,
                            -0.02357, -0.74144, 1.76501
                        ]
                    },
                    {
                        "ct": 3580,
                        "ccm":
                        [
                            1.67102, -0.45799, -0.21303,
                            -0.43726, 1.89058, -0.45332,
                            -0.04778, -0.57899, 1.62678
                        ]
                    },
                    {
                        "ct": 3650,
                        "ccm":
                        [
                            1.66289, -0.44966, -0.21324,
                            -0.42687, 1.86716, -0.44029,
                            -0.04423, -0.55781, 1.60204
                        ]
                    },
                    {
                        "ct": 4500,
                        "ccm":
                        [
                            1.59699, -0.35409, -0.24291,
                            -0.38812, 1.97453, -0.58641,
                            -0.05398, -0.50715, 1.56113
                        ]
                    },
                    {
                        "ct": 4570,
                        "ccm":
                        [
                            1.62669, -0.38858, -0.23811,
                            -0.38608, 1.97311, -0.58703,
                            -0.05461, -0.52526, 1.57986
                        ]
                    },
                    {
                        "ct": 5648,
                        "ccm":
                        [
                            1.77461, -0.60797, -0.16664,
                            -0.33734, 1.82254, -0.48521,
                            -0.06916, -0.43139, 1.50056
                        ]
                    },
                    {
                        "ct": 5717,
                        "ccm":
                        [
                            1.76115, -0.59353, -0.16763,
                            -0.33521, 1.82009, -0.48488,
                            -0.07309, -0.42667, 1.49976
                        ]
                    },
                    {
                        "ct": 7600,
                        "ccm":
                        [
                            1.71087, -0.34863, -0.36223,
                            -0.31392, 2.24605, -0.93213,
                            -0.08447, -0.72208, 1.80655
                        ]
                    }
                ]
            }
        },
        {
            "rpi.sharpen": { }
        },
        {
            "rpi.sync":
            {
            }
        }
    ]
}