src/ipa/rpi/vc4/data/vd55g1.json
{
    "version": 2.0,
    "target": "bcm2835",
    "algorithms": [
        {
            "rpi.black_level":
            {
                "black_level": 4096
            }
        },
        {
            "rpi.lux":
            {
                "reference_shutter_speed": 32138,
                "reference_gain": 1.23,
                "reference_aperture": 1.0,
                "reference_lux": 1060,
                "reference_Y": 21540
            }
        },
        {
            "rpi.noise":
            {
                "reference_constant": 20,
                "reference_slope": 6.825
            }
        },
        {
            "rpi.geq":
            {
                "offset": 81,
                "slope": 0.05471
            }
        },
        {
            "rpi.sdn": { }
        },
        {
            "rpi.awb":
            {
                "priors": [
                    {
                        "lux": 0,
                        "prior":
                        [
                            2000, 1.0,
                            3000, 0.0,
                            13000, 0.0
                        ]
                    },
                    {
                        "lux": 800,
                        "prior":
                        [
                            2000, 0.0,
                            6000, 2.0,
                            13000, 2.0
                        ]
                    },
                    {
                        "lux": 1500,
                        "prior":
                        [
                            2000, 0.0,
                            4000, 1.0,
                            6000, 6.0,
                            6500, 7.0,
                            7000, 1.0,
                            13000, 1.0
                        ]
                    }
                ],
                "modes":
                {
                    "auto":
                    {
                        "lo": 2500,
                        "hi": 8000
                    },
                    "incandescent":
                    {
                        "lo": 2500,
                        "hi": 3000
                    },
                    "tungsten":
                    {
                        "lo": 3000,
                        "hi": 3500
                    },
                    "fluorescent":
                    {
                        "lo": 4000,
                        "hi": 4700
                    },
                    "indoor":
                    {
                        "lo": 3000,
                        "hi": 5000
                    },
                    "daylight":
                    {
                        "lo": 5500,
                        "hi": 6500
                    },
                    "cloudy":
                    {
                        "lo": 7000,
                        "hi": 8600
                    }
                },
                "bayes": 1,
                "ct_curve":
                [
                    3000.0, 1.1165, 0.3945,
                    4100.0, 0.9019, 0.5013,
                    6500.0, 0.6595, 0.7035
                ],
                "sensitivity_r": 1.0,
                "sensitivity_b": 1.0,
                "transverse_pos": 0.01,
                "transverse_neg": 0.01
            }
        },
        {
            "rpi.agc":
            {
                "metering_modes":
                {
                    "centre-weighted":
                    {
                        "weights":
                        [
                            3, 3, 3, 2, 2, 2, 2, 1, 1, 1, 1, 0, 0, 0, 0
                        ]
                    },
                    "spot":
                    {
                        "weights":
                        [
                            2, 1, 1, 0, 0, 0, 0, 0, 0, 0, 0, 0, 0, 0, 0
                        ]
                    },
                    "matrix":
                    {
                        "weights":
                        [
                            1, 1, 1, 1, 1, 1, 1, 1, 1, 1, 1, 1, 1, 1, 1
                        ]
                    }
                },
                "exposure_modes":
                {
                    "normal":
                    {
                        "shutter": [ 100, 10000, 30000, 60000, 120000 ],
                        "gain": [ 1.0, 2.0, 4.0, 6.0, 6.0 ]
                    },
                    "short":
                    {
                        "shutter": [ 100, 5000, 10000, 20000, 120000 ],
                        "gain": [ 1.0, 2.0, 4.0, 6.0, 6.0 ]
                    }
                },
                "constraint_modes":
                {
                    "normal": [
                        {
                            "bound": "LOWER",
                            "q_lo": 0.98,
                            "q_hi": 1.0,
                            "y_target":
                            [
                                0, 0.5,
                                1000, 0.5
                            ]
                        }
                    ],
                    "highlight": [
                        {
                            "bound": "LOWER",
                            "q_lo": 0.98,
                            "q_hi": 1.0,
                            "y_target":
                            [
                                0, 0.5,
                                1000, 0.5
                            ]
                        },
                        {
                            "bound": "UPPER",
                            "q_lo": 0.98,
                            "q_hi": 1.0,
                            "y_target":
                            [
                                0, 0.8,
                                1000, 0.8
                            ]
                        }
                    ]
                },
                "y_target":
                [
                    0, 0.16,
                    1000, 0.165,
                    10000, 0.17
                ]
            }
        },
        {
            "rpi.alsc":
            {
                "omega": 1.3,
                "n_iter": 100,
                "luminance_strength": 0.8,
                "calibrations_Cr": [
                    {
                        "ct": 3000,
                        "table":
                        [
                            1.001, 1.007, 1.019, 1.024, 1.024, 1.028, 1.028, 1.031, 1.031, 1.032, 1.035, 1.037, 1.037, 1.037, 1.035, 1.032,
                            1.007, 1.015, 1.025, 1.035, 1.038, 1.039, 1.039, 1.039, 1.042, 1.042, 1.042, 1.044, 1.044, 1.041, 1.036, 1.033,
                            1.012, 1.024, 1.035, 1.039, 1.044, 1.045, 1.046, 1.046, 1.046, 1.047, 1.047, 1.047, 1.046, 1.044, 1.041, 1.033,
                            1.017, 1.029, 1.039, 1.044, 1.048, 1.049, 1.049, 1.049, 1.049, 1.049, 1.049, 1.048, 1.047, 1.045, 1.041, 1.033,
                            1.021, 1.032, 1.041, 1.047, 1.049, 1.049, 1.051, 1.051, 1.051, 1.051, 1.051, 1.049, 1.048, 1.046, 1.042, 1.032,
                            1.025, 1.035, 1.043, 1.048, 1.049, 1.051, 1.051, 1.052, 1.052, 1.052, 1.052, 1.052, 1.051, 1.047, 1.042, 1.032,
                            1.027, 1.036, 1.043, 1.048, 1.049, 1.051, 1.052, 1.053, 1.053, 1.054, 1.055, 1.054, 1.053, 1.051, 1.042, 1.032,
                            1.034, 1.039, 1.045, 1.049, 1.051, 1.052, 1.052, 1.053, 1.054, 1.055, 1.055, 1.056, 1.055, 1.052, 1.044, 1.034,
                            1.037, 1.044, 1.049, 1.051, 1.051, 1.052, 1.053, 1.053, 1.054, 1.055, 1.056, 1.058, 1.057, 1.054, 1.045, 1.035,
                            1.041, 1.045, 1.049, 1.051, 1.052, 1.052, 1.053, 1.053, 1.053, 1.053, 1.056, 1.059, 1.059, 1.055, 1.045, 1.035,
                            1.042, 1.043, 1.049, 1.049, 1.051, 1.051, 1.049, 1.048, 1.048, 1.048, 1.049, 1.057, 1.056, 1.047, 1.038, 1.035,
                            1.042, 1.042, 1.043, 1.041, 1.042, 1.042, 1.041, 1.039, 1.035, 1.037, 1.041, 1.043, 1.044, 1.043, 1.034, 1.033
                        ]
                    },
                    {
                        "ct": 4100,
                        "table":
                        [
                            1.001, 1.008, 1.026, 1.041, 1.045, 1.049, 1.052, 1.054, 1.058, 1.062, 1.066, 1.067, 1.067, 1.066, 1.065, 1.059,
                            1.008, 1.024, 1.037, 1.051, 1.057, 1.061, 1.064, 1.066, 1.068, 1.069, 1.071, 1.073, 1.073, 1.069, 1.066, 1.059,
                            1.023, 1.037, 1.051, 1.057, 1.064, 1.069, 1.069, 1.071, 1.073, 1.075, 1.075, 1.075, 1.074, 1.073, 1.067, 1.059,
                            1.031, 1.043, 1.057, 1.064, 1.069, 1.072, 1.073, 1.074, 1.076, 1.077, 1.077, 1.076, 1.075, 1.073, 1.066, 1.059,
                            1.039, 1.049, 1.063, 1.069, 1.073, 1.074, 1.075, 1.077, 1.077, 1.078, 1.078, 1.077, 1.076, 1.071, 1.064, 1.054,
                            1.044, 1.055, 1.064, 1.072, 1.074, 1.076, 1.077, 1.078, 1.078, 1.078, 1.078, 1.077, 1.076, 1.071, 1.061, 1.049,
                            1.049, 1.061, 1.069, 1.074, 1.077, 1.078, 1.078, 1.079, 1.079, 1.079, 1.079, 1.078, 1.077, 1.071, 1.059, 1.048,
                            1.057, 1.063, 1.072, 1.076, 1.078, 1.079, 1.079, 1.079, 1.079, 1.081, 1.079, 1.079, 1.076, 1.071, 1.056, 1.041,
                            1.061, 1.067, 1.074, 1.077, 1.078, 1.079, 1.079, 1.079, 1.079, 1.081, 1.079, 1.079, 1.075, 1.069, 1.053, 1.039,
                            1.064, 1.071, 1.075, 1.077, 1.077, 1.078, 1.077, 1.077, 1.077, 1.078, 1.078, 1.075, 1.069, 1.061, 1.052, 1.039,
                            1.064, 1.071, 1.074, 1.076, 1.075, 1.074, 1.072, 1.071, 1.067, 1.066, 1.068, 1.068, 1.064, 1.052, 1.038, 1.027,
                            1.064, 1.069, 1.072, 1.071, 1.071, 1.064, 1.061, 1.059, 1.055, 1.053, 1.057, 1.054, 1.051, 1.041, 1.027, 1.025
                        ]
                    },
                    {
                        "ct": 6500,
                        "table":
                        [
                            1.001, 1.012, 1.029, 1.046, 1.053, 1.057, 1.062, 1.065, 1.067, 1.073, 1.077, 1.085, 1.092, 1.094, 1.099, 1.101,
                            1.012, 1.028, 1.042, 1.054, 1.061, 1.064, 1.065, 1.067, 1.071, 1.075, 1.077, 1.084, 1.089, 1.093, 1.094, 1.093,
                            1.023, 1.038, 1.054, 1.061, 1.065, 1.066, 1.067, 1.068, 1.071, 1.074, 1.077, 1.081, 1.085, 1.089, 1.091, 1.084,
                            1.035, 1.048, 1.059, 1.065, 1.067, 1.067, 1.067, 1.068, 1.069, 1.072, 1.075, 1.078, 1.081, 1.082, 1.082, 1.076,
                            1.045, 1.053, 1.062, 1.066, 1.067, 1.067, 1.067, 1.066, 1.067, 1.071, 1.073, 1.075, 1.078, 1.078, 1.076, 1.071,
                            1.053, 1.062, 1.067, 1.068, 1.068, 1.068, 1.067, 1.067, 1.067, 1.069, 1.073, 1.075, 1.077, 1.077, 1.071, 1.066,
                            1.062, 1.067, 1.071, 1.071, 1.071, 1.069, 1.068, 1.068, 1.069, 1.071, 1.074, 1.075, 1.077, 1.076, 1.066, 1.059,
                            1.068, 1.074, 1.078, 1.078, 1.076, 1.074, 1.072, 1.071, 1.071, 1.074, 1.075, 1.076, 1.077, 1.074, 1.064, 1.052,
                            1.081, 1.084, 1.084, 1.083, 1.081, 1.079, 1.076, 1.076, 1.074, 1.074, 1.076, 1.076, 1.076, 1.073, 1.062, 1.049,
                            1.094, 1.095, 1.093, 1.091, 1.086, 1.081, 1.079, 1.076, 1.074, 1.074, 1.074, 1.076, 1.073, 1.063, 1.057, 1.047,
                            1.105, 1.103, 1.098, 1.094, 1.091, 1.086, 1.078, 1.076, 1.071, 1.066, 1.065, 1.064, 1.062, 1.057, 1.041, 1.031,
                            1.108, 1.106, 1.102, 1.097, 1.091, 1.085, 1.077, 1.071, 1.065, 1.059, 1.054, 1.053, 1.053, 1.047, 1.031, 1.025
                        ]
                    }
                ],
                "calibrations_Cb": [
                    {
                        "ct": 3000,
                        "table":
                        [
                            1.045, 1.066, 1.103, 1.134, 1.161, 1.176, 1.192, 1.204, 1.212, 1.226, 1.232, 1.239, 1.242, 1.241, 1.239, 1.228,
                            1.066, 1.094, 1.132, 1.151, 1.176, 1.192, 1.204, 1.212, 1.224, 1.231, 1.239, 1.246, 1.245, 1.242, 1.236, 1.228,
                            1.091, 1.116, 1.151, 1.176, 1.194, 1.208, 1.215, 1.224, 1.233, 1.239, 1.247, 1.249, 1.247, 1.243, 1.229, 1.223,
                            1.113, 1.131, 1.167, 1.194, 1.208, 1.216, 1.226, 1.232, 1.239, 1.246, 1.249, 1.249, 1.247, 1.239, 1.223, 1.209,
                            1.131, 1.151, 1.181, 1.204, 1.215, 1.225, 1.229, 1.233, 1.241, 1.247, 1.248, 1.248, 1.243, 1.235, 1.209, 1.196,
                            1.148, 1.165, 1.189, 1.211, 1.219, 1.227, 1.229, 1.232, 1.239, 1.245, 1.247, 1.244, 1.235, 1.219, 1.196, 1.177,
                            1.162, 1.178, 1.199, 1.214, 1.221, 1.224, 1.229, 1.231, 1.234, 1.239, 1.237, 1.233, 1.224, 1.208, 1.177, 1.155,
                            1.173, 1.183, 1.201, 1.213, 1.219, 1.222, 1.223, 1.228, 1.229, 1.232, 1.231, 1.224, 1.208, 1.188, 1.155, 1.127,
                            1.177, 1.187, 1.201, 1.211, 1.214, 1.219, 1.219, 1.218, 1.218, 1.218, 1.215, 1.205, 1.188, 1.155, 1.127, 1.094,
                            1.182, 1.186, 1.198, 1.202, 1.209, 1.211, 1.202, 1.201, 1.197, 1.191, 1.182, 1.175, 1.155, 1.127, 1.091, 1.061,
                            1.182, 1.186, 1.191, 1.198, 1.199, 1.189, 1.184, 1.175, 1.165, 1.156, 1.142, 1.136, 1.111, 1.088, 1.047, 1.014,
                            1.182, 1.185, 1.187, 1.189, 1.189, 1.184, 1.175, 1.165, 1.154, 1.133, 1.125, 1.109, 1.089, 1.047, 1.014, 1.001
                        ]
                    },
                    {
                        "ct": 4100,
                        "table":
                        [
                            1.018, 1.036, 1.056, 1.076, 1.091, 1.096, 1.103, 1.113, 1.117, 1.122, 1.126, 1.128, 1.129, 1.129, 1.125, 1.121,
                            1.033, 1.053, 1.071, 1.086, 1.096, 1.107, 1.115, 1.119, 1.123, 1.126, 1.129, 1.132, 1.132, 1.129, 1.126, 1.121,
                            1.041, 1.062, 1.083, 1.096, 1.107, 1.116, 1.121, 1.125, 1.128, 1.131, 1.136, 1.136, 1.135, 1.132, 1.125, 1.121,
                            1.051, 1.067, 1.091, 1.106, 1.115, 1.121, 1.126, 1.127, 1.131, 1.135, 1.138, 1.139, 1.136, 1.134, 1.124, 1.119,
                            1.062, 1.077, 1.097, 1.112, 1.118, 1.123, 1.127, 1.129, 1.133, 1.136, 1.141, 1.141, 1.138, 1.133, 1.121, 1.111,
                            1.069, 1.083, 1.101, 1.115, 1.119, 1.124, 1.127, 1.128, 1.133, 1.135, 1.141, 1.141, 1.138, 1.129, 1.113, 1.107,
                            1.081, 1.092, 1.102, 1.115, 1.119, 1.121, 1.126, 1.128, 1.132, 1.134, 1.136, 1.138, 1.133, 1.127, 1.109, 1.097,
                            1.085, 1.093, 1.103, 1.113, 1.118, 1.121, 1.121, 1.126, 1.129, 1.132, 1.132, 1.132, 1.127, 1.115, 1.097, 1.081,
                            1.089, 1.094, 1.102, 1.109, 1.113, 1.118, 1.119, 1.119, 1.126, 1.128, 1.128, 1.125, 1.115, 1.099, 1.081, 1.059,
                            1.091, 1.095, 1.099, 1.105, 1.109, 1.112, 1.112, 1.111, 1.111, 1.113, 1.112, 1.108, 1.099, 1.081, 1.057, 1.035,
                            1.092, 1.095, 1.098, 1.101, 1.102, 1.099, 1.097, 1.096, 1.091, 1.089, 1.085, 1.077, 1.071, 1.052, 1.029, 1.005,
                            1.092, 1.095, 1.098, 1.098, 1.098, 1.096, 1.092, 1.089, 1.082, 1.075, 1.071, 1.062, 1.049, 1.029, 1.005, 1.001
                        ]
                    },
                    {
                        "ct": 6500,
                        "table":
                        [
                            1.004, 1.015, 1.021, 1.031, 1.033, 1.033, 1.034, 1.038, 1.041, 1.043, 1.045, 1.048, 1.048, 1.048, 1.046, 1.044,
                            1.009, 1.019, 1.029, 1.033, 1.039, 1.041, 1.043, 1.046, 1.047, 1.049, 1.049, 1.049, 1.051, 1.049, 1.048, 1.045,
                            1.009, 1.021, 1.031, 1.039, 1.041, 1.046, 1.048, 1.051, 1.053, 1.056, 1.057, 1.057, 1.055, 1.052, 1.049, 1.046,
                            1.014, 1.022, 1.034, 1.041, 1.047, 1.049, 1.051, 1.055, 1.057, 1.059, 1.059, 1.059, 1.058, 1.057, 1.051, 1.048,
                            1.014, 1.024, 1.035, 1.045, 1.047, 1.051, 1.053, 1.055, 1.059, 1.062, 1.064, 1.064, 1.061, 1.059, 1.053, 1.048,
                            1.016, 1.027, 1.036, 1.046, 1.048, 1.051, 1.053, 1.055, 1.062, 1.066, 1.066, 1.066, 1.064, 1.061, 1.055, 1.048,
                            1.018, 1.028, 1.036, 1.044, 1.046, 1.049, 1.051, 1.055, 1.062, 1.065, 1.066, 1.066, 1.065, 1.062, 1.055, 1.046,
                            1.019, 1.028, 1.034, 1.039, 1.045, 1.048, 1.049, 1.053, 1.059, 1.064, 1.066, 1.065, 1.064, 1.059, 1.051, 1.043,
                            1.019, 1.026, 1.032, 1.038, 1.043, 1.045, 1.048, 1.049, 1.054, 1.059, 1.064, 1.064, 1.059, 1.053, 1.044, 1.036,
                            1.019, 1.023, 1.029, 1.036, 1.038, 1.042, 1.045, 1.047, 1.049, 1.052, 1.054, 1.054, 1.053, 1.044, 1.033, 1.022,
                            1.021, 1.024, 1.028, 1.032, 1.035, 1.036, 1.036, 1.037, 1.039, 1.039, 1.037, 1.037, 1.036, 1.028, 1.018, 1.005,
                            1.022, 1.025, 1.026, 1.031, 1.032, 1.031, 1.031, 1.032, 1.031, 1.031, 1.031, 1.024, 1.024, 1.013, 1.005, 1.001
                        ]
                    }
                ],
                "luminance_lut":
                [
                    1.749, 1.701, 1.554, 1.445, 1.359, 1.311, 1.277, 1.261, 1.255, 1.252, 1.256, 1.271, 1.302, 1.351, 1.407, 1.429,
                    1.701, 1.554, 1.442, 1.352, 1.291, 1.247, 1.208, 1.187, 1.177, 1.175, 1.188, 1.209, 1.241, 1.292, 1.348, 1.403,
                    1.536, 1.421, 1.325, 1.255, 1.203, 1.166, 1.136, 1.119, 1.113, 1.115, 1.131, 1.155, 1.188, 1.229, 1.288, 1.335,
                    1.411, 1.319, 1.247, 1.191, 1.142, 1.105, 1.079, 1.064, 1.059, 1.074, 1.093, 1.116, 1.149, 1.195, 1.249, 1.298,
                    1.318, 1.258, 1.191, 1.136, 1.096, 1.062, 1.042, 1.028, 1.032, 1.046, 1.066, 1.092, 1.125, 1.171, 1.233, 1.284,
                    1.259, 1.209, 1.144, 1.096, 1.062, 1.041, 1.021, 1.011, 1.015, 1.025, 1.052, 1.079, 1.114, 1.165, 1.232, 1.284,
                    1.231, 1.182, 1.125, 1.079, 1.046, 1.031, 1.013, 1.006, 1.007, 1.019, 1.043, 1.076, 1.119, 1.175, 1.248, 1.298,
                    1.214, 1.167, 1.112, 1.069, 1.042, 1.026, 1.017, 1.007, 1.008, 1.029, 1.054, 1.091, 1.137, 1.202, 1.289, 1.356,
                    1.205, 1.155, 1.108, 1.073, 1.048, 1.031, 1.018, 1.016, 1.023, 1.045, 1.082, 1.125, 1.183, 1.256, 1.355, 1.432,
                    1.218, 1.167, 1.131, 1.091, 1.064, 1.043, 1.033, 1.029, 1.045, 1.076, 1.119, 1.175, 1.243, 1.339, 1.437, 1.537,
                    1.251, 1.193, 1.161, 1.128, 1.099, 1.083, 1.068, 1.069, 1.085, 1.126, 1.181, 1.242, 1.334, 1.437, 1.558, 1.675,
                    1.262, 1.244, 1.185, 1.158, 1.134, 1.115, 1.111, 1.112, 1.127, 1.179, 1.236, 1.326, 1.419, 1.527, 1.675, 1.709
                ],
                "sigma": 0.00295,
                "sigma_Cb": 0.00457
            }
        },
        {
            "rpi.contrast":
            {
                "ce_enable": 1,
                "gamma_curve":
                [
                    0, 0,
                    1024, 5040,
                    2048, 9338,
                    3072, 12356,
                    4096, 15312,
                    5120, 18051,
                    6144, 20790,
                    7168, 23193,
                    8192, 25744,
                    9216, 27942,
                    10240, 30035,
                    11264, 32005,
                    12288, 33975,
                    13312, 35815,
                    14336, 37600,
                    15360, 39168,
                    16384, 40642,
                    18432, 43379,
                    20480, 45749,
                    22528, 47753,
                    24576, 49621,
                    26624, 51253,
                    28672, 52698,
                    30720, 53796,
                    32768, 54876,
                    36864, 57012,
                    40960, 58656,
                    45056, 59954,
                    49152, 61183,
                    53248, 62355,
                    57344, 63419,
                    61440, 64476,
                    65535, 65535
                ]
            }
        },
        {
            "rpi.ccm":
            {
                "ccms": [
                    {
                        "ct": 3000,
                        "ccm":
                        [
                            1.80909, -0.38313, -0.42596,
                            -0.41239, 1.92703, -0.51463,
                            0.13887, -1.15693, 2.01806
                        ]
                    },
                    {
                        "ct": 4100,
                        "ccm":
                        [
                            1.72337, -0.44225, -0.28112,
                            -0.33186, 1.74819, -0.41633,
                            0.03269, -0.69284, 1.66014
                        ]
                    },
                    {
                        "ct": 6500,
                        "ccm":
                        [
                            1.65983, -0.32804, -0.33179,
                            -0.22463, 1.80614, -0.58151,
                            0.00516, -0.60942, 1.60425
                        ]
                    }
                ]
            }
        },
        {
            "rpi.sharpen": { }
        }
    ]
}
