src/ipa/raspberrypi/pisp/data/imx296_noir.json
{
    "version": 2.0,
    "target": "pisp",
    "algorithms": [
        {
            "rpi.black_level":
            {
                "black_level": 3840
            }
        },
        {
            "rpi.lux":
            {
                "reference_shutter_speed": 4724,
                "reference_gain": 1.0,
                "reference_aperture": 1.0,
                "reference_lux": 860,
                "reference_Y": 14551
            }
        },
        {
            "rpi.dpc":
            {
                "strength": 1
            }
        },
        {
            "rpi.noise":
            {
                "reference_constant": 0,
                "reference_slope": 2.751
            }
        },
        {
            "rpi.geq":
            {
                "offset": 226,
                "slope": 0.01032
            }
        },
        {
            "rpi.denoise":
            {
                "sdn":
                {
                    "deviation": 1.6,
                    "strength": 0.5,
                    "deviation2": 3.2,
                    "deviation_no_tdn": 3.2,
                    "strength_no_tdn": 0.75
                },
                "cdn":
                {
                    "deviation": 200,
                    "strength": 0.3
                },
                "tdn":
                {
                    "deviation": 0.7,
                    "threshold": 0.05
                }
            }
        },
        {
            "rpi.awb":
            {
                "bayes": 0
            }
        },
        {
            "rpi.agc":
            {
                "metering_modes":
                {
                    "centre-weighted":
                    {
                        "weights":
                        [
                            0, 0, 1, 1, 1, 1, 1, 1, 1, 1, 1, 1, 1, 0, 0,
                            0, 1, 1, 1, 1, 1, 2, 2, 2, 1, 1, 1, 1, 1, 0,
                            1, 1, 1, 1, 2, 2, 2, 2, 2, 2, 2, 1, 1, 1, 1,
                            1, 1, 2, 2, 2, 2, 2, 2, 2, 2, 2, 2, 2, 1, 1,
                            1, 1, 2, 2, 2, 2, 3, 3, 3, 2, 2, 2, 2, 1, 1,
                            1, 1, 2, 2, 2, 3, 3, 3, 3, 3, 2, 2, 2, 1, 1,
                            1, 1, 2, 2, 3, 3, 3, 4, 3, 3, 3, 2, 2, 1, 1,
                            1, 1, 2, 2, 3, 3, 4, 4, 4, 3, 3, 2, 2, 1, 1,
                            1, 1, 2, 2, 3, 3, 3, 4, 3, 3, 3, 2, 2, 1, 1,
                            1, 1, 2, 2, 2, 3, 3, 3, 3, 3, 2, 2, 2, 1, 1,
                            1, 1, 2, 2, 2, 2, 3, 3, 3, 2, 2, 2, 2, 1, 1,
                            1, 1, 2, 2, 2, 2, 2, 2, 2, 2, 2, 2, 2, 1, 1,
                            1, 1, 1, 1, 2, 2, 2, 2, 2, 2, 2, 1, 1, 1, 1,
                            0, 1, 1, 1, 1, 1, 2, 2, 2, 1, 1, 1, 1, 1, 0,
                            0, 0, 1, 1, 1, 1, 1, 1, 1, 1, 1, 1, 1, 0, 0
                        ]
                    },
                    "spot":
                    {
                        "weights":
                        [
                            0, 0, 0, 0, 0, 0, 0, 0, 0, 0, 0, 0, 0, 0, 0,
                            0, 0, 0, 0, 0, 0, 0, 0, 0, 0, 0, 0, 0, 0, 0,
                            0, 0, 0, 0, 0, 0, 0, 0, 0, 0, 0, 0, 0, 0, 0,
                            0, 0, 0, 0, 0, 0, 0, 0, 0, 0, 0, 0, 0, 0, 0,
                            0, 0, 0, 0, 0, 0, 0, 0, 0, 0, 0, 0, 0, 0, 0,
                            0, 0, 0, 0, 0, 0, 0, 1, 0, 0, 0, 0, 0, 0, 0,
                            0, 0, 0, 0, 0, 0, 1, 2, 1, 0, 0, 0, 0, 0, 0,
                            0, 0, 0, 0, 0, 1, 2, 3, 2, 1, 0, 0, 0, 0, 0,
                            0, 0, 0, 0, 0, 0, 1, 2, 1, 0, 0, 0, 0, 0, 0,
                            0, 0, 0, 0, 0, 0, 0, 1, 0, 0, 0, 0, 0, 0, 0,
                            0, 0, 0, 0, 0, 0, 0, 0, 0, 0, 0, 0, 0, 0, 0,
                            0, 0, 0, 0, 0, 0, 0, 0, 0, 0, 0, 0, 0, 0, 0,
                            0, 0, 0, 0, 0, 0, 0, 0, 0, 0, 0, 0, 0, 0, 0,
                            0, 0, 0, 0, 0, 0, 0, 0, 0, 0, 0, 0, 0, 0, 0,
                            0, 0, 0, 0, 0, 0, 0, 0, 0, 0, 0, 0, 0, 0, 0
                        ]
                    },
                    "matrix":
                    {
                        "weights":
                        [
                            1, 1, 1, 1, 1, 1, 1, 1, 1, 1, 1, 1, 1, 1, 1,
                            1, 1, 1, 1, 1, 1, 1, 1, 1, 1, 1, 1, 1, 1, 1,
                            1, 1, 1, 1, 1, 1, 1, 1, 1, 1, 1, 1, 1, 1, 1,
                            1, 1, 1, 1, 1, 1, 1, 1, 1, 1, 1, 1, 1, 1, 1,
                            1, 1, 1, 1, 1, 1, 1, 1, 1, 1, 1, 1, 1, 1, 1,
                            1, 1, 1, 1, 1, 1, 1, 1, 1, 1, 1, 1, 1, 1, 1,
                            1, 1, 1, 1, 1, 1, 1, 1, 1, 1, 1, 1, 1, 1, 1,
                            1, 1, 1, 1, 1, 1, 1, 1, 1, 1, 1, 1, 1, 1, 1,
                            1, 1, 1, 1, 1, 1, 1, 1, 1, 1, 1, 1, 1, 1, 1,
                            1, 1, 1, 1, 1, 1, 1, 1, 1, 1, 1, 1, 1, 1, 1,
                            1, 1, 1, 1, 1, 1, 1, 1, 1, 1, 1, 1, 1, 1, 1,
                            1, 1, 1, 1, 1, 1, 1, 1, 1, 1, 1, 1, 1, 1, 1,
                            1, 1, 1, 1, 1, 1, 1, 1, 1, 1, 1, 1, 1, 1, 1,
                            1, 1, 1, 1, 1, 1, 1, 1, 1, 1, 1, 1, 1, 1, 1,
                            1, 1, 1, 1, 1, 1, 1, 1, 1, 1, 1, 1, 1, 1, 1
                        ]
                    }
                },
                "exposure_modes":
                {
                    "normal":
                    {
                        "shutter": [ 100, 10000, 30000, 60000, 66666 ],
                        "gain": [ 1.0, 1.5, 2.0, 4.0, 8.0 ]
                    },
                    "short":
                    {
                        "shutter": [ 100, 5000, 10000, 20000, 60000 ],
                        "gain": [ 1.0, 1.5, 2.0, 4.0, 8.0 ]
                    },
                    "long":
                    {
                        "shutter": [ 100, 10000, 30000, 60000, 90000, 120000 ],
                        "gain": [ 1.0, 1.5, 2.0, 4.0, 8.0, 12.0 ]
                    }
                },
                "constraint_modes":
                {
                    "normal": [
                        {
                            "bound": "LOWER",
                            "q_lo": 0.98,
                            "q_hi": 1.0,
                            "y_target":
                            [
                                0, 0.5,
                                1000, 0.5
                            ]
                        }
                    ],
                    "highlight": [
                        {
                            "bound": "LOWER",
                            "q_lo": 0.98,
                            "q_hi": 1.0,
                            "y_target":
                            [
                                0, 0.5,
                                1000, 0.5
                            ]
                        },
                        {
                            "bound": "UPPER",
                            "q_lo": 0.98,
                            "q_hi": 1.0,
                            "y_target":
                            [
                                0, 0.8,
                                1000, 0.8
                            ]
                        }
                    ]
                },
                "y_target":
                [
                    0, 0.16,
                    1000, 0.165,
                    10000, 0.17
                ]
            }
        },
        {
            "rpi.alsc":
            {
                "omega": 1.3,
                "n_iter": 100,
                "luminance_strength": 0.8,
                "calibrations_Cr": [
                    {
                        "ct": 3000,
                        "table":
                        [
                            2.084, 2.084, 2.085, 2.085, 2.085, 2.087, 2.088, 2.087, 2.086, 2.082, 2.082, 2.084, 2.086, 2.088, 2.088, 2.088, 2.087, 2.088, 2.088, 2.091, 2.092, 2.093, 2.093, 2.093, 2.091, 2.091, 2.091, 2.091, 2.092, 2.092, 2.091, 2.088,
                            2.086, 2.086, 2.087, 2.088, 2.089, 2.089, 2.091, 2.089, 2.087, 2.086, 2.087, 2.088, 2.091, 2.089, 2.091, 2.089, 2.091, 2.091, 2.091, 2.092, 2.093, 2.093, 2.094, 2.095, 2.094, 2.094, 2.095, 2.096, 2.096, 2.096, 2.096, 2.093,
                            2.087, 2.087, 2.088, 2.091, 2.091, 2.091, 2.091, 2.089, 2.088, 2.088, 2.089, 2.091, 2.092, 2.092, 2.091, 2.091, 2.091, 2.092, 2.092, 2.092, 2.093, 2.094, 2.095, 2.096, 2.096, 2.096, 2.096, 2.097, 2.097, 2.097, 2.097, 2.096,
                            2.089, 2.088, 2.089, 2.091, 2.091, 2.092, 2.091, 2.089, 2.088, 2.088, 2.089, 2.091, 2.092, 2.092, 2.092, 2.091, 2.092, 2.092, 2.092, 2.092, 2.093, 2.094, 2.095, 2.096, 2.096, 2.096, 2.096, 2.097, 2.098, 2.097, 2.097, 2.097,
                            2.091, 2.091, 2.091, 2.092, 2.092, 2.092, 2.091, 2.091, 2.089, 2.088, 2.088, 2.089, 2.091, 2.091, 2.091, 2.091, 2.092, 2.092, 2.092, 2.092, 2.093, 2.094, 2.095, 2.095, 2.096, 2.096, 2.097, 2.099, 2.098, 2.097, 2.097, 2.097,
                            2.091, 2.091, 2.092, 2.093, 2.093, 2.093, 2.092, 2.091, 2.089, 2.089, 2.089, 2.089, 2.089, 2.091, 2.091, 2.091, 2.091, 2.091, 2.091, 2.092, 2.092, 2.093, 2.095, 2.096, 2.096, 2.097, 2.097, 2.099, 2.099, 2.099, 2.098, 2.097,
                            2.092, 2.092, 2.092, 2.093, 2.093, 2.092, 2.091, 2.091, 2.089, 2.089, 2.089, 2.089, 2.089, 2.089, 2.091, 2.091, 2.091, 2.091, 2.091, 2.092, 2.092, 2.093, 2.095, 2.096, 2.096, 2.097, 2.097, 2.099, 2.099, 2.101, 2.099, 2.098,
                            2.092, 2.092, 2.093, 2.093, 2.093, 2.092, 2.091, 2.091, 2.089, 2.089, 2.089, 2.089, 2.089, 2.089, 2.091, 2.089, 2.091, 2.091, 2.091, 2.092, 2.092, 2.094, 2.095, 2.096, 2.097, 2.098, 2.098, 2.098, 2.101, 2.101, 2.099, 2.098,
                            2.092, 2.092, 2.093, 2.093, 2.094, 2.092, 2.091, 2.089, 2.089, 2.089, 2.089, 2.089, 2.089, 2.091, 2.089, 2.089, 2.091, 2.092, 2.092, 2.092, 2.092, 2.094, 2.096, 2.096, 2.097, 2.098, 2.099, 2.099, 2.099, 2.099, 2.099, 2.097,
                            2.093, 2.094, 2.094, 2.094, 2.095, 2.093, 2.092, 2.089, 2.089, 2.089, 2.089, 2.089, 2.089, 2.089, 2.089, 2.091, 2.091, 2.092, 2.092, 2.092, 2.093, 2.094, 2.096, 2.096, 2.097, 2.098, 2.098, 2.101, 2.101, 2.099, 2.099, 2.099,
                            2.094, 2.094, 2.094, 2.095, 2.095, 2.095, 2.091, 2.089, 2.091, 2.089, 2.089, 2.089, 2.091, 2.091, 2.089, 2.091, 2.091, 2.091, 2.092, 2.092, 2.093, 2.093, 2.095, 2.096, 2.097, 2.098, 2.098, 2.099, 2.101, 2.101, 2.099, 2.099,
                            2.095, 2.094, 2.094, 2.095, 2.096, 2.095, 2.091, 2.089, 2.089, 2.089, 2.089, 2.089, 2.089, 2.089, 2.091, 2.091, 2.091, 2.091, 2.093, 2.093, 2.093, 2.093, 2.094, 2.096, 2.097, 2.098, 2.099, 2.101, 2.101, 2.102, 2.101, 2.099,
                            2.095, 2.095, 2.095, 2.095, 2.095, 2.095, 2.092, 2.089, 2.089, 2.088, 2.089, 2.089, 2.091, 2.091, 2.092, 2.092, 2.092, 2.092, 2.093, 2.093, 2.093, 2.093, 2.093, 2.095, 2.096, 2.099, 2.099, 2.101, 2.102, 2.103, 2.102, 2.101,
                            2.095, 2.095, 2.095, 2.095, 2.095, 2.094, 2.092, 2.091, 2.089, 2.089, 2.089, 2.089, 2.091, 2.091, 2.091, 2.093, 2.093, 2.093, 2.092, 2.092, 2.094, 2.094, 2.094, 2.096, 2.096, 2.098, 2.099, 2.102, 2.103, 2.103, 2.102, 2.102,
                            2.095, 2.095, 2.095, 2.096, 2.096, 2.094, 2.093, 2.091, 2.091, 2.089, 2.089, 2.091, 2.091, 2.092, 2.092, 2.092, 2.093, 2.093, 2.092, 2.093, 2.094, 2.094, 2.095, 2.096, 2.097, 2.098, 2.099, 2.103, 2.103, 2.103, 2.101, 2.101,
                            2.095, 2.096, 2.096, 2.097, 2.096, 2.095, 2.093, 2.092, 2.091, 2.091, 2.091, 2.092, 2.092, 2.092, 2.092, 2.092, 2.092, 2.094, 2.093, 2.093, 2.094, 2.095, 2.096, 2.096, 2.097, 2.099, 2.101, 2.103, 2.103, 2.103, 2.101, 2.099,
                            2.096, 2.096, 2.097, 2.096, 2.097, 2.096, 2.094, 2.092, 2.092, 2.091, 2.091, 2.092, 2.092, 2.092, 2.093, 2.093, 2.093, 2.094, 2.093, 2.093, 2.093, 2.095, 2.096, 2.097, 2.099, 2.099, 2.101, 2.103, 2.103, 2.102, 2.101, 2.101,
                            2.096, 2.096, 2.097, 2.097, 2.097, 2.096, 2.094, 2.093, 2.092, 2.092, 2.091, 2.091, 2.092, 2.092, 2.092, 2.093, 2.093, 2.094, 2.093, 2.093, 2.094, 2.095, 2.096, 2.097, 2.099, 2.101, 2.101, 2.102, 2.102, 2.102, 2.101, 2.101,
                            2.097, 2.096, 2.097, 2.097, 2.097, 2.097, 2.095, 2.093, 2.093, 2.093, 2.093, 2.092, 2.091, 2.091, 2.092, 2.092, 2.093, 2.094, 2.093, 2.093, 2.093, 2.095, 2.096, 2.097, 2.099, 2.101, 2.102, 2.102, 2.102, 2.101, 2.101, 2.101,
                            2.098, 2.097, 2.096, 2.097, 2.097, 2.097, 2.095, 2.094, 2.094, 2.094, 2.092, 2.092, 2.092, 2.092, 2.092, 2.092, 2.094, 2.095, 2.095, 2.094, 2.093, 2.095, 2.096, 2.099, 2.101, 2.101, 2.102, 2.102, 2.102, 2.101, 2.101, 2.102,
                            2.098, 2.097, 2.096, 2.096, 2.097, 2.097, 2.095, 2.094, 2.095, 2.093, 2.093, 2.092, 2.092, 2.092, 2.094, 2.094, 2.096, 2.095, 2.095, 2.095, 2.095, 2.096, 2.098, 2.099, 2.099, 2.101, 2.102, 2.103, 2.102, 2.102, 2.101, 2.102,
                            2.098, 2.097, 2.097, 2.098, 2.097, 2.096, 2.095, 2.095, 2.095, 2.094, 2.093, 2.093, 2.094, 2.094, 2.094, 2.095, 2.096, 2.096, 2.096, 2.095, 2.097, 2.097, 2.098, 2.099, 2.099, 2.101, 2.101, 2.103, 2.104, 2.103, 2.102, 2.101,
                            2.099, 2.098, 2.098, 2.098, 2.097, 2.096, 2.096, 2.095, 2.095, 2.095, 2.095, 2.095, 2.094, 2.094, 2.094, 2.094, 2.096, 2.097, 2.097, 2.097, 2.097, 2.098, 2.099, 2.101, 2.101, 2.101, 2.101, 2.104, 2.105, 2.105, 2.103, 2.102,
                            2.101, 2.099, 2.099, 2.099, 2.099, 2.098, 2.097, 2.097, 2.097, 2.096, 2.096, 2.095, 2.095, 2.095, 2.095, 2.095, 2.096, 2.098, 2.098, 2.097, 2.097, 2.098, 2.099, 2.101, 2.101, 2.102, 2.103, 2.104, 2.105, 2.105, 2.104, 2.103,
                            2.102, 2.102, 2.099, 2.098, 2.099, 2.099, 2.099, 2.098, 2.097, 2.097, 2.097, 2.097, 2.097, 2.096, 2.096, 2.097, 2.098, 2.098, 2.099, 2.099, 2.099, 2.101, 2.101, 2.102, 2.104, 2.105, 2.106, 2.106, 2.106, 2.104, 2.104, 2.104,
                            2.102, 2.101, 2.099, 2.099, 2.099, 2.101, 2.101, 2.101, 2.099, 2.098, 2.098, 2.098, 2.098, 2.098, 2.098, 2.098, 2.099, 2.099, 2.099, 2.099, 2.101, 2.101, 2.102, 2.103, 2.105, 2.106, 2.106, 2.106, 2.106, 2.105, 2.104, 2.104,
                            2.099, 2.099, 2.099, 2.098, 2.098, 2.099, 2.101, 2.101, 2.099, 2.098, 2.097, 2.098, 2.098, 2.099, 2.098, 2.098, 2.099, 2.099, 2.101, 2.101, 2.101, 2.101, 2.102, 2.104, 2.105, 2.105, 2.105, 2.106, 2.106, 2.104, 2.104, 2.103,
                            2.096, 2.097, 2.097, 2.097, 2.097, 2.099, 2.099, 2.099, 2.099, 2.097, 2.097, 2.098, 2.098, 2.099, 2.098, 2.097, 2.097, 2.099, 2.101, 2.101, 2.101, 2.101, 2.101, 2.103, 2.105, 2.105, 2.105, 2.104, 2.104, 2.103, 2.101, 2.101,
                            2.096, 2.096, 2.096, 2.097, 2.097, 2.098, 2.098, 2.099, 2.097, 2.096, 2.096, 2.097, 2.098, 2.098, 2.097, 2.097, 2.096, 2.098, 2.098, 2.099, 2.101, 2.101, 2.101, 2.102, 2.104, 2.105, 2.104, 2.104, 2.103, 2.101, 2.099, 2.098,
                            2.096, 2.096, 2.096, 2.096, 2.097, 2.097, 2.097, 2.097, 2.097, 2.097, 2.096, 2.097, 2.098, 2.097, 2.097, 2.096, 2.096, 2.098, 2.098, 2.098, 2.099, 2.099, 2.101, 2.101, 2.103, 2.103, 2.104, 2.104, 2.102, 2.101, 2.099, 2.098,
                            2.097, 2.096, 2.095, 2.096, 2.098, 2.098, 2.098, 2.098, 2.097, 2.098, 2.097, 2.097, 2.097, 2.097, 2.096, 2.096, 2.096, 2.097, 2.097, 2.098, 2.099, 2.099, 2.099, 2.101, 2.102, 2.103, 2.104, 2.104, 2.104, 2.101, 2.099, 2.098,
                            2.097, 2.096, 2.095, 2.097, 2.099, 2.099, 2.099, 2.099, 2.099, 2.099, 2.098, 2.098, 2.097, 2.096, 2.096, 2.097, 2.097, 2.098, 2.097, 2.099, 2.101, 2.099, 2.099, 2.099, 2.102, 2.102, 2.104, 2.105, 2.105, 2.102, 2.099, 2.098
                        ]
                    },
                    {
                        "ct": 5000,
                        "table":
                        [
                            3.431, 3.437, 3.439, 3.439, 3.436, 3.438, 3.441, 3.441, 3.441, 3.441, 3.442, 3.443, 3.443, 3.444, 3.446, 3.448, 3.451, 3.451, 3.452, 3.451, 3.449, 3.449, 3.452, 3.453, 3.454, 3.454, 3.453, 3.456, 3.456, 3.456, 3.451, 3.448,
                            3.445, 3.446, 3.445, 3.449, 3.453, 3.451, 3.451, 3.446, 3.447, 3.446, 3.447, 3.451, 3.453, 3.455, 3.454, 3.453, 3.453, 3.454, 3.455, 3.456, 3.457, 3.459, 3.461, 3.462, 3.463, 3.463, 3.465, 3.466, 3.467, 3.465, 3.459, 3.457,
                            3.449, 3.449, 3.449, 3.454, 3.455, 3.454, 3.453, 3.451, 3.451, 3.448, 3.451, 3.451, 3.455, 3.456, 3.457, 3.456, 3.456, 3.458, 3.457, 3.459, 3.459, 3.461, 3.464, 3.467, 3.467, 3.466, 3.468, 3.469, 3.471, 3.468, 3.465, 3.462,
                            3.451, 3.448, 3.451, 3.453, 3.457, 3.455, 3.454, 3.449, 3.449, 3.448, 3.449, 3.449, 3.455, 3.455, 3.456, 3.455, 3.454, 3.455, 3.455, 3.457, 3.458, 3.458, 3.461, 3.464, 3.466, 3.468, 3.469, 3.469, 3.469, 3.468, 3.465, 3.463,
                            3.449, 3.449, 3.451, 3.453, 3.456, 3.455, 3.452, 3.449, 3.448, 3.447, 3.446, 3.448, 3.451, 3.452, 3.454, 3.455, 3.455, 3.454, 3.457, 3.458, 3.458, 3.459, 3.461, 3.464, 3.464, 3.466, 3.467, 3.469, 3.469, 3.467, 3.463, 3.459,
                            3.449, 3.451, 3.452, 3.454, 3.455, 3.454, 3.452, 3.449, 3.447, 3.447, 3.446, 3.449, 3.449, 3.451, 3.452, 3.452, 3.452, 3.452, 3.454, 3.455, 3.457, 3.459, 3.461, 3.464, 3.464, 3.466, 3.465, 3.468, 3.468, 3.469, 3.465, 3.462,
                            3.451, 3.451, 3.452, 3.453, 3.453, 3.453, 3.451, 3.449, 3.449, 3.447, 3.446, 3.447, 3.448, 3.451, 3.451, 3.451, 3.453, 3.452, 3.452, 3.452, 3.457, 3.458, 3.461, 3.463, 3.464, 3.465, 3.464, 3.466, 3.468, 3.469, 3.466, 3.463,
                            3.451, 3.451, 3.451, 3.454, 3.453, 3.453, 3.451, 3.448, 3.448, 3.444, 3.444, 3.444, 3.448, 3.449, 3.449, 3.448, 3.449, 3.449, 3.451, 3.452, 3.454, 3.457, 3.461, 3.462, 3.464, 3.466, 3.466, 3.467, 3.468, 3.469, 3.466, 3.465,
                            3.451, 3.451, 3.452, 3.455, 3.454, 3.453, 3.449, 3.448, 3.447, 3.447, 3.444, 3.446, 3.446, 3.446, 3.446, 3.447, 3.449, 3.449, 3.451, 3.452, 3.455, 3.457, 3.461, 3.462, 3.464, 3.466, 3.466, 3.468, 3.469, 3.468, 3.465, 3.462,
                            3.453, 3.452, 3.454, 3.456, 3.455, 3.453, 3.449, 3.447, 3.446, 3.446, 3.445, 3.448, 3.447, 3.446, 3.445, 3.446, 3.448, 3.448, 3.449, 3.453, 3.455, 3.457, 3.459, 3.461, 3.464, 3.466, 3.467, 3.468, 3.468, 3.467, 3.465, 3.463,
                            3.453, 3.453, 3.454, 3.456, 3.456, 3.451, 3.448, 3.447, 3.447, 3.446, 3.445, 3.446, 3.446, 3.446, 3.446, 3.446, 3.448, 3.448, 3.449, 3.452, 3.454, 3.456, 3.459, 3.459, 3.461, 3.465, 3.466, 3.468, 3.468, 3.468, 3.467, 3.465,
                            3.451, 3.451, 3.452, 3.455, 3.456, 3.452, 3.448, 3.446, 3.446, 3.444, 3.446, 3.445, 3.446, 3.446, 3.447, 3.448, 3.449, 3.449, 3.449, 3.452, 3.453, 3.454, 3.458, 3.458, 3.461, 3.461, 3.464, 3.469, 3.469, 3.468, 3.466, 3.466,
                            3.452, 3.452, 3.453, 3.454, 3.454, 3.453, 3.447, 3.446, 3.444, 3.444, 3.444, 3.444, 3.445, 3.446, 3.448, 3.451, 3.452, 3.453, 3.451, 3.453, 3.453, 3.455, 3.458, 3.459, 3.461, 3.462, 3.463, 3.468, 3.471, 3.469, 3.467, 3.467,
                            3.454, 3.455, 3.457, 3.458, 3.458, 3.455, 3.449, 3.446, 3.445, 3.445, 3.445, 3.445, 3.447, 3.447, 3.448, 3.451, 3.452, 3.453, 3.452, 3.452, 3.452, 3.454, 3.457, 3.459, 3.459, 3.462, 3.464, 3.468, 3.469, 3.467, 3.465, 3.465,
                            3.457, 3.455, 3.455, 3.459, 3.458, 3.454, 3.451, 3.448, 3.445, 3.445, 3.445, 3.446, 3.448, 3.449, 3.451, 3.452, 3.451, 3.453, 3.452, 3.452, 3.453, 3.457, 3.457, 3.461, 3.461, 3.463, 3.465, 3.468, 3.471, 3.468, 3.465, 3.463,
                            3.458, 3.456, 3.456, 3.459, 3.457, 3.454, 3.452, 3.449, 3.447, 3.445, 3.446, 3.447, 3.447, 3.448, 3.449, 3.448, 3.449, 3.451, 3.451, 3.451, 3.451, 3.455, 3.456, 3.458, 3.462, 3.463, 3.464, 3.465, 3.467, 3.466, 3.464, 3.462,
                            3.457, 3.456, 3.455, 3.457, 3.457, 3.454, 3.449, 3.447, 3.445, 3.445, 3.446, 3.446, 3.448, 3.446, 3.448, 3.449, 3.449, 3.451, 3.451, 3.451, 3.453, 3.455, 3.457, 3.459, 3.462, 3.464, 3.464, 3.465, 3.467, 3.464, 3.464, 3.463,
                            3.458, 3.457, 3.455, 3.456, 3.456, 3.456, 3.453, 3.449, 3.447, 3.448, 3.447, 3.447, 3.447, 3.447, 3.447, 3.448, 3.449, 3.451, 3.451, 3.452, 3.453, 3.455, 3.458, 3.459, 3.459, 3.463, 3.464, 3.463, 3.464, 3.463, 3.464, 3.464,
                            3.457, 3.456, 3.456, 3.456, 3.456, 3.456, 3.455, 3.449, 3.447, 3.448, 3.451, 3.449, 3.449, 3.449, 3.448, 3.449, 3.449, 3.451, 3.451, 3.452, 3.453, 3.456, 3.458, 3.459, 3.461, 3.462, 3.464, 3.464, 3.465, 3.464, 3.464, 3.463,
                            3.457, 3.456, 3.455, 3.455, 3.455, 3.455, 3.453, 3.451, 3.449, 3.448, 3.448, 3.449, 3.449, 3.449, 3.448, 3.449, 3.451, 3.452, 3.452, 3.453, 3.454, 3.457, 3.458, 3.459, 3.462, 3.464, 3.465, 3.464, 3.465, 3.464, 3.463, 3.463,
                            3.456, 3.456, 3.454, 3.453, 3.454, 3.453, 3.452, 3.451, 3.449, 3.448, 3.448, 3.449, 3.451, 3.451, 3.448, 3.449, 3.451, 3.454, 3.454, 3.454, 3.455, 3.457, 3.458, 3.461, 3.461, 3.462, 3.464, 3.464, 3.466, 3.465, 3.464, 3.464,
                            3.459, 3.457, 3.456, 3.455, 3.454, 3.453, 3.453, 3.452, 3.452, 3.451, 3.449, 3.449, 3.449, 3.448, 3.447, 3.449, 3.451, 3.454, 3.455, 3.455, 3.456, 3.458, 3.459, 3.461, 3.461, 3.462, 3.463, 3.466, 3.469, 3.465, 3.465, 3.464,
                            3.463, 3.461, 3.458, 3.458, 3.457, 3.456, 3.456, 3.454, 3.454, 3.452, 3.452, 3.451, 3.451, 3.449, 3.448, 3.448, 3.452, 3.454, 3.456, 3.455, 3.457, 3.458, 3.461, 3.464, 3.462, 3.461, 3.463, 3.466, 3.469, 3.469, 3.467, 3.467,
                            3.466, 3.462, 3.461, 3.461, 3.459, 3.457, 3.457, 3.457, 3.456, 3.454, 3.455, 3.455, 3.455, 3.451, 3.452, 3.453, 3.454, 3.455, 3.456, 3.456, 3.459, 3.462, 3.463, 3.466, 3.466, 3.467, 3.466, 3.469, 3.471, 3.469, 3.468, 3.466,
                            3.467, 3.463, 3.463, 3.459, 3.461, 3.459, 3.461, 3.459, 3.458, 3.456, 3.457, 3.456, 3.457, 3.455, 3.456, 3.455, 3.456, 3.457, 3.459, 3.461, 3.461, 3.464, 3.465, 3.468, 3.469, 3.469, 3.469, 3.469, 3.471, 3.468, 3.467, 3.468,
                            3.467, 3.464, 3.459, 3.459, 3.462, 3.462, 3.462, 3.461, 3.461, 3.462, 3.461, 3.459, 3.461, 3.459, 3.458, 3.457, 3.459, 3.461, 3.462, 3.463, 3.464, 3.466, 3.468, 3.469, 3.471, 3.469, 3.471, 3.472, 3.471, 3.467, 3.466, 3.464,
                            3.464, 3.462, 3.458, 3.457, 3.458, 3.461, 3.461, 3.461, 3.461, 3.462, 3.462, 3.461, 3.461, 3.459, 3.459, 3.459, 3.461, 3.461, 3.464, 3.465, 3.465, 3.468, 3.468, 3.469, 3.471, 3.469, 3.469, 3.469, 3.469, 3.464, 3.462, 3.459,
                            3.457, 3.458, 3.455, 3.456, 3.456, 3.457, 3.459, 3.459, 3.459, 3.459, 3.458, 3.456, 3.458, 3.457, 3.458, 3.458, 3.458, 3.459, 3.461, 3.463, 3.465, 3.466, 3.468, 3.469, 3.471, 3.468, 3.466, 3.466, 3.465, 3.461, 3.459, 3.457,
                            3.456, 3.455, 3.454, 3.454, 3.455, 3.456, 3.458, 3.459, 3.459, 3.456, 3.456, 3.456, 3.455, 3.456, 3.455, 3.455, 3.455, 3.454, 3.457, 3.461, 3.462, 3.464, 3.465, 3.467, 3.467, 3.466, 3.464, 3.464, 3.463, 3.461, 3.457, 3.456,
                            3.456, 3.454, 3.453, 3.454, 3.454, 3.455, 3.458, 3.459, 3.459, 3.456, 3.455, 3.455, 3.455, 3.451, 3.453, 3.454, 3.454, 3.455, 3.455, 3.458, 3.461, 3.462, 3.461, 3.463, 3.465, 3.464, 3.463, 3.463, 3.462, 3.459, 3.456, 3.451,
                            3.455, 3.452, 3.452, 3.452, 3.455, 3.457, 3.459, 3.459, 3.459, 3.458, 3.456, 3.456, 3.455, 3.453, 3.453, 3.455, 3.457, 3.457, 3.457, 3.461, 3.461, 3.461, 3.459, 3.462, 3.464, 3.464, 3.464, 3.463, 3.463, 3.459, 3.454, 3.451,
