src/ipa/raspberrypi/pisp/data/imx219.json
{
    "version": 2.0,
    "target": "pisp",
    "algorithms": [
        {
            "rpi.black_level":
            {
                "black_level": 4096
            }
        },
        {
            "rpi.lux":
            {
                "reference_shutter_speed": 21965,
                "reference_gain": 1.0,
                "reference_aperture": 1.0,
                "reference_lux": 800,
                "reference_Y": 11460
            }
        },
        {
            "rpi.dpc":
            {
                "strength": 1
            }
        },
        {
            "rpi.noise":
            {
                "reference_constant": 0,
                "reference_slope": 3.661
            }
        },
        {
            "rpi.geq":
            {
                "offset": 239,
                "slope": 0.00766
            }
        },
        {
            "rpi.denoise":
            {
                "sdn":
                {
                    "deviation": 1.6,
                    "strength": 0.5,
                    "deviation2": 3.2,
                    "deviation_no_tdn": 3.2,
                    "strength_no_tdn": 0.75
                },
                "cdn":
                {
                    "deviation": 200,
                    "strength": 0.3
                },
                "tdn":
                {
                    "deviation": 0.8,
                    "threshold": 0.05
                }
            }
        },
        {
            "rpi.awb":
            {
                "priors": [
                    {
                        "lux": 0,
                        "prior":
                        [
                            2000, 1.0,
                            3000, 0.0,
                            13000, 0.0
                        ]
                    },
                    {
                        "lux": 800,
                        "prior":
                        [
                            2000, 0.0,
                            6000, 2.0,
                            13000, 2.0
                        ]
                    },
                    {
                        "lux": 1500,
                        "prior":
                        [
                            2000, 0.0,
                            4000, 1.0,
                            6000, 6.0,
                            6500, 7.0,
                            7000, 1.0,
                            13000, 1.0
                        ]
                    }
                ],
                "modes":
                {
                    "auto":
                    {
                        "lo": 2500,
                        "hi": 7700
                    },
                    "incandescent":
                    {
                        "lo": 2500,
                        "hi": 3000
                    },
                    "tungsten":
                    {
                        "lo": 3000,
                        "hi": 3500
                    },
                    "fluorescent":
                    {
                        "lo": 4000,
                        "hi": 4700
                    },
                    "indoor":
                    {
                        "lo": 3000,
                        "hi": 5000
                    },
                    "daylight":
                    {
                        "lo": 5500,
                        "hi": 6500
                    },
                    "cloudy":
                    {
                        "lo": 7000,
                        "hi": 8000
                    }
                },
                "bayes": 1,
                "ct_curve":
                [
                    2860.0, 0.9514, 0.4156,
                    2960.0, 0.9289, 0.4372,
                    3603.0, 0.8305, 0.5251,
                    4650.0, 0.6756, 0.6433,
                    5858.0, 0.6193, 0.6807,
                    7580.0, 0.5019, 0.7495
                ],
                "sensitivity_r": 1.0,
                "sensitivity_b": 1.0,
                "transverse_pos": 0.03392,
                "transverse_neg": 0.034
            }
        },
        {
            "rpi.agc":
            {
                "metering_modes":
                {
                    "centre-weighted":
                    {
                        "weights":
                        [
                            0, 0, 1, 1, 1, 1, 1, 1, 1, 1, 1, 1, 1, 0, 0,
                            0, 1, 1, 1, 1, 1, 2, 2, 2, 1, 1, 1, 1, 1, 0,
                            1, 1, 1, 1, 2, 2, 2, 2, 2, 2, 2, 1, 1, 1, 1,
                            1, 1, 2, 2, 2, 2, 2, 2, 2, 2, 2, 2, 2, 1, 1,
                            1, 1, 2, 2, 2, 2, 3, 3, 3, 2, 2, 2, 2, 1, 1,
                            1, 1, 2, 2, 2, 3, 3, 3, 3, 3, 2, 2, 2, 1, 1,
                            1, 1, 2, 2, 3, 3, 3, 4, 3, 3, 3, 2, 2, 1, 1,
                            1, 1, 2, 2, 3, 3, 4, 4, 4, 3, 3, 2, 2, 1, 1,
                            1, 1, 2, 2, 3, 3, 3, 4, 3, 3, 3, 2, 2, 1, 1,
                            1, 1, 2, 2, 2, 3, 3, 3, 3, 3, 2, 2, 2, 1, 1,
                            1, 1, 2, 2, 2, 2, 3, 3, 3, 2, 2, 2, 2, 1, 1,
                            1, 1, 2, 2, 2, 2, 2, 2, 2, 2, 2, 2, 2, 1, 1,
                            1, 1, 1, 1, 2, 2, 2, 2, 2, 2, 2, 1, 1, 1, 1,
                            0, 1, 1, 1, 1, 1, 2, 2, 2, 1, 1, 1, 1, 1, 0,
                            0, 0, 1, 1, 1, 1, 1, 1, 1, 1, 1, 1, 1, 0, 0
                        ]
                    },
                    "spot":
                    {
                        "weights":
                        [
                            0, 0, 0, 0, 0, 0, 0, 0, 0, 0, 0, 0, 0, 0, 0,
                            0, 0, 0, 0, 0, 0, 0, 0, 0, 0, 0, 0, 0, 0, 0,
                            0, 0, 0, 0, 0, 0, 0, 0, 0, 0, 0, 0, 0, 0, 0,
                            0, 0, 0, 0, 0, 0, 0, 0, 0, 0, 0, 0, 0, 0, 0,
                            0, 0, 0, 0, 0, 0, 0, 0, 0, 0, 0, 0, 0, 0, 0,
                            0, 0, 0, 0, 0, 0, 0, 1, 0, 0, 0, 0, 0, 0, 0,
                            0, 0, 0, 0, 0, 0, 1, 2, 1, 0, 0, 0, 0, 0, 0,
                            0, 0, 0, 0, 0, 1, 2, 3, 2, 1, 0, 0, 0, 0, 0,
                            0, 0, 0, 0, 0, 0, 1, 2, 1, 0, 0, 0, 0, 0, 0,
                            0, 0, 0, 0, 0, 0, 0, 1, 0, 0, 0, 0, 0, 0, 0,
                            0, 0, 0, 0, 0, 0, 0, 0, 0, 0, 0, 0, 0, 0, 0,
                            0, 0, 0, 0, 0, 0, 0, 0, 0, 0, 0, 0, 0, 0, 0,
                            0, 0, 0, 0, 0, 0, 0, 0, 0, 0, 0, 0, 0, 0, 0,
                            0, 0, 0, 0, 0, 0, 0, 0, 0, 0, 0, 0, 0, 0, 0,
                            0, 0, 0, 0, 0, 0, 0, 0, 0, 0, 0, 0, 0, 0, 0
                        ]
                    },
                    "matrix":
                    {
                        "weights":
                        [
                            1, 1, 1, 1, 1, 1, 1, 1, 1, 1, 1, 1, 1, 1, 1,
                            1, 1, 1, 1, 1, 1, 1, 1, 1, 1, 1, 1, 1, 1, 1,
                            1, 1, 1, 1, 1, 1, 1, 1, 1, 1, 1, 1, 1, 1, 1,
                            1, 1, 1, 1, 1, 1, 1, 1, 1, 1, 1, 1, 1, 1, 1,
                            1, 1, 1, 1, 1, 1, 1, 1, 1, 1, 1, 1, 1, 1, 1,
                            1, 1, 1, 1, 1, 1, 1, 1, 1, 1, 1, 1, 1, 1, 1,
                            1, 1, 1, 1, 1, 1, 1, 1, 1, 1, 1, 1, 1, 1, 1,
                            1, 1, 1, 1, 1, 1, 1, 1, 1, 1, 1, 1, 1, 1, 1,
                            1, 1, 1, 1, 1, 1, 1, 1, 1, 1, 1, 1, 1, 1, 1,
                            1, 1, 1, 1, 1, 1, 1, 1, 1, 1, 1, 1, 1, 1, 1,
                            1, 1, 1, 1, 1, 1, 1, 1, 1, 1, 1, 1, 1, 1, 1,
                            1, 1, 1, 1, 1, 1, 1, 1, 1, 1, 1, 1, 1, 1, 1,
                            1, 1, 1, 1, 1, 1, 1, 1, 1, 1, 1, 1, 1, 1, 1,
                            1, 1, 1, 1, 1, 1, 1, 1, 1, 1, 1, 1, 1, 1, 1,
                            1, 1, 1, 1, 1, 1, 1, 1, 1, 1, 1, 1, 1, 1, 1
                        ]
                    }
                },
                "exposure_modes":
                {
                    "normal":
                    {
                        "shutter": [ 100, 10000, 30000, 60000, 66666 ],
                        "gain": [ 1.0, 1.5, 2.0, 4.0, 10.0 ]
                    },
                    "short":
                    {
                        "shutter": [ 100, 5000, 10000, 20000, 60000 ],
                        "gain": [ 1.0, 1.5, 2.0, 4.0, 10.0 ]
                    },
                    "long":
                    {
                        "shutter": [ 100, 10000, 30000, 60000, 90000, 120000 ],
                        "gain": [ 1.0, 1.5, 2.0, 4.0, 8.0, 12.0 ]
                    }
                },
                "constraint_modes":
                {
                    "normal": [
                        {
                            "bound": "LOWER",
                            "q_lo": 0.98,
                            "q_hi": 1.0,
                            "y_target":
                            [
                                0, 0.5,
                                1000, 0.5
                            ]
                        }
                    ],
                    "highlight": [
                        {
                            "bound": "LOWER",
                            "q_lo": 0.98,
                            "q_hi": 1.0,
                            "y_target":
                            [
                                0, 0.5,
                                1000, 0.5
                            ]
                        },
                        {
                            "bound": "UPPER",
                            "q_lo": 0.98,
                            "q_hi": 1.0,
                            "y_target":
                            [
                                0, 0.8,
                                1000, 0.8
                            ]
                        }
                    ]
                },
                "y_target":
                [
                    0, 0.16,
                    1000, 0.165,
                    10000, 0.17
                ]
            }
        },
        {
            "rpi.alsc":
            {
                "omega": 1.3,
                "n_iter": 100,
                "luminance_strength": 0.8,
                "calibrations_Cr": [
                    {
                        "ct": 3000,
                        "table":
                        [
                            1.418, 1.428, 1.446, 1.454, 1.454, 1.451, 1.441, 1.428, 1.411, 1.391, 1.371, 1.349, 1.334, 1.327, 1.325, 1.325, 1.325, 1.325, 1.331, 1.344, 1.363, 1.383, 1.402, 1.418, 1.433, 1.446, 1.452, 1.453, 1.446, 1.435, 1.415, 1.404,
                            1.428, 1.442, 1.453, 1.455, 1.454, 1.447, 1.431, 1.413, 1.392, 1.371, 1.349, 1.331, 1.318, 1.307, 1.299, 1.299, 1.299, 1.303, 1.313, 1.328, 1.344, 1.363, 1.383, 1.404, 1.424, 1.439, 1.451, 1.453, 1.453, 1.445, 1.431, 1.415,
                            1.436, 1.448, 1.453, 1.455, 1.449, 1.435, 1.415, 1.393, 1.369, 1.345, 1.322, 1.303, 1.287, 1.276, 1.269, 1.268, 1.268, 1.272, 1.283, 1.298, 1.316, 1.337, 1.362, 1.384, 1.406, 1.427, 1.444, 1.454, 1.454, 1.452, 1.438, 1.426,
                            1.441, 1.451, 1.454, 1.451, 1.439, 1.422, 1.396, 1.372, 1.345, 1.319, 1.295, 1.274, 1.257, 1.245, 1.239, 1.238, 1.238, 1.245, 1.255, 1.269, 1.289, 1.311, 1.336, 1.362, 1.388, 1.412, 1.433, 1.448, 1.454, 1.453, 1.445, 1.433,
                            1.445, 1.452, 1.452, 1.445, 1.428, 1.405, 1.379, 1.349, 1.319, 1.295, 1.269, 1.247, 1.229, 1.219, 1.212, 1.211, 1.211, 1.217, 1.228, 1.242, 1.261, 1.286, 1.311, 1.339, 1.367, 1.395, 1.419, 1.439, 1.452, 1.452, 1.451, 1.436,
                            1.448, 1.451, 1.451, 1.435, 1.414, 1.387, 1.358, 1.327, 1.296, 1.269, 1.245, 1.222, 1.205, 1.193, 1.187, 1.185, 1.186, 1.191, 1.202, 1.217, 1.237, 1.261, 1.286, 1.316, 1.346, 1.378, 1.404, 1.429, 1.445, 1.451, 1.451, 1.442,
                            1.448, 1.448, 1.445, 1.427, 1.401, 1.371, 1.338, 1.306, 1.274, 1.245, 1.222, 1.199, 1.183, 1.171, 1.164, 1.162, 1.162, 1.168, 1.181, 1.194, 1.215, 1.237, 1.264, 1.294, 1.325, 1.359, 1.389, 1.418, 1.441, 1.449, 1.449, 1.443,
                            1.449, 1.448, 1.438, 1.415, 1.387, 1.352, 1.318, 1.284, 1.252, 1.223, 1.199, 1.179, 1.161, 1.149, 1.142, 1.142, 1.142, 1.149, 1.159, 1.174, 1.194, 1.215, 1.242, 1.272, 1.307, 1.341, 1.376, 1.405, 1.431, 1.447, 1.447, 1.444,
                            1.448, 1.447, 1.431, 1.405, 1.373, 1.336, 1.301, 1.264, 1.234, 1.204, 1.179, 1.161, 1.143, 1.131, 1.124, 1.123, 1.123, 1.131, 1.141, 1.156, 1.174, 1.197, 1.224, 1.254, 1.288, 1.324, 1.361, 1.394, 1.423, 1.442, 1.444, 1.444,
                            1.447, 1.442, 1.424, 1.393, 1.359, 1.322, 1.284, 1.248, 1.216, 1.187, 1.162, 1.143, 1.128, 1.115, 1.109, 1.108, 1.108, 1.113, 1.124, 1.139, 1.156, 1.179, 1.206, 1.236, 1.272, 1.309, 1.347, 1.382, 1.411, 1.435, 1.443, 1.444,
                            1.444, 1.439, 1.417, 1.383, 1.347, 1.308, 1.271, 1.233, 1.201, 1.173, 1.147, 1.128, 1.115, 1.101, 1.095, 1.093, 1.093, 1.099, 1.111, 1.124, 1.142, 1.165, 1.191, 1.222, 1.258, 1.296, 1.333, 1.372, 1.404, 1.429, 1.441, 1.442,
                            1.443, 1.434, 1.409, 1.375, 1.336, 1.297, 1.257, 1.221, 1.189, 1.159, 1.136, 1.116, 1.101, 1.092, 1.083, 1.082, 1.082, 1.089, 1.099, 1.111, 1.131, 1.153, 1.181, 1.211, 1.246, 1.284, 1.324, 1.361, 1.398, 1.425, 1.441, 1.441,
                            1.443, 1.431, 1.405, 1.369, 1.328, 1.287, 1.247, 1.211, 1.178, 1.149, 1.126, 1.107, 1.092, 1.083, 1.075, 1.073, 1.073, 1.082, 1.089, 1.101, 1.121, 1.143, 1.171, 1.201, 1.237, 1.274, 1.314, 1.353, 1.389, 1.421, 1.439, 1.441,
                            1.442, 1.429, 1.401, 1.364, 1.323, 1.279, 1.241, 1.205, 1.172, 1.144, 1.119, 1.101, 1.085, 1.075, 1.071, 1.067, 1.067, 1.073, 1.082, 1.096, 1.114, 1.136, 1.163, 1.194, 1.229, 1.268, 1.308, 1.348, 1.387, 1.417, 1.439, 1.439,
                            1.443, 1.429, 1.399, 1.362, 1.319, 1.276, 1.237, 1.199, 1.169, 1.141, 1.115, 1.096, 1.081, 1.071, 1.066, 1.063, 1.066, 1.068, 1.078, 1.092, 1.109, 1.132, 1.159, 1.191, 1.226, 1.263, 1.304, 1.346, 1.384, 1.416, 1.438, 1.439,
                            1.443, 1.428, 1.399, 1.361, 1.319, 1.276, 1.236, 1.199, 1.167, 1.139, 1.115, 1.096, 1.081, 1.071, 1.064, 1.062, 1.062, 1.067, 1.077, 1.091, 1.109, 1.131, 1.158, 1.189, 1.224, 1.262, 1.303, 1.345, 1.383, 1.416, 1.438, 1.439,
                            1.444, 1.429, 1.399, 1.361, 1.319, 1.276, 1.236, 1.199, 1.167, 1.139, 1.116, 1.096, 1.081, 1.071, 1.064, 1.063, 1.063, 1.067, 1.077, 1.091, 1.109, 1.131, 1.159, 1.189, 1.224, 1.262, 1.303, 1.345, 1.384, 1.416, 1.438, 1.441,
                            1.444, 1.431, 1.402, 1.364, 1.322, 1.281, 1.239, 1.202, 1.171, 1.142, 1.118, 1.099, 1.084, 1.073, 1.069, 1.065, 1.067, 1.071, 1.079, 1.094, 1.112, 1.135, 1.163, 1.191, 1.227, 1.265, 1.307, 1.348, 1.386, 1.418, 1.438, 1.441,
                            1.447, 1.433, 1.406, 1.369, 1.328, 1.286, 1.244, 1.209, 1.177, 1.148, 1.124, 1.105, 1.089, 1.081, 1.073, 1.071, 1.071, 1.079, 1.085, 1.099, 1.118, 1.141, 1.168, 1.198, 1.233, 1.271, 1.312, 1.352, 1.391, 1.422, 1.441, 1.444,
                            1.448, 1.438, 1.412, 1.376, 1.335, 1.295, 1.255, 1.218, 1.186, 1.157, 1.134, 1.113, 1.098, 1.089, 1.081, 1.079, 1.079, 1.085, 1.094, 1.107, 1.125, 1.149, 1.175, 1.207, 1.242, 1.281, 1.319, 1.359, 1.396, 1.425, 1.445, 1.447,
                            1.449, 1.443, 1.417, 1.384, 1.345, 1.305, 1.266, 1.229, 1.197, 1.169, 1.145, 1.124, 1.111, 1.098, 1.091, 1.089, 1.089, 1.094, 1.107, 1.118, 1.137, 1.159, 1.187, 1.218, 1.253, 1.291, 1.329, 1.369, 1.405, 1.433, 1.447, 1.449,
                            1.453, 1.449, 1.425, 1.395, 1.358, 1.318, 1.281, 1.244, 1.211, 1.183, 1.158, 1.138, 1.124, 1.111, 1.104, 1.103, 1.103, 1.107, 1.118, 1.133, 1.151, 1.174, 1.201, 1.232, 1.267, 1.304, 1.344, 1.379, 1.413, 1.437, 1.449, 1.449,
                            1.457, 1.453, 1.434, 1.405, 1.371, 1.335, 1.297, 1.261, 1.229, 1.199, 1.174, 1.155, 1.138, 1.126, 1.119, 1.117, 1.117, 1.124, 1.133, 1.149, 1.167, 1.189, 1.217, 1.248, 1.284, 1.319, 1.357, 1.393, 1.423, 1.444, 1.452, 1.452,
                            1.459, 1.457, 1.443, 1.418, 1.385, 1.352, 1.314, 1.279, 1.246, 1.218, 1.193, 1.174, 1.155, 1.144, 1.137, 1.136, 1.136, 1.141, 1.151, 1.167, 1.187, 1.208, 1.236, 1.267, 1.301, 1.337, 1.373, 1.405, 1.434, 1.453, 1.455, 1.455,
                            1.461, 1.461, 1.454, 1.429, 1.401, 1.369, 1.333, 1.301, 1.269, 1.239, 1.216, 1.193, 1.177, 1.165, 1.158, 1.156, 1.156, 1.161, 1.171, 1.187, 1.208, 1.229, 1.258, 1.288, 1.321, 1.356, 1.389, 1.419, 1.445, 1.459, 1.459, 1.455,
                            1.462, 1.462, 1.459, 1.442, 1.418, 1.386, 1.354, 1.322, 1.292, 1.262, 1.239, 1.216, 1.199, 1.187, 1.179, 1.178, 1.178, 1.184, 1.194, 1.208, 1.229, 1.253, 1.279, 1.309, 1.342, 1.375, 1.406, 1.433, 1.452, 1.464, 1.464, 1.454,
                            1.461, 1.465, 1.465, 1.454, 1.431, 1.405, 1.376, 1.346, 1.316, 1.288, 1.262, 1.242, 1.223, 1.212, 1.205, 1.203, 1.203, 1.208, 1.218, 1.234, 1.253, 1.279, 1.305, 1.334, 1.363, 1.393, 1.421, 1.445, 1.461, 1.465, 1.464, 1.452,
                            1.459, 1.465, 1.466, 1.461, 1.443, 1.421, 1.395, 1.368, 1.341, 1.316, 1.288, 1.268, 1.251, 1.238, 1.232, 1.229, 1.229, 1.235, 1.246, 1.261, 1.279, 1.305, 1.331, 1.356, 1.385, 1.411, 1.435, 1.454, 1.466, 1.466, 1.464, 1.451,
                            1.454, 1.465, 1.467, 1.466, 1.456, 1.436, 1.414, 1.389, 1.367, 1.341, 1.318, 1.297, 1.279, 1.269, 1.261, 1.259, 1.259, 1.265, 1.274, 1.288, 1.308, 1.331, 1.355, 1.381, 1.404, 1.428, 1.447, 1.462, 1.468, 1.467, 1.457, 1.445,
                            1.447, 1.459, 1.466, 1.467, 1.463, 1.451, 1.434, 1.411, 1.389, 1.367, 1.344, 1.325, 1.311, 1.297, 1.292, 1.289, 1.289, 1.295, 1.303, 1.317, 1.336, 1.356, 1.381, 1.402, 1.423, 1.441, 1.457, 1.467, 1.468, 1.463, 1.451, 1.439,
                            1.438, 1.449, 1.462, 1.464, 1.464, 1.459, 1.446, 1.429, 1.408, 1.388, 1.369, 1.353, 1.339, 1.329, 1.321, 1.321, 1.321, 1.325, 1.333, 1.348, 1.362, 1.379, 1.401, 1.421, 1.439, 1.454, 1.463, 1.465, 1.465, 1.456, 1.442, 1.427,
                            1.429, 1.439, 1.454, 1.464, 1.464, 1.459, 1.449, 1.435, 1.421, 1.402, 1.385, 1.369, 1.353, 1.341, 1.338, 1.337, 1.337, 1.338, 1.348, 1.362, 1.378, 1.395, 1.411, 1.429, 1.445, 1.455, 1.463, 1.464, 1.457, 1.447, 1.427, 1.419
                        ]
                    },
                    {
                        "ct": 5000,
                        "table":
                        [
                            2.163, 2.177, 2.194, 2.196, 2.197, 2.192, 2.181, 2.161, 2.139, 2.113, 2.088, 2.063, 2.047, 2.041, 2.036, 2.036, 2.036, 2.037, 2.046, 2.059, 2.083, 2.113, 2.135, 2.158, 2.181, 2.193, 2.205, 2.205, 2.202, 2.189, 2.171, 2.158,
                            2.169, 2.184, 2.195, 2.196, 2.194, 2.182, 2.163, 2.141, 2.116, 2.088, 2.063, 2.042, 2.025, 2.013, 2.004, 2.004, 2.006, 2.011, 2.022, 2.038, 2.059, 2.083, 2.113, 2.137, 2.162, 2.182, 2.197, 2.204, 2.203, 2.199, 2.183, 2.171,
                            2.177, 2.187, 2.193, 2.193, 2.184, 2.166, 2.142, 2.116, 2.087, 2.057, 2.033, 2.008, 1.991, 1.977, 1.969, 1.969, 1.969, 1.975, 1.988, 2.006, 2.028, 2.055, 2.083, 2.114, 2.139, 2.166, 2.187, 2.199, 2.202, 2.201, 2.189, 2.179,
                            2.183, 2.189, 2.192, 2.186, 2.172, 2.146, 2.119, 2.089, 2.058, 2.026, 2.001, 1.975, 1.956, 1.942, 1.934, 1.932, 1.933, 1.941, 1.955, 1.971, 1.995, 2.023, 2.055, 2.084, 2.119, 2.146, 2.171, 2.191, 2.201, 2.201, 2.194, 2.183,
                            2.186, 2.189, 2.189, 2.177, 2.158, 2.127, 2.096, 2.059, 2.026, 1.998, 1.969, 1.944, 1.925, 1.911, 1.901, 1.901, 1.903, 1.912, 1.924, 1.941, 1.964, 1.995, 2.023, 2.058, 2.091, 2.126, 2.155, 2.181, 2.195, 2.199, 2.198, 2.188,
                            2.189, 2.189, 2.184, 2.166, 2.138, 2.108, 2.071, 2.036, 1.999, 1.969, 1.941, 1.914, 1.894, 1.879, 1.871, 1.871, 1.872, 1.879, 1.893, 1.913, 1.937, 1.964, 1.997, 2.029, 2.065, 2.104, 2.137, 2.169, 2.187, 2.199, 2.199, 2.189,
                            2.187, 2.186, 2.176, 2.154, 2.123, 2.087, 2.044, 2.011, 1.974, 1.941, 1.913, 1.887, 1.868, 1.852, 1.844, 1.843, 1.844, 1.852, 1.866, 1.885, 1.912, 1.937, 1.972, 2.004, 2.042, 2.081, 2.119, 2.154, 2.179, 2.195, 2.196, 2.193,
                            2.187, 2.181, 2.167, 2.141, 2.103, 2.062, 2.023, 1.984, 1.947, 1.916, 1.887, 1.864, 1.841, 1.828, 1.821, 1.819, 1.819, 1.828, 1.842, 1.862, 1.885, 1.913, 1.945, 1.982, 2.021, 2.058, 2.102, 2.137, 2.168, 2.192, 2.193, 2.193,
                            2.182, 2.181, 2.161, 2.127, 2.083, 2.044, 2.002, 1.961, 1.924, 1.891, 1.864, 1.841, 1.819, 1.806, 1.797, 1.797, 1.797, 1.805, 1.819, 1.841, 1.862, 1.892, 1.924, 1.959, 1.999, 2.041, 2.082, 2.123, 2.161, 2.185, 2.191, 2.192,
                            2.182, 2.172, 2.149, 2.112, 2.069, 2.026, 1.982, 1.941, 1.904, 1.871, 1.841, 1.819, 1.799, 1.785, 1.776, 1.776, 1.778, 1.784, 1.798, 1.819, 1.841, 1.869, 1.903, 1.939, 1.977, 2.021, 2.067, 2.108, 2.145, 2.174, 2.189, 2.191,
                            2.181, 2.167, 2.139, 2.098, 2.056, 2.006, 1.965, 1.921, 1.883, 1.851, 1.823, 1.799, 1.783, 1.767, 1.759, 1.758, 1.758, 1.767, 1.783, 1.798, 1.825, 1.851, 1.883, 1.919, 1.959, 2.004, 2.049, 2.094, 2.136, 2.167, 2.187, 2.189,
                            2.179, 2.163, 2.131, 2.087, 2.041, 1.994, 1.948, 1.907, 1.871, 1.835, 1.806, 1.784, 1.767, 1.754, 1.744, 1.742, 1.742, 1.752, 1.767, 1.783, 1.808, 1.838, 1.869, 1.905, 1.945, 1.989, 2.036, 2.083, 2.128, 2.159, 2.183, 2.187,
                            2.178, 2.161, 2.126, 2.082, 2.032, 1.982, 1.936, 1.896, 1.857, 1.823, 1.795, 1.772, 1.754, 1.744, 1.732, 1.731, 1.732, 1.742, 1.752, 1.771, 1.796, 1.824, 1.857, 1.895, 1.934, 1.977, 2.024, 2.071, 2.116, 2.154, 2.181, 2.185,
                            2.177, 2.157, 2.121, 2.074, 2.025, 1.973, 1.927, 1.886, 1.849, 1.815, 1.787, 1.765, 1.746, 1.732, 1.725, 1.722, 1.724, 1.732, 1.743, 1.762, 1.786, 1.813, 1.848, 1.886, 1.924, 1.969, 2.017, 2.066, 2.111, 2.153, 2.179, 2.183,
                            2.177, 2.155, 2.119, 2.072, 2.022, 1.969, 1.925, 1.881, 1.844, 1.811, 1.782, 1.758, 1.739, 1.725, 1.721, 1.717, 1.721, 1.724, 1.739, 1.757, 1.781, 1.809, 1.842, 1.879, 1.921, 1.965, 2.012, 2.062, 2.108, 2.151, 2.179, 2.182,
                            2.177, 2.156, 2.121, 2.071, 2.021, 1.968, 1.922, 1.879, 1.842, 1.811, 1.781, 1.757, 1.739, 1.725, 1.717, 1.715, 1.715, 1.723, 1.737, 1.757, 1.779, 1.808, 1.841, 1.877, 1.918, 1.963, 2.011, 2.061, 2.107, 2.148, 2.179, 2.183,
                            2.178, 2.157, 2.121, 2.072, 2.021, 1.969, 1.922, 1.881, 1.842, 1.811, 1.781, 1.758, 1.739, 1.726, 1.718, 1.717, 1.718, 1.723, 1.737, 1.757, 1.781, 1.809, 1.841, 1.877, 1.918, 1.964, 2.012, 2.061, 2.108, 2.149, 2.179, 2.183,
                            2.178, 2.159, 2.124, 2.074, 2.024, 1.974, 1.926, 1.885, 1.847, 1.813, 1.784, 1.762, 1.743, 1.731, 1.725, 1.719, 1.723, 1.728, 1.742, 1.762, 1.785, 1.814, 1.847, 1.881, 1.922, 1.966, 2.017, 2.065, 2.109, 2.151, 2.181, 2.184,
                            2.181, 2.163, 2.129, 2.082, 2.032, 1.982, 1.934, 1.891, 1.854, 1.822, 1.794, 1.769, 1.751, 1.739, 1.731, 1.727, 1.728, 1.739, 1.747, 1.768, 1.791, 1.821, 1.852, 1.889, 1.929, 1.972, 2.022, 2.071, 2.117, 2.155, 2.182, 2.189,
                            2.184, 2.169, 2.135, 2.091, 2.041, 1.994, 1.947, 1.902, 1.865, 1.833, 1.805, 1.779, 1.762, 1.751, 1.739, 1.739, 1.739, 1.747, 1.761, 1.779, 1.803, 1.831, 1.864, 1.898, 1.941, 1.984, 2.033, 2.079, 2.123, 2.163, 2.188, 2.193,
