src/ipa/raspberrypi/pisp/data/imx477_noir.json
{
    "version": 2.0,
    "target": "pisp",
    "algorithms": [
        {
            "rpi.black_level":
            {
                "black_level": 4096
            }
        },
        {
            "rpi.lux":
            {
                "reference_shutter_speed": 12000,
                "reference_gain": 1.0,
                "reference_aperture": 1.0,
                "reference_lux": 740,
                "reference_Y": 15051
            }
        },
        {
            "rpi.dpc":
            {
                "strength": 1
            }
        },
        {
            "rpi.noise":
            {
                "reference_constant": 0,
                "reference_slope": 2.809
            }
        },
        {
            "rpi.geq":
            {
                "offset": 204,
                "slope": 0.0061
            }
        },
        {
            "rpi.denoise":
            {
                "sdn":
                {
                    "deviation": 1.6,
                    "strength": 0.5,
                    "deviation2": 3.2,
                    "deviation_no_tdn": 3.2,
                    "strength_no_tdn": 0.75
                },
                "cdn":
                {
                    "deviation": 200,
                    "strength": 0.3
                },
                "tdn":
                {
                    "deviation": 0.8,
                    "threshold": 0.05
                }
            }
        },
        {
            "rpi.awb":
            {
                "bayes": 0
        },
        {
            "rpi.agc":
            {
                "metering_modes":
                {
                    "centre-weighted":
                    {
                        "weights":
                        [
                            0, 0, 1, 1, 1, 1, 1, 1, 1, 1, 1, 1, 1, 0, 0,
                            0, 1, 1, 1, 1, 1, 2, 2, 2, 1, 1, 1, 1, 1, 0,
                            1, 1, 1, 1, 2, 2, 2, 2, 2, 2, 2, 1, 1, 1, 1,
                            1, 1, 2, 2, 2, 2, 2, 2, 2, 2, 2, 2, 2, 1, 1,
                            1, 1, 2, 2, 2, 2, 3, 3, 3, 2, 2, 2, 2, 1, 1,
                            1, 1, 2, 2, 2, 3, 3, 3, 3, 3, 2, 2, 2, 1, 1,
                            1, 1, 2, 2, 3, 3, 3, 4, 3, 3, 3, 2, 2, 1, 1,
                            1, 1, 2, 2, 3, 3, 4, 4, 4, 3, 3, 2, 2, 1, 1,
                            1, 1, 2, 2, 3, 3, 3, 4, 3, 3, 3, 2, 2, 1, 1,
                            1, 1, 2, 2, 2, 3, 3, 3, 3, 3, 2, 2, 2, 1, 1,
                            1, 1, 2, 2, 2, 2, 3, 3, 3, 2, 2, 2, 2, 1, 1,
                            1, 1, 2, 2, 2, 2, 2, 2, 2, 2, 2, 2, 2, 1, 1,
                            1, 1, 1, 1, 2, 2, 2, 2, 2, 2, 2, 1, 1, 1, 1,
                            0, 1, 1, 1, 1, 1, 2, 2, 2, 1, 1, 1, 1, 1, 0,
                            0, 0, 1, 1, 1, 1, 1, 1, 1, 1, 1, 1, 1, 0, 0
                        ]
                    },
                    "spot":
                    {
                        "weights":
                        [
                            0, 0, 0, 0, 0, 0, 0, 0, 0, 0, 0, 0, 0, 0, 0,
                            0, 0, 0, 0, 0, 0, 0, 0, 0, 0, 0, 0, 0, 0, 0,
                            0, 0, 0, 0, 0, 0, 0, 0, 0, 0, 0, 0, 0, 0, 0,
                            0, 0, 0, 0, 0, 0, 0, 0, 0, 0, 0, 0, 0, 0, 0,
                            0, 0, 0, 0, 0, 0, 0, 0, 0, 0, 0, 0, 0, 0, 0,
                            0, 0, 0, 0, 0, 0, 0, 1, 0, 0, 0, 0, 0, 0, 0,
                            0, 0, 0, 0, 0, 0, 1, 2, 1, 0, 0, 0, 0, 0, 0,
                            0, 0, 0, 0, 0, 1, 2, 3, 2, 1, 0, 0, 0, 0, 0,
                            0, 0, 0, 0, 0, 0, 1, 2, 1, 0, 0, 0, 0, 0, 0,
                            0, 0, 0, 0, 0, 0, 0, 1, 0, 0, 0, 0, 0, 0, 0,
                            0, 0, 0, 0, 0, 0, 0, 0, 0, 0, 0, 0, 0, 0, 0,
                            0, 0, 0, 0, 0, 0, 0, 0, 0, 0, 0, 0, 0, 0, 0,
                            0, 0, 0, 0, 0, 0, 0, 0, 0, 0, 0, 0, 0, 0, 0,
                            0, 0, 0, 0, 0, 0, 0, 0, 0, 0, 0, 0, 0, 0, 0,
                            0, 0, 0, 0, 0, 0, 0, 0, 0, 0, 0, 0, 0, 0, 0
                        ]
                    },
                    "matrix":
                    {
                        "weights":
                        [
                            1, 1, 1, 1, 1, 1, 1, 1, 1, 1, 1, 1, 1, 1, 1,
                            1, 1, 1, 1, 1, 1, 1, 1, 1, 1, 1, 1, 1, 1, 1,
                            1, 1, 1, 1, 1, 1, 1, 1, 1, 1, 1, 1, 1, 1, 1,
                            1, 1, 1, 1, 1, 1, 1, 1, 1, 1, 1, 1, 1, 1, 1,
                            1, 1, 1, 1, 1, 1, 1, 1, 1, 1, 1, 1, 1, 1, 1,
                            1, 1, 1, 1, 1, 1, 1, 1, 1, 1, 1, 1, 1, 1, 1,
                            1, 1, 1, 1, 1, 1, 1, 1, 1, 1, 1, 1, 1, 1, 1,
                            1, 1, 1, 1, 1, 1, 1, 1, 1, 1, 1, 1, 1, 1, 1,
                            1, 1, 1, 1, 1, 1, 1, 1, 1, 1, 1, 1, 1, 1, 1,
                            1, 1, 1, 1, 1, 1, 1, 1, 1, 1, 1, 1, 1, 1, 1,
                            1, 1, 1, 1, 1, 1, 1, 1, 1, 1, 1, 1, 1, 1, 1,
                            1, 1, 1, 1, 1, 1, 1, 1, 1, 1, 1, 1, 1, 1, 1,
                            1, 1, 1, 1, 1, 1, 1, 1, 1, 1, 1, 1, 1, 1, 1,
                            1, 1, 1, 1, 1, 1, 1, 1, 1, 1, 1, 1, 1, 1, 1,
                            1, 1, 1, 1, 1, 1, 1, 1, 1, 1, 1, 1, 1, 1, 1
                        ]
                    }
                },
                "exposure_modes":
                {
                    "normal":
                    {
                        "shutter": [ 100, 10000, 30000, 60000, 66666 ],
                        "gain": [ 1.0, 1.5, 2.0, 4.0, 8.0 ]
                    },
                    "short":
                    {
                        "shutter": [ 100, 5000, 10000, 20000, 60000 ],
                        "gain": [ 1.0, 1.5, 2.0, 4.0, 8.0 ]
                    },
                    "long":
                    {
                        "shutter": [ 100, 10000, 30000, 60000, 90000, 120000 ],
                        "gain": [ 1.0, 1.5, 2.0, 4.0, 8.0, 12.0 ]
                    }
                },
                "constraint_modes":
                {
                    "normal": [
                        {
                            "bound": "LOWER",
                            "q_lo": 0.98,
                            "q_hi": 1.0,
                            "y_target":
                            [
                                0, 0.5,
                                1000, 0.5
                            ]
                        }
                    ],
                    "highlight": [
                        {
                            "bound": "LOWER",
                            "q_lo": 0.98,
                            "q_hi": 1.0,
                            "y_target":
                            [
                                0, 0.5,
                                1000, 0.5
                            ]
                        },
                        {
                            "bound": "UPPER",
                            "q_lo": 0.98,
                            "q_hi": 1.0,
                            "y_target":
                            [
                                0, 0.8,
                                1000, 0.8
                            ]
                        }
                    ]
                },
                "y_target":
                [
                    0, 0.16,
                    1000, 0.165,
                    10000, 0.17
                ]
            }
        },
        {
            "rpi.alsc":
            {
                "omega": 1.3,
                "n_iter": 100,
                "luminance_strength": 0.8,
                "calibrations_Cr": [
                    {
                        "ct": 3000,
                        "table":
                        [
                            2.359, 2.354, 2.351, 2.351, 2.343, 2.337, 2.331, 2.325, 2.323, 2.321, 2.317, 2.315, 2.313, 2.313, 2.311, 2.312, 2.312, 2.313, 2.315, 2.315, 2.316, 2.317, 2.319, 2.323, 2.326, 2.329, 2.332, 2.332, 2.335, 2.337, 2.352, 2.363,
                            2.352, 2.351, 2.349, 2.346, 2.342, 2.334, 2.328, 2.324, 2.321, 2.317, 2.315, 2.314, 2.312, 2.311, 2.311, 2.311, 2.311, 2.311, 2.312, 2.314, 2.315, 2.316, 2.317, 2.319, 2.324, 2.326, 2.328, 2.329, 2.331, 2.337, 2.348, 2.355,
                            2.346, 2.346, 2.345, 2.344, 2.338, 2.329, 2.325, 2.319, 2.316, 2.314, 2.311, 2.309, 2.308, 2.306, 2.304, 2.304, 2.305, 2.307, 2.308, 2.309, 2.311, 2.311, 2.313, 2.316, 2.319, 2.322, 2.325, 2.326, 2.328, 2.335, 2.343, 2.349,
                            2.342, 2.342, 2.341, 2.338, 2.332, 2.326, 2.319, 2.316, 2.312, 2.309, 2.308, 2.305, 2.303, 2.302, 2.301, 2.301, 2.302, 2.303, 2.304, 2.305, 2.305, 2.307, 2.311, 2.313, 2.315, 2.319, 2.321, 2.325, 2.328, 2.333, 2.338, 2.348,
                            2.337, 2.337, 2.337, 2.336, 2.331, 2.322, 2.317, 2.312, 2.309, 2.307, 2.304, 2.302, 2.299, 2.299, 2.298, 2.298, 2.299, 2.299, 2.301, 2.302, 2.302, 2.304, 2.305, 2.309, 2.314, 2.316, 2.321, 2.324, 2.326, 2.329, 2.335, 2.343,
                            2.335, 2.334, 2.333, 2.333, 2.326, 2.318, 2.313, 2.309, 2.306, 2.302, 2.299, 2.297, 2.297, 2.296, 2.295, 2.295, 2.294, 2.295, 2.296, 2.298, 2.298, 2.301, 2.303, 2.305, 2.311, 2.315, 2.319, 2.323, 2.325, 2.329, 2.333, 2.339,
                            2.329, 2.331, 2.329, 2.329, 2.325, 2.315, 2.309, 2.306, 2.302, 2.299, 2.297, 2.295, 2.293, 2.292, 2.291, 2.291, 2.291, 2.291, 2.293, 2.294, 2.296, 2.298, 2.301, 2.304, 2.307, 2.313, 2.317, 2.319, 2.323, 2.327, 2.331, 2.339,
                            2.329, 2.328, 2.328, 2.328, 2.321, 2.313, 2.307, 2.303, 2.299, 2.295, 2.294, 2.292, 2.289, 2.289, 2.288, 2.288, 2.288, 2.289, 2.289, 2.292, 2.294, 2.295, 2.297, 2.301, 2.306, 2.311, 2.315, 2.318, 2.319, 2.323, 2.329, 2.335,
                            2.326, 2.327, 2.325, 2.325, 2.319, 2.311, 2.305, 2.299, 2.296, 2.293, 2.291, 2.289, 2.288, 2.287, 2.285, 2.285, 2.286, 2.288, 2.288, 2.289, 2.291, 2.294, 2.295, 2.298, 2.304, 2.308, 2.313, 2.315, 2.317, 2.319, 2.327, 2.335,
                            2.325, 2.325, 2.323, 2.323, 2.317, 2.309, 2.303, 2.298, 2.294, 2.292, 2.289, 2.287, 2.286, 2.285, 2.284, 2.284, 2.284, 2.285, 2.287, 2.289, 2.291, 2.291, 2.294, 2.297, 2.302, 2.305, 2.309, 2.313, 2.315, 2.317, 2.325, 2.334,
                            2.322, 2.324, 2.322, 2.322, 2.316, 2.306, 2.301, 2.296, 2.292, 2.289, 2.287, 2.286, 2.285, 2.284, 2.283, 2.283, 2.283, 2.284, 2.286, 2.288, 2.289, 2.291, 2.293, 2.296, 2.301, 2.304, 2.308, 2.311, 2.312, 2.315, 2.323, 2.333,
                            2.321, 2.323, 2.322, 2.322, 2.314, 2.306, 2.299, 2.294, 2.291, 2.288, 2.286, 2.285, 2.284, 2.282, 2.281, 2.282, 2.282, 2.283, 2.284, 2.286, 2.289, 2.291, 2.291, 2.294, 2.297, 2.302, 2.306, 2.308, 2.311, 2.312, 2.322, 2.332,
                            2.319, 2.321, 2.321, 2.321, 2.314, 2.305, 2.297, 2.293, 2.289, 2.287, 2.285, 2.284, 2.283, 2.281, 2.281, 2.281, 2.282, 2.283, 2.283, 2.285, 2.287, 2.289, 2.291, 2.292, 2.297, 2.301, 2.305, 2.307, 2.309, 2.312, 2.321, 2.333,
                            2.319, 2.321, 2.319, 2.319, 2.314, 2.303, 2.296, 2.293, 2.289, 2.286, 2.285, 2.283, 2.282, 2.281, 2.281, 2.281, 2.282, 2.282, 2.283, 2.284, 2.286, 2.288, 2.289, 2.291, 2.296, 2.301, 2.305, 2.307, 2.308, 2.312, 2.321, 2.332,
                            2.319, 2.321, 2.319, 2.319, 2.313, 2.303, 2.296, 2.291, 2.289, 2.286, 2.284, 2.282, 2.281, 2.281, 2.281, 2.281, 2.282, 2.282, 2.283, 2.284, 2.286, 2.287, 2.288, 2.291, 2.295, 2.299, 2.304, 2.306, 2.307, 2.311, 2.321, 2.332,
                            2.319, 2.321, 2.319, 2.319, 2.313, 2.303, 2.297, 2.292, 2.289, 2.287, 2.285, 2.282, 2.281, 2.281, 2.282, 2.282, 2.282, 2.282, 2.283, 2.284, 2.285, 2.286, 2.288, 2.291, 2.295, 2.299, 2.303, 2.306, 2.307, 2.312, 2.321, 2.331,
                            2.318, 2.319, 2.319, 2.319, 2.313, 2.303, 2.297, 2.292, 2.289, 2.286, 2.285, 2.282, 2.281, 2.281, 2.281, 2.282, 2.282, 2.282, 2.282, 2.283, 2.285, 2.286, 2.287, 2.291, 2.294, 2.298, 2.303, 2.306, 2.307, 2.311, 2.321, 2.331,
                            2.319, 2.319, 2.319, 2.319, 2.313, 2.302, 2.297, 2.292, 2.289, 2.287, 2.285, 2.283, 2.282, 2.281, 2.281, 2.282, 2.283, 2.283, 2.283, 2.283, 2.285, 2.286, 2.287, 2.289, 2.294, 2.297, 2.303, 2.305, 2.308, 2.313, 2.321, 2.331,
                            2.319, 2.319, 2.319, 2.319, 2.313, 2.303, 2.299, 2.293, 2.291, 2.287, 2.285, 2.283, 2.282, 2.281, 2.281, 2.282, 2.283, 2.283, 2.283, 2.283, 2.285, 2.286, 2.288, 2.291, 2.294, 2.298, 2.304, 2.306, 2.308, 2.312, 2.322, 2.331,
                            2.319, 2.321, 2.321, 2.321, 2.315, 2.305, 2.301, 2.295, 2.292, 2.289, 2.286, 2.285, 2.283, 2.282, 2.282, 2.282, 2.284, 2.283, 2.284, 2.284, 2.285, 2.287, 2.288, 2.291, 2.294, 2.299, 2.304, 2.306, 2.309, 2.313, 2.322, 2.334,
                            2.321, 2.322, 2.322, 2.322, 2.317, 2.307, 2.301, 2.296, 2.292, 2.291, 2.288, 2.286, 2.285, 2.284, 2.283, 2.284, 2.285, 2.284, 2.285, 2.285, 2.287, 2.288, 2.289, 2.293, 2.297, 2.301, 2.305, 2.308, 2.311, 2.314, 2.323, 2.335,
                            2.322, 2.324, 2.324, 2.324, 2.319, 2.309, 2.303, 2.297, 2.295, 2.292, 2.291, 2.288, 2.286, 2.286, 2.285, 2.286, 2.286, 2.286, 2.287, 2.288, 2.289, 2.289, 2.291, 2.294, 2.299, 2.302, 2.307, 2.311, 2.312, 2.316, 2.325, 2.335,
                            2.324, 2.326, 2.325, 2.326, 2.321, 2.311, 2.305, 2.301, 2.297, 2.295, 2.293, 2.291, 2.289, 2.289, 2.288, 2.288, 2.287, 2.288, 2.289, 2.291, 2.292, 2.292, 2.295, 2.299, 2.301, 2.304, 2.309, 2.312, 2.315, 2.319, 2.327, 2.337,
                            2.329, 2.329, 2.328, 2.328, 2.323, 2.315, 2.308, 2.304, 2.301, 2.298, 2.296, 2.294, 2.291, 2.291, 2.289, 2.291, 2.291, 2.291, 2.292, 2.293, 2.294, 2.295, 2.297, 2.299, 2.303, 2.308, 2.312, 2.315, 2.318, 2.321, 2.329, 2.339,
                            2.329, 2.331, 2.332, 2.332, 2.326, 2.318, 2.311, 2.306, 2.304, 2.301, 2.299, 2.297, 2.295, 2.293, 2.292, 2.292, 2.292, 2.293, 2.294, 2.294, 2.296, 2.297, 2.299, 2.302, 2.306, 2.311, 2.315, 2.318, 2.319, 2.324, 2.332, 2.342,
                            2.331, 2.333, 2.334, 2.334, 2.328, 2.321, 2.313, 2.308, 2.305, 2.303, 2.301, 2.299, 2.297, 2.295, 2.295, 2.295, 2.294, 2.296, 2.296, 2.297, 2.298, 2.299, 2.302, 2.305, 2.308, 2.314, 2.317, 2.321, 2.323, 2.327, 2.334, 2.346,
                            2.331, 2.332, 2.334, 2.334, 2.329, 2.321, 2.314, 2.309, 2.306, 2.304, 2.303, 2.301, 2.299, 2.297, 2.295, 2.295, 2.296, 2.297, 2.298, 2.298, 2.299, 2.301, 2.303, 2.306, 2.309, 2.315, 2.319, 2.321, 2.324, 2.328, 2.337, 2.346,
                            2.331, 2.332, 2.334, 2.334, 2.329, 2.321, 2.314, 2.311, 2.306, 2.304, 2.303, 2.302, 2.299, 2.297, 2.295, 2.295, 2.296, 2.297, 2.298, 2.298, 2.299, 2.301, 2.303, 2.306, 2.311, 2.314, 2.319, 2.323, 2.325, 2.329, 2.339, 2.348,
                            2.329, 2.329, 2.329, 2.331, 2.326, 2.319, 2.312, 2.309, 2.304, 2.303, 2.302, 2.301, 2.298, 2.295, 2.294, 2.294, 2.295, 2.295, 2.296, 2.297, 2.299, 2.301, 2.302, 2.304, 2.308, 2.313, 2.319, 2.322, 2.325, 2.329, 2.339, 2.351,
                            2.329, 2.329, 2.329, 2.329, 2.326, 2.317, 2.311, 2.308, 2.303, 2.302, 2.301, 2.298, 2.296, 2.295, 2.294, 2.294, 2.294, 2.294, 2.296, 2.297, 2.298, 2.299, 2.301, 2.304, 2.307, 2.312, 2.318, 2.322, 2.326, 2.331, 2.341, 2.355,
                            2.339, 2.332, 2.331, 2.331, 2.327, 2.323, 2.316, 2.309, 2.306, 2.302, 2.301, 2.299, 2.297, 2.296, 2.295, 2.294, 2.294, 2.296, 2.297, 2.297, 2.299, 2.301, 2.303, 2.306, 2.308, 2.317, 2.322, 2.325, 2.329, 2.341, 2.353, 2.361,
                            2.347, 2.347, 2.345, 2.343, 2.338, 2.332, 2.326, 2.322, 2.321, 2.318, 2.316, 2.315, 2.313, 2.312, 2.311, 2.311, 2.311, 2.311, 2.312, 2.315, 2.317, 2.318, 2.319, 2.323, 2.324, 2.329, 2.334, 2.337, 2.344, 2.347, 2.361, 2.364
                        ]
                    },
                    {
                        "ct": 5000,
                        "table":
                        [
                            3.869, 3.852, 3.844, 3.842, 3.836, 3.821, 3.807, 3.796, 3.789, 3.784, 3.778, 3.775, 3.769, 3.768, 3.765, 3.765, 3.767, 3.769, 3.772, 3.774, 3.773, 3.775, 3.779, 3.787, 3.793, 3.801, 3.806, 3.804, 3.813, 3.819, 3.855, 3.879,
                            3.854, 3.844, 3.837, 3.836, 3.824, 3.811, 3.797, 3.789, 3.784, 3.777, 3.774, 3.769, 3.764, 3.758, 3.757, 3.758, 3.758, 3.761, 3.763, 3.764, 3.765, 3.766, 3.772, 3.778, 3.787, 3.792, 3.794, 3.798, 3.802, 3.815, 3.839, 3.873,
                            3.838, 3.831, 3.826, 3.823, 3.813, 3.799, 3.787, 3.781, 3.773, 3.768, 3.763, 3.759, 3.753, 3.749, 3.745, 3.745, 3.745, 3.752, 3.754, 3.757, 3.757, 3.759, 3.763, 3.769, 3.773, 3.781, 3.786, 3.792, 3.798, 3.811, 3.831, 3.861,
                            3.833, 3.822, 3.817, 3.816, 3.804, 3.788, 3.779, 3.772, 3.766, 3.759, 3.755, 3.749, 3.744, 3.741, 3.738, 3.739, 3.739, 3.741, 3.743, 3.747, 3.749, 3.751, 3.756, 3.764, 3.769, 3.776, 3.783, 3.789, 3.798, 3.809, 3.821, 3.855,
                            3.824, 3.818, 3.808, 3.808, 3.797, 3.781, 3.772, 3.764, 3.757, 3.752, 3.747, 3.743, 3.737, 3.735, 3.733, 3.733, 3.733, 3.735, 3.737, 3.738, 3.741, 3.746, 3.749, 3.755, 3.766, 3.771, 3.781, 3.789, 3.794, 3.806, 3.818, 3.849,
                            3.815, 3.808, 3.799, 3.801, 3.787, 3.775, 3.767, 3.757, 3.751, 3.745, 3.738, 3.734, 3.732, 3.727, 3.725, 3.723, 3.722, 3.722, 3.726, 3.729, 3.734, 3.738, 3.744, 3.749, 3.759, 3.769, 3.781, 3.788, 3.792, 3.799, 3.811, 3.841,
                            3.804, 3.799, 3.793, 3.793, 3.783, 3.771, 3.759, 3.751, 3.744, 3.735, 3.732, 3.727, 3.723, 3.721, 3.719, 3.716, 3.716, 3.716, 3.718, 3.722, 3.727, 3.731, 3.737, 3.746, 3.756, 3.767, 3.776, 3.782, 3.788, 3.795, 3.808, 3.831,
                            3.802, 3.797, 3.787, 3.787, 3.779, 3.762, 3.753, 3.744, 3.734, 3.727, 3.725, 3.721, 3.716, 3.714, 3.709, 3.709, 3.711, 3.711, 3.712, 3.717, 3.722, 3.725, 3.731, 3.739, 3.752, 3.762, 3.772, 3.778, 3.779, 3.789, 3.798, 3.826,
                            3.791, 3.789, 3.784, 3.784, 3.775, 3.759, 3.746, 3.735, 3.729, 3.724, 3.718, 3.714, 3.712, 3.707, 3.704, 3.704, 3.706, 3.708, 3.709, 3.711, 3.716, 3.722, 3.726, 3.735, 3.746, 3.754, 3.767, 3.774, 3.777, 3.781, 3.794, 3.824,
                            3.789, 3.784, 3.779, 3.781, 3.771, 3.753, 3.741, 3.732, 3.725, 3.719, 3.715, 3.711, 3.707, 3.704, 3.701, 3.701, 3.702, 3.704, 3.708, 3.709, 3.713, 3.718, 3.724, 3.731, 3.742, 3.749, 3.761, 3.768, 3.772, 3.778, 3.791, 3.822,
                            3.789, 3.781, 3.777, 3.777, 3.764, 3.749, 3.739, 3.729, 3.722, 3.718, 3.711, 3.708, 3.705, 3.701, 3.699, 3.699, 3.699, 3.701, 3.705, 3.707, 3.711, 3.715, 3.721, 3.727, 3.738, 3.746, 3.757, 3.763, 3.765, 3.773, 3.788, 3.821,
                            3.785, 3.779, 3.774, 3.774, 3.764, 3.747, 3.736, 3.726, 3.719, 3.711, 3.709, 3.706, 3.701, 3.698, 3.696, 3.695, 3.695, 3.698, 3.702, 3.704, 3.707, 3.712, 3.718, 3.725, 3.734, 3.741, 3.753, 3.756, 3.759, 3.764, 3.784, 3.818,
                            3.779, 3.776, 3.773, 3.773, 3.759, 3.744, 3.733, 3.724, 3.714, 3.709, 3.706, 3.704, 3.699, 3.696, 3.694, 3.694, 3.694, 3.697, 3.701, 3.703, 3.706, 3.709, 3.714, 3.721, 3.731, 3.737, 3.749, 3.753, 3.758, 3.762, 3.783, 3.819,
                            3.779, 3.776, 3.769, 3.769, 3.757, 3.741, 3.729, 3.721, 3.712, 3.708, 3.705, 3.701, 3.697, 3.695, 3.694, 3.694, 3.695, 3.696, 3.698, 3.702, 3.705, 3.709, 3.712, 3.717, 3.728, 3.736, 3.749, 3.752, 3.756, 3.761, 3.781, 3.815,
                            3.779, 3.773, 3.768, 3.768, 3.756, 3.738, 3.731, 3.719, 3.711, 3.707, 3.703, 3.698, 3.695, 3.694, 3.694, 3.695, 3.695, 3.695, 3.696, 3.702, 3.705, 3.708, 3.712, 3.717, 3.728, 3.736, 3.747, 3.751, 3.754, 3.761, 3.781, 3.815,
                            3.782, 3.773, 3.767, 3.767, 3.755, 3.738, 3.728, 3.721, 3.711, 3.707, 3.701, 3.698, 3.695, 3.693, 3.694, 3.696, 3.695, 3.695, 3.695, 3.701, 3.703, 3.706, 3.711, 3.715, 3.726, 3.735, 3.745, 3.751, 3.754, 3.763, 3.779, 3.815,
                            3.781, 3.771, 3.767, 3.767, 3.754, 3.739, 3.726, 3.721, 3.712, 3.706, 3.701, 3.698, 3.695, 3.693, 3.693, 3.695, 3.695, 3.695, 3.696, 3.698, 3.703, 3.705, 3.709, 3.715, 3.725, 3.734, 3.745, 3.751, 3.755, 3.762, 3.783, 3.818,
                            3.781, 3.774, 3.767, 3.767, 3.755, 3.741, 3.729, 3.722, 3.712, 3.708, 3.701, 3.699, 3.695, 3.693, 3.693, 3.694, 3.695, 3.695, 3.697, 3.698, 3.702, 3.704, 3.709, 3.713, 3.725, 3.732, 3.746, 3.751, 3.756, 3.763, 3.783, 3.821,
                            3.781, 3.774, 3.769, 3.769, 3.756, 3.741, 3.731, 3.724, 3.713, 3.711, 3.707, 3.699, 3.697, 3.694, 3.693, 3.694, 3.695, 3.695, 3.697, 3.698, 3.702, 3.704, 3.709, 3.713, 3.724, 3.734, 3.747, 3.751, 3.756, 3.765, 3.784, 3.821,
                            3.784, 3.776, 3.773, 3.773, 3.759, 3.742, 3.733, 3.726, 3.719, 3.711, 3.709, 3.703, 3.698, 3.695, 3.694, 3.695, 3.697, 3.696, 3.698, 3.699, 3.703, 3.706, 3.711, 3.714, 3.727, 3.735, 3.746, 3.751, 3.757, 3.766, 3.787, 3.822,
                            3.786, 3.783, 3.774, 3.774, 3.766, 3.747, 3.737, 3.727, 3.722, 3.716, 3.711, 3.706, 3.702, 3.698, 3.697, 3.698, 3.699, 3.699, 3.701, 3.703, 3.706, 3.711, 3.713, 3.719, 3.731, 3.739, 3.748, 3.753, 3.761, 3.769, 3.789, 3.826,
                            3.786, 3.784, 3.779, 3.779, 3.769, 3.751, 3.742, 3.732, 3.725, 3.719, 3.715, 3.711, 3.706, 3.704, 3.701, 3.701, 3.702, 3.702, 3.705, 3.707, 3.712, 3.714, 3.717, 3.724, 3.733, 3.743, 3.749, 3.758, 3.764, 3.769, 3.791, 3.826,
                            3.793, 3.787, 3.782, 3.782, 3.774, 3.756, 3.747, 3.737, 3.729, 3.725, 3.719, 3.715, 3.712, 3.708, 3.707, 3.706, 3.707, 3.708, 3.709, 3.713, 3.714, 3.717, 3.723, 3.729, 3.736, 3.747, 3.757, 3.764, 3.768, 3.774, 3.794, 3.829,
                            3.794, 3.791, 3.786, 3.786, 3.779, 3.762, 3.751, 3.742, 3.735, 3.729, 3.725, 3.719, 3.716, 3.711, 3.709, 3.709, 3.709, 3.711, 3.716, 3.717, 3.721, 3.723, 3.726, 3.732, 3.741, 3.752, 3.761, 3.767, 3.773, 3.779, 3.801, 3.829,
                            3.802, 3.798, 3.793, 3.793, 3.779, 3.766, 3.754, 3.746, 3.741, 3.736, 3.731, 3.726, 3.719, 3.717, 3.716, 3.715, 3.716, 3.717, 3.719, 3.721, 3.724, 3.726, 3.731, 3.737, 3.744, 3.756, 3.766, 3.772, 3.776, 3.784, 3.807, 3.839,
                            3.805, 3.799, 3.795, 3.795, 3.784, 3.767, 3.757, 3.749, 3.744, 3.739, 3.736, 3.731, 3.726, 3.722, 3.719, 3.719, 3.719, 3.721, 3.723, 3.725, 3.727, 3.732, 3.738, 3.742, 3.751, 3.761, 3.771, 3.775, 3.782, 3.789, 3.811, 3.841,
                            3.804, 3.801, 3.799, 3.799, 3.787, 3.772, 3.761, 3.752, 3.746, 3.742, 3.739, 3.735, 3.729, 3.726, 3.723, 3.724, 3.725, 3.726, 3.727, 3.728, 3.732, 3.736, 3.739, 3.745, 3.754, 3.765, 3.775, 3.779, 3.785, 3.795, 3.816, 3.844,
                            3.801, 3.799, 3.796, 3.796, 3.787, 3.773, 3.761, 3.753, 3.746, 3.743, 3.739, 3.735, 3.731, 3.726, 3.725, 3.725, 3.725, 3.726, 3.727, 3.729, 3.733, 3.736, 3.741, 3.745, 3.755, 3.766, 3.776, 3.783, 3.786, 3.797, 3.819, 3.851,
                            3.799, 3.795, 3.788, 3.788, 3.783, 3.772, 3.759, 3.749, 3.744, 3.738, 3.735, 3.733, 3.726, 3.724, 3.722, 3.722, 3.723, 3.724, 3.725, 3.727, 3.729, 3.733, 3.736, 3.742, 3.754, 3.762, 3.772, 3.779, 3.784, 3.796, 3.821, 3.859,
                            3.799, 3.789, 3.787, 3.788, 3.779, 3.766, 3.755, 3.749, 3.742, 3.736, 3.733, 3.727, 3.723, 3.722, 3.721, 3.719, 3.719, 3.721, 3.725, 3.726, 3.728, 3.732, 3.734, 3.741, 3.747, 3.758, 3.771, 3.778, 3.785, 3.796, 3.825, 3.862,
                            3.824, 3.799, 3.789, 3.789, 3.788, 3.777, 3.761, 3.751, 3.743, 3.739, 3.736, 3.728, 3.726, 3.725, 3.721, 3.719, 3.721, 3.723, 3.727, 3.728, 3.729, 3.733, 3.737, 3.744, 3.755, 3.769, 3.776, 3.784, 3.793, 3.819, 3.863, 3.877,
