src/ipa/raspberrypi/pisp/data/imx708.json
{
    "version": 2.0,
    "target": "pisp",
    "algorithms": [
        {
            "rpi.black_level":
            {
                "black_level": 4096
            }
        },
        {
            "rpi.lux":
            {
                "reference_shutter_speed": 20716,
                "reference_gain": 1.12,
                "reference_aperture": 1.0,
                "reference_lux": 810,
                "reference_Y": 13994
            }
        },
        {
            "rpi.dpc":
            {
                "strength": 1
            }
        },
        {
            "rpi.noise":
            {
                "reference_constant": 0,
                "reference_slope": 1.856
            }
        },
        {
            "rpi.geq":
            {
                "offset": 221,
                "slope": 0.00226
            }
        },
        {
            "rpi.denoise":
            {
                "sdn":
                {
                    "deviation": 1.6,
                    "strength": 0.5,
                    "deviation2": 3.2,
                    "deviation_no_tdn": 3.2,
                    "strength_no_tdn": 0.75
                },
                "cdn":
                {
                    "deviation": 200,
                    "strength": 0.3
                },
                "tdn":
                {
                    "deviation": 0.8,
                    "threshold": 0.05
                }
            }
        },
        {
            "rpi.awb":
            {
                "priors": [
                    {
                        "lux": 0,
                        "prior":
                        [
                            2000, 1.0,
                            3000, 0.0,
                            13000, 0.0
                        ]
                    },
                    {
                        "lux": 800,
                        "prior":
                        [
                            2000, 0.0,
                            6000, 2.0,
                            13000, 2.0
                        ]
                    },
                    {
                        "lux": 1500,
                        "prior":
                        [
                            2000, 0.0,
                            4000, 1.0,
                            6000, 6.0,
                            6500, 7.0,
                            7000, 1.0,
                            13000, 1.0
                        ]
                    }
                ],
                "modes":
                {
                    "auto":
                    {
                        "lo": 2500,
                        "hi": 7700
                    },
                    "incandescent":
                    {
                        "lo": 2500,
                        "hi": 3000
                    },
                    "tungsten":
                    {
                        "lo": 3000,
                        "hi": 3500
                    },
                    "fluorescent":
                    {
                        "lo": 4000,
                        "hi": 4700
                    },
                    "indoor":
                    {
                        "lo": 3000,
                        "hi": 5000
                    },
                    "daylight":
                    {
                        "lo": 5500,
                        "hi": 6500
                    },
                    "cloudy":
                    {
                        "lo": 7000,
                        "hi": 8000
                    }
                },
                "bayes": 1,
                "ct_curve":
                [
                    2964.0, 0.7451, 0.3213,
                    3610.0, 0.6119, 0.4443,
                    4640.0, 0.5168, 0.5419,
                    5910.0, 0.4436, 0.6229,
                    7590.0, 0.3847, 0.6921
                ],
                "sensitivity_r": 1.0,
                "sensitivity_b": 1.0,
                "transverse_pos": 0.01752,
                "transverse_neg": 0.01831
            }
        },
        {
            "rpi.agc":
            {
                "metering_modes":
                {
                    "centre-weighted":
                    {
                        "weights":
                        [
                            0, 0, 1, 1, 1, 1, 1, 1, 1, 1, 1, 1, 1, 0, 0,
                            0, 1, 1, 1, 1, 1, 2, 2, 2, 1, 1, 1, 1, 1, 0,
                            1, 1, 1, 1, 2, 2, 2, 2, 2, 2, 2, 1, 1, 1, 1,
                            1, 1, 2, 2, 2, 2, 2, 2, 2, 2, 2, 2, 2, 1, 1,
                            1, 1, 2, 2, 2, 2, 3, 3, 3, 2, 2, 2, 2, 1, 1,
                            1, 1, 2, 2, 2, 3, 3, 3, 3, 3, 2, 2, 2, 1, 1,
                            1, 1, 2, 2, 3, 3, 3, 4, 3, 3, 3, 2, 2, 1, 1,
                            1, 1, 2, 2, 3, 3, 4, 4, 4, 3, 3, 2, 2, 1, 1,
                            1, 1, 2, 2, 3, 3, 3, 4, 3, 3, 3, 2, 2, 1, 1,
                            1, 1, 2, 2, 2, 3, 3, 3, 3, 3, 2, 2, 2, 1, 1,
                            1, 1, 2, 2, 2, 2, 3, 3, 3, 2, 2, 2, 2, 1, 1,
                            1, 1, 2, 2, 2, 2, 2, 2, 2, 2, 2, 2, 2, 1, 1,
                            1, 1, 1, 1, 2, 2, 2, 2, 2, 2, 2, 1, 1, 1, 1,
                            0, 1, 1, 1, 1, 1, 2, 2, 2, 1, 1, 1, 1, 1, 0,
                            0, 0, 1, 1, 1, 1, 1, 1, 1, 1, 1, 1, 1, 0, 0
                        ]
                    },
                    "spot":
                    {
                        "weights":
                        [
                            0, 0, 0, 0, 0, 0, 0, 0, 0, 0, 0, 0, 0, 0, 0,
                            0, 0, 0, 0, 0, 0, 0, 0, 0, 0, 0, 0, 0, 0, 0,
                            0, 0, 0, 0, 0, 0, 0, 0, 0, 0, 0, 0, 0, 0, 0,
                            0, 0, 0, 0, 0, 0, 0, 0, 0, 0, 0, 0, 0, 0, 0,
                            0, 0, 0, 0, 0, 0, 0, 0, 0, 0, 0, 0, 0, 0, 0,
                            0, 0, 0, 0, 0, 0, 0, 1, 0, 0, 0, 0, 0, 0, 0,
                            0, 0, 0, 0, 0, 0, 1, 2, 1, 0, 0, 0, 0, 0, 0,
                            0, 0, 0, 0, 0, 1, 2, 3, 2, 1, 0, 0, 0, 0, 0,
                            0, 0, 0, 0, 0, 0, 1, 2, 1, 0, 0, 0, 0, 0, 0,
                            0, 0, 0, 0, 0, 0, 0, 1, 0, 0, 0, 0, 0, 0, 0,
                            0, 0, 0, 0, 0, 0, 0, 0, 0, 0, 0, 0, 0, 0, 0,
                            0, 0, 0, 0, 0, 0, 0, 0, 0, 0, 0, 0, 0, 0, 0,
                            0, 0, 0, 0, 0, 0, 0, 0, 0, 0, 0, 0, 0, 0, 0,
                            0, 0, 0, 0, 0, 0, 0, 0, 0, 0, 0, 0, 0, 0, 0,
                            0, 0, 0, 0, 0, 0, 0, 0, 0, 0, 0, 0, 0, 0, 0
                        ]
                    },
                    "matrix":
                    {
                        "weights":
                        [
                            1, 1, 1, 1, 1, 1, 1, 1, 1, 1, 1, 1, 1, 1, 1,
                            1, 1, 1, 1, 1, 1, 1, 1, 1, 1, 1, 1, 1, 1, 1,
                            1, 1, 1, 1, 1, 1, 1, 1, 1, 1, 1, 1, 1, 1, 1,
                            1, 1, 1, 1, 1, 1, 1, 1, 1, 1, 1, 1, 1, 1, 1,
                            1, 1, 1, 1, 1, 1, 1, 1, 1, 1, 1, 1, 1, 1, 1,
                            1, 1, 1, 1, 1, 1, 1, 1, 1, 1, 1, 1, 1, 1, 1,
                            1, 1, 1, 1, 1, 1, 1, 1, 1, 1, 1, 1, 1, 1, 1,
                            1, 1, 1, 1, 1, 1, 1, 1, 1, 1, 1, 1, 1, 1, 1,
                            1, 1, 1, 1, 1, 1, 1, 1, 1, 1, 1, 1, 1, 1, 1,
                            1, 1, 1, 1, 1, 1, 1, 1, 1, 1, 1, 1, 1, 1, 1,
                            1, 1, 1, 1, 1, 1, 1, 1, 1, 1, 1, 1, 1, 1, 1,
                            1, 1, 1, 1, 1, 1, 1, 1, 1, 1, 1, 1, 1, 1, 1,
                            1, 1, 1, 1, 1, 1, 1, 1, 1, 1, 1, 1, 1, 1, 1,
                            1, 1, 1, 1, 1, 1, 1, 1, 1, 1, 1, 1, 1, 1, 1,
                            1, 1, 1, 1, 1, 1, 1, 1, 1, 1, 1, 1, 1, 1, 1
                        ]
                    }
                },
                "exposure_modes":
                {
                    "normal":
                    {
                        "shutter": [ 100, 10000, 30000, 60000, 66666 ],
                        "gain": [ 1.0, 1.5, 2.0, 4.0, 8.0 ]
                    },
                    "short":
                    {
                        "shutter": [ 100, 5000, 10000, 20000, 60000 ],
                        "gain": [ 1.0, 1.5, 2.0, 4.0, 8.0 ]
                    },
                    "long":
                    {
                        "shutter": [ 100, 10000, 30000, 60000, 90000, 120000 ],
                        "gain": [ 1.0, 1.5, 2.0, 4.0, 8.0, 12.0 ]
                    }
                },
                "constraint_modes":
                {
                    "normal": [
                        {
                            "bound": "LOWER",
                            "q_lo": 0.98,
                            "q_hi": 1.0,
                            "y_target":
                            [
                                0, 0.5,
                                1000, 0.5
                            ]
                        }
                    ],
                    "highlight": [
                        {
                            "bound": "LOWER",
                            "q_lo": 0.98,
                            "q_hi": 1.0,
                            "y_target":
                            [
                                0, 0.5,
                                1000, 0.5
                            ]
                        },
                        {
                            "bound": "UPPER",
                            "q_lo": 0.98,
                            "q_hi": 1.0,
                            "y_target":
                            [
                                0, 0.8,
                                1000, 0.8
                            ]
                        }
                    ]
                },
                "y_target":
                [
                    0, 0.16,
                    1000, 0.165,
                    10000, 0.17
                ]
            }
        },
        {
            "rpi.alsc":
            {
                "omega": 1.3,
                "n_iter": 100,
                "luminance_strength": 0.8,
                "calibrations_Cr": [
                    {
                        "ct": 3000,
                        "table":
                        [
                            1.532, 1.534, 1.535, 1.538, 1.538, 1.533, 1.529, 1.515, 1.506, 1.492, 1.477, 1.465, 1.453, 1.444, 1.437, 1.433, 1.433, 1.435, 1.441, 1.449, 1.461, 1.474, 1.485, 1.499, 1.511, 1.519, 1.525, 1.526, 1.526, 1.523, 1.517, 1.516,
                            1.532, 1.534, 1.537, 1.538, 1.537, 1.534, 1.525, 1.515, 1.502, 1.486, 1.474, 1.458, 1.449, 1.438, 1.429, 1.427, 1.426, 1.429, 1.436, 1.444, 1.456, 1.468, 1.483, 1.497, 1.509, 1.518, 1.524, 1.526, 1.526, 1.523, 1.521, 1.516,
                            1.532, 1.534, 1.537, 1.538, 1.536, 1.533, 1.524, 1.512, 1.499, 1.483, 1.468, 1.453, 1.439, 1.429, 1.421, 1.419, 1.419, 1.419, 1.427, 1.438, 1.451, 1.464, 1.479, 1.494, 1.506, 1.516, 1.523, 1.526, 1.526, 1.524, 1.521, 1.518,
                            1.533, 1.536, 1.537, 1.537, 1.535, 1.532, 1.521, 1.507, 1.491, 1.474, 1.456, 1.441, 1.429, 1.418, 1.409, 1.406, 1.406, 1.408, 1.415, 1.426, 1.439, 1.453, 1.471, 1.485, 1.501, 1.511, 1.522, 1.524, 1.526, 1.525, 1.522, 1.519,
                            1.537, 1.538, 1.539, 1.538, 1.534, 1.525, 1.513, 1.495, 1.477, 1.459, 1.443, 1.427, 1.413, 1.402, 1.394, 1.391, 1.391, 1.393, 1.399, 1.409, 1.424, 1.439, 1.455, 1.472, 1.489, 1.503, 1.515, 1.523, 1.526, 1.527, 1.525, 1.523,
                            1.538, 1.539, 1.541, 1.539, 1.531, 1.519, 1.503, 1.484, 1.466, 1.445, 1.427, 1.413, 1.401, 1.386, 1.378, 1.373, 1.373, 1.376, 1.386, 1.398, 1.409, 1.424, 1.441, 1.459, 1.477, 1.495, 1.509, 1.519, 1.526, 1.528, 1.528, 1.526,
                            1.539, 1.541, 1.541, 1.539, 1.529, 1.516, 1.498, 1.479, 1.456, 1.437, 1.417, 1.401, 1.386, 1.378, 1.369, 1.363, 1.363, 1.367, 1.376, 1.386, 1.399, 1.413, 1.432, 1.451, 1.472, 1.491, 1.507, 1.517, 1.525, 1.527, 1.527, 1.527,
                            1.539, 1.539, 1.539, 1.538, 1.529, 1.515, 1.497, 1.476, 1.454, 1.433, 1.411, 1.395, 1.381, 1.368, 1.361, 1.356, 1.356, 1.359, 1.367, 1.379, 1.393, 1.409, 1.428, 1.448, 1.471, 1.489, 1.505, 1.516, 1.524, 1.527, 1.527, 1.527,
                            1.539, 1.539, 1.539, 1.537, 1.528, 1.513, 1.493, 1.471, 1.449, 1.426, 1.406, 1.387, 1.373, 1.361, 1.352, 1.348, 1.348, 1.351, 1.359, 1.372, 1.387, 1.403, 1.422, 1.443, 1.465, 1.484, 1.503, 1.516, 1.525, 1.527, 1.528, 1.526,
                            1.541, 1.542, 1.539, 1.537, 1.524, 1.506, 1.485, 1.461, 1.438, 1.416, 1.395, 1.377, 1.362, 1.352, 1.344, 1.339, 1.339, 1.342, 1.351, 1.362, 1.376, 1.393, 1.412, 1.434, 1.455, 1.477, 1.495, 1.514, 1.524, 1.528, 1.529, 1.529,
                            1.543, 1.544, 1.543, 1.534, 1.518, 1.499, 1.476, 1.452, 1.427, 1.405, 1.386, 1.367, 1.354, 1.344, 1.338, 1.329, 1.329, 1.335, 1.342, 1.352, 1.367, 1.382, 1.402, 1.424, 1.445, 1.469, 1.491, 1.507, 1.522, 1.528, 1.529, 1.532,
                            1.544, 1.544, 1.542, 1.534, 1.518, 1.499, 1.474, 1.449, 1.425, 1.401, 1.379, 1.362, 1.348, 1.338, 1.329, 1.324, 1.325, 1.329, 1.335, 1.347, 1.361, 1.378, 1.397, 1.421, 1.443, 1.467, 1.489, 1.507, 1.521, 1.529, 1.532, 1.533,
                            1.543, 1.543, 1.541, 1.534, 1.519, 1.499, 1.474, 1.448, 1.424, 1.399, 1.377, 1.359, 1.346, 1.333, 1.324, 1.322, 1.321, 1.324, 1.332, 1.344, 1.359, 1.376, 1.397, 1.419, 1.443, 1.467, 1.489, 1.508, 1.521, 1.528, 1.531, 1.532,
                            1.543, 1.542, 1.541, 1.533, 1.519, 1.499, 1.474, 1.448, 1.422, 1.399, 1.376, 1.358, 1.344, 1.331, 1.322, 1.319, 1.319, 1.321, 1.331, 1.342, 1.357, 1.375, 1.396, 1.419, 1.443, 1.467, 1.489, 1.508, 1.521, 1.529, 1.531, 1.532,
                            1.543, 1.542, 1.541, 1.532, 1.518, 1.496, 1.471, 1.445, 1.418, 1.393, 1.373, 1.354, 1.341, 1.329, 1.319, 1.317, 1.316, 1.319, 1.327, 1.338, 1.353, 1.371, 1.392, 1.415, 1.439, 1.465, 1.485, 1.507, 1.519, 1.529, 1.531, 1.531,
                            1.545, 1.544, 1.542, 1.531, 1.515, 1.493, 1.467, 1.441, 1.414, 1.391, 1.369, 1.351, 1.337, 1.326, 1.318, 1.314, 1.314, 1.317, 1.325, 1.335, 1.351, 1.367, 1.388, 1.411, 1.436, 1.461, 1.483, 1.505, 1.519, 1.531, 1.533, 1.533,
                            1.545, 1.544, 1.541, 1.531, 1.515, 1.493, 1.467, 1.441, 1.414, 1.391, 1.369, 1.351, 1.337, 1.326, 1.318, 1.314, 1.314, 1.317, 1.325, 1.335, 1.351, 1.367, 1.388, 1.411, 1.436, 1.461, 1.483, 1.505, 1.521, 1.531, 1.534, 1.534,
                            1.545, 1.544, 1.541, 1.534, 1.519, 1.496, 1.471, 1.446, 1.419, 1.392, 1.372, 1.354, 1.338, 1.328, 1.319, 1.316, 1.315, 1.319, 1.327, 1.338, 1.353, 1.371, 1.392, 1.416, 1.441, 1.465, 1.489, 1.511, 1.522, 1.531, 1.534, 1.535,
                            1.544, 1.544, 1.542, 1.537, 1.524, 1.501, 1.476, 1.449, 1.424, 1.399, 1.377, 1.359, 1.344, 1.332, 1.324, 1.319, 1.319, 1.323, 1.331, 1.343, 1.358, 1.374, 1.396, 1.419, 1.445, 1.471, 1.493, 1.512, 1.525, 1.532, 1.534, 1.534,
                            1.545, 1.545, 1.543, 1.538, 1.524, 1.503, 1.479, 1.452, 1.426, 1.402, 1.381, 1.362, 1.348, 1.337, 1.329, 1.324, 1.324, 1.328, 1.335, 1.347, 1.361, 1.379, 1.399, 1.423, 1.447, 1.471, 1.493, 1.513, 1.526, 1.533, 1.534, 1.535,
                            1.546, 1.546, 1.544, 1.539, 1.525, 1.504, 1.479, 1.453, 1.428, 1.404, 1.383, 1.365, 1.352, 1.339, 1.333, 1.329, 1.329, 1.333, 1.339, 1.349, 1.363, 1.381, 1.402, 1.424, 1.448, 1.472, 1.494, 1.514, 1.526, 1.534, 1.534, 1.534,
                            1.546, 1.546, 1.544, 1.539, 1.526, 1.505, 1.483, 1.457, 1.432, 1.407, 1.389, 1.371, 1.357, 1.347, 1.339, 1.333, 1.333, 1.339, 1.345, 1.354, 1.368, 1.386, 1.406, 1.428, 1.453, 1.475, 1.496, 1.515, 1.527, 1.535, 1.535, 1.535,
                            1.545, 1.545, 1.545, 1.541, 1.529, 1.513, 1.491, 1.467, 1.441, 1.418, 1.399, 1.379, 1.366, 1.355, 1.347, 1.341, 1.341, 1.345, 1.354, 1.364, 1.378, 1.395, 1.415, 1.436, 1.459, 1.483, 1.503, 1.519, 1.531, 1.534, 1.535, 1.534,
                            1.544, 1.545, 1.545, 1.544, 1.535, 1.519, 1.499, 1.476, 1.451, 1.428, 1.409, 1.391, 1.377, 1.366, 1.356, 1.352, 1.352, 1.355, 1.364, 1.374, 1.388, 1.405, 1.426, 1.447, 1.469, 1.492, 1.509, 1.523, 1.532, 1.535, 1.535, 1.533,
                            1.544, 1.545, 1.546, 1.545, 1.537, 1.523, 1.504, 1.482, 1.458, 1.436, 1.418, 1.401, 1.385, 1.377, 1.367, 1.362, 1.362, 1.365, 1.373, 1.385, 1.398, 1.415, 1.434, 1.455, 1.477, 1.495, 1.514, 1.525, 1.533, 1.536, 1.535, 1.533,
                            1.545, 1.546, 1.547, 1.545, 1.538, 1.525, 1.508, 1.486, 1.465, 1.444, 1.424, 1.408, 1.394, 1.385, 1.377, 1.371, 1.371, 1.373, 1.384, 1.392, 1.405, 1.421, 1.441, 1.459, 1.481, 1.499, 1.516, 1.528, 1.534, 1.536, 1.536, 1.533,
                            1.544, 1.546, 1.547, 1.547, 1.541, 1.531, 1.514, 1.494, 1.474, 1.454, 1.434, 1.421, 1.408, 1.394, 1.386, 1.382, 1.382, 1.385, 1.392, 1.405, 1.416, 1.432, 1.449, 1.468, 1.488, 1.505, 1.519, 1.531, 1.536, 1.537, 1.536, 1.533,
                            1.544, 1.546, 1.548, 1.548, 1.545, 1.536, 1.522, 1.506, 1.486, 1.467, 1.451, 1.434, 1.421, 1.408, 1.401, 1.396, 1.396, 1.399, 1.407, 1.416, 1.431, 1.447, 1.463, 1.481, 1.499, 1.513, 1.526, 1.534, 1.537, 1.537, 1.534, 1.531,
                            1.543, 1.545, 1.547, 1.549, 1.549, 1.543, 1.531, 1.517, 1.501, 1.483, 1.465, 1.451, 1.438, 1.425, 1.417, 1.412, 1.412, 1.418, 1.423, 1.433, 1.447, 1.462, 1.479, 1.493, 1.511, 1.524, 1.531, 1.536, 1.538, 1.537, 1.533, 1.531,
                            1.542, 1.545, 1.548, 1.551, 1.551, 1.546, 1.539, 1.524, 1.511, 1.493, 1.479, 1.464, 1.451, 1.442, 1.433, 1.429, 1.429, 1.434, 1.439, 1.449, 1.462, 1.474, 1.491, 1.505, 1.519, 1.529, 1.536, 1.539, 1.539, 1.537, 1.533, 1.531,
                            1.541, 1.546, 1.549, 1.552, 1.553, 1.551, 1.544, 1.533, 1.521, 1.505, 1.489, 1.477, 1.464, 1.455, 1.447, 1.443, 1.443, 1.446, 1.451, 1.462, 1.472, 1.487, 1.499, 1.514, 1.525, 1.535, 1.541, 1.541, 1.541, 1.539, 1.533, 1.531,
                            1.541, 1.546, 1.549, 1.553, 1.554, 1.552, 1.546, 1.537, 1.524, 1.512, 1.499, 1.485, 1.474, 1.464, 1.455, 1.451, 1.451, 1.452, 1.461, 1.469, 1.481, 1.495, 1.506, 1.518, 1.529, 1.539, 1.541, 1.542, 1.541, 1.539, 1.533, 1.529
                        ]
                    },
                    {
                        "ct": 5000,
                        "table":
                        [
                            2.586, 2.591, 2.597, 2.601, 2.601, 2.599, 2.592, 2.576, 2.561, 2.541, 2.523, 2.503, 2.486, 2.471, 2.459, 2.452, 2.452, 2.454, 2.462, 2.478, 2.495, 2.512, 2.531, 2.555, 2.568, 2.579, 2.587, 2.588, 2.585, 2.579, 2.573, 2.566,
                            2.587, 2.592, 2.598, 2.601, 2.601, 2.599, 2.587, 2.574, 2.556, 2.532, 2.512, 2.491, 2.474, 2.462, 2.449, 2.443, 2.439, 2.443, 2.454, 2.464, 2.485, 2.505, 2.525, 2.548, 2.566, 2.578, 2.585, 2.588, 2.586, 2.579, 2.575, 2.567,
                            2.587, 2.593, 2.598, 2.602, 2.601, 2.597, 2.584, 2.569, 2.551, 2.527, 2.503, 2.482, 2.464, 2.448, 2.434, 2.428, 2.427, 2.431, 2.439, 2.455, 2.474, 2.498, 2.521, 2.541, 2.564, 2.577, 2.585, 2.588, 2.589, 2.581, 2.576, 2.569,
                            2.593, 2.596, 2.601, 2.603, 2.601, 2.594, 2.583, 2.563, 2.539, 2.514, 2.491, 2.466, 2.445, 2.429, 2.417, 2.409, 2.408, 2.411, 2.421, 2.437, 2.457, 2.481, 2.507, 2.531, 2.555, 2.572, 2.583, 2.588, 2.588, 2.585, 2.579, 2.575,
                            2.597, 2.599, 2.604, 2.603, 2.599, 2.587, 2.567, 2.548, 2.522, 2.493, 2.467, 2.443, 2.419, 2.406, 2.391, 2.385, 2.385, 2.387, 2.397, 2.413, 2.435, 2.459, 2.486, 2.509, 2.538, 2.559, 2.574, 2.586, 2.588, 2.586, 2.582, 2.579,
                            2.601, 2.603, 2.606, 2.604, 2.596, 2.578, 2.556, 2.531, 2.501, 2.471, 2.444, 2.419, 2.402, 2.381, 2.365, 2.359, 2.359, 2.361, 2.374, 2.396, 2.413, 2.435, 2.465, 2.493, 2.517, 2.542, 2.562, 2.582, 2.588, 2.587, 2.586, 2.584,
                            2.601, 2.604, 2.605, 2.604, 2.593, 2.575, 2.547, 2.522, 2.488, 2.458, 2.432, 2.402, 2.381, 2.364, 2.349, 2.338, 2.338, 2.345, 2.359, 2.374, 2.396, 2.423, 2.453, 2.481, 2.511, 2.539, 2.561, 2.581, 2.586, 2.588, 2.588, 2.586,
                            2.599, 2.602, 2.604, 2.602, 2.592, 2.572, 2.546, 2.516, 2.485, 2.451, 2.422, 2.393, 2.368, 2.349, 2.336, 2.328, 2.328, 2.333, 2.345, 2.365, 2.389, 2.417, 2.447, 2.478, 2.509, 2.537, 2.561, 2.577, 2.585, 2.588, 2.588, 2.587,
                            2.601, 2.602, 2.604, 2.601, 2.589, 2.569, 2.539, 2.509, 2.473, 2.442, 2.409, 2.379, 2.357, 2.336, 2.323, 2.315, 2.315, 2.322, 2.334, 2.354, 2.377, 2.406, 2.436, 2.469, 2.503, 2.529, 2.558, 2.574, 2.585, 2.588, 2.589, 2.587,
                            2.601, 2.606, 2.606, 2.601, 2.581, 2.557, 2.525, 2.493, 2.459, 2.426, 2.394, 2.365, 2.339, 2.322, 2.308, 2.301, 2.301, 2.305, 2.322, 2.337, 2.361, 2.389, 2.422, 2.454, 2.485, 2.519, 2.546, 2.568, 2.584, 2.589, 2.589, 2.589,
                            2.608, 2.608, 2.606, 2.597, 2.576, 2.548, 2.515, 2.481, 2.444, 2.409, 2.376, 2.346, 2.323, 2.308, 2.293, 2.282, 2.281, 2.291, 2.305, 2.322, 2.348, 2.371, 2.403, 2.439, 2.472, 2.508, 2.538, 2.565, 2.582, 2.589, 2.592, 2.593,
                            2.608, 2.608, 2.605, 2.596, 2.575, 2.547, 2.511, 2.474, 2.435, 2.401, 2.366, 2.339, 2.312, 2.293, 2.281, 2.274, 2.274, 2.281, 2.291, 2.311, 2.334, 2.364, 2.399, 2.433, 2.471, 2.506, 2.538, 2.564, 2.581, 2.591, 2.594, 2.595,
                            2.605, 2.606, 2.605, 2.595, 2.575, 2.547, 2.511, 2.474, 2.433, 2.397, 2.363, 2.333, 2.309, 2.291, 2.274, 2.267, 2.265, 2.272, 2.284, 2.307, 2.331, 2.361, 2.395, 2.431, 2.469, 2.503, 2.539, 2.567, 2.584, 2.591, 2.595, 2.595,
                            2.605, 2.606, 2.605, 2.595, 2.575, 2.547, 2.509, 2.473, 2.431, 2.395, 2.361, 2.332, 2.306, 2.285, 2.267, 2.261, 2.262, 2.265, 2.281, 2.302, 2.329, 2.359, 2.395, 2.429, 2.468, 2.503, 2.539, 2.567, 2.583, 2.593, 2.595, 2.595,
                            2.608, 2.607, 2.606, 2.592, 2.572, 2.543, 2.506, 2.468, 2.426, 2.389, 2.354, 2.327, 2.299, 2.279, 2.262, 2.258, 2.257, 2.262, 2.276, 2.297, 2.321, 2.352, 2.387, 2.425, 2.464, 2.498, 2.532, 2.565, 2.582, 2.592, 2.595, 2.596,
                            2.611, 2.609, 2.605, 2.592, 2.571, 2.538, 2.499, 2.463, 2.421, 2.384, 2.351, 2.322, 2.295, 2.276, 2.259, 2.254, 2.254, 2.256, 2.273, 2.292, 2.318, 2.347, 2.383, 2.418, 2.456, 2.491, 2.529, 2.562, 2.581, 2.593, 2.597, 2.598,
                            2.609, 2.609, 2.606, 2.593, 2.571, 2.538, 2.499, 2.463, 2.421, 2.384, 2.351, 2.321, 2.295, 2.276, 2.259, 2.251, 2.251, 2.256, 2.273, 2.292, 2.318, 2.347, 2.383, 2.418, 2.456, 2.491, 2.529, 2.559, 2.582, 2.595, 2.597, 2.599,
                            2.609, 2.609, 2.607, 2.597, 2.576, 2.543, 2.507, 2.467, 2.427, 2.388, 2.356, 2.323, 2.297, 2.278, 2.262, 2.256, 2.255, 2.262, 2.275, 2.296, 2.321, 2.351, 2.388, 2.425, 2.464, 2.502, 2.534, 2.563, 2.586, 2.595, 2.598, 2.599,
                            2.609, 2.609, 2.608, 2.601, 2.581, 2.547, 2.513, 2.475, 2.434, 2.398, 2.362, 2.332, 2.307, 2.287, 2.269, 2.263, 2.263, 2.269, 2.281, 2.304, 2.328, 2.358, 2.394, 2.429, 2.469, 2.508, 2.538, 2.568, 2.589, 2.597, 2.598, 2.598,
                            2.609, 2.611, 2.609, 2.601, 2.583, 2.549, 2.518, 2.478, 2.439, 2.402, 2.367, 2.337, 2.313, 2.293, 2.279, 2.271, 2.269, 2.277, 2.291, 2.311, 2.336, 2.363, 2.399, 2.435, 2.473, 2.509, 2.541, 2.571, 2.591, 2.598, 2.599, 2.599,
                            2.611, 2.611, 2.609, 2.602, 2.585, 2.551, 2.519, 2.481, 2.442, 2.406, 2.374, 2.342, 2.318, 2.297, 2.287, 2.279, 2.278, 2.287, 2.297, 2.315, 2.339, 2.368, 2.402, 2.438, 2.476, 2.511, 2.545, 2.571, 2.591, 2.599, 2.601, 2.599,
