src/ipa/raspberrypi/pisp/data/imx708_wide_noir.json
{
    "version": 2.0,
    "target": "pisp",
    "algorithms": [
        {
            "rpi.black_level":
            {
                "black_level": 4096
            }
        },
        {
            "rpi.lux":
            {
                "reference_shutter_speed": 41985,
                "reference_gain": 1.12,
                "reference_aperture": 1.0,
                "reference_lux": 810,
                "reference_Y": 13859
            }
        },
        {
            "rpi.dpc":
            {
                "strength": 1
            }
        },
        {
            "rpi.noise":
            {
                "reference_constant": 0,
                "reference_slope": 1.906
            }
        },
        {
            "rpi.geq":
            {
                "offset": 206,
                "slope": 0.00324
            }
        },
        {
            "rpi.denoise":
            {
                "sdn":
                {
                    "deviation": 1.6,
                    "strength": 0.5,
                    "deviation2": 3.2,
                    "deviation_no_tdn": 3.2,
                    "strength_no_tdn": 0.75
                },
                "cdn":
                {
                    "deviation": 200,
                    "strength": 0.3
                },
                "tdn":
                {
                    "deviation": 0.8,
                    "threshold": 0.05
                }
            }
        },
        {
            "rpi.awb":
            {
                "bayes": 0
            }
        },
        {
            "rpi.agc":
            {
                "metering_modes":
                {
                    "centre-weighted":
                    {
                        "weights":
                        [
                            0, 0, 1, 1, 1, 1, 1, 1, 1, 1, 1, 1, 1, 0, 0,
                            0, 1, 1, 1, 1, 1, 2, 2, 2, 1, 1, 1, 1, 1, 0,
                            1, 1, 1, 1, 2, 2, 2, 2, 2, 2, 2, 1, 1, 1, 1,
                            1, 1, 2, 2, 2, 2, 2, 2, 2, 2, 2, 2, 2, 1, 1,
                            1, 1, 2, 2, 2, 2, 3, 3, 3, 2, 2, 2, 2, 1, 1,
                            1, 1, 2, 2, 2, 3, 3, 3, 3, 3, 2, 2, 2, 1, 1,
                            1, 1, 2, 2, 3, 3, 3, 4, 3, 3, 3, 2, 2, 1, 1,
                            1, 1, 2, 2, 3, 3, 4, 4, 4, 3, 3, 2, 2, 1, 1,
                            1, 1, 2, 2, 3, 3, 3, 4, 3, 3, 3, 2, 2, 1, 1,
                            1, 1, 2, 2, 2, 3, 3, 3, 3, 3, 2, 2, 2, 1, 1,
                            1, 1, 2, 2, 2, 2, 3, 3, 3, 2, 2, 2, 2, 1, 1,
                            1, 1, 2, 2, 2, 2, 2, 2, 2, 2, 2, 2, 2, 1, 1,
                            1, 1, 1, 1, 2, 2, 2, 2, 2, 2, 2, 1, 1, 1, 1,
                            0, 1, 1, 1, 1, 1, 2, 2, 2, 1, 1, 1, 1, 1, 0,
                            0, 0, 1, 1, 1, 1, 1, 1, 1, 1, 1, 1, 1, 0, 0
                        ]
                    },
                    "spot":
                    {
                        "weights":
                        [
                            0, 0, 0, 0, 0, 0, 0, 0, 0, 0, 0, 0, 0, 0, 0,
                            0, 0, 0, 0, 0, 0, 0, 0, 0, 0, 0, 0, 0, 0, 0,
                            0, 0, 0, 0, 0, 0, 0, 0, 0, 0, 0, 0, 0, 0, 0,
                            0, 0, 0, 0, 0, 0, 0, 0, 0, 0, 0, 0, 0, 0, 0,
                            0, 0, 0, 0, 0, 0, 0, 0, 0, 0, 0, 0, 0, 0, 0,
                            0, 0, 0, 0, 0, 0, 0, 1, 0, 0, 0, 0, 0, 0, 0,
                            0, 0, 0, 0, 0, 0, 1, 2, 1, 0, 0, 0, 0, 0, 0,
                            0, 0, 0, 0, 0, 1, 2, 3, 2, 1, 0, 0, 0, 0, 0,
                            0, 0, 0, 0, 0, 0, 1, 2, 1, 0, 0, 0, 0, 0, 0,
                            0, 0, 0, 0, 0, 0, 0, 1, 0, 0, 0, 0, 0, 0, 0,
                            0, 0, 0, 0, 0, 0, 0, 0, 0, 0, 0, 0, 0, 0, 0,
                            0, 0, 0, 0, 0, 0, 0, 0, 0, 0, 0, 0, 0, 0, 0,
                            0, 0, 0, 0, 0, 0, 0, 0, 0, 0, 0, 0, 0, 0, 0,
                            0, 0, 0, 0, 0, 0, 0, 0, 0, 0, 0, 0, 0, 0, 0,
                            0, 0, 0, 0, 0, 0, 0, 0, 0, 0, 0, 0, 0, 0, 0
                        ]
                    },
                    "matrix":
                    {
                        "weights":
                        [
                            1, 1, 1, 1, 1, 1, 1, 1, 1, 1, 1, 1, 1, 1, 1,
                            1, 1, 1, 1, 1, 1, 1, 1, 1, 1, 1, 1, 1, 1, 1,
                            1, 1, 1, 1, 1, 1, 1, 1, 1, 1, 1, 1, 1, 1, 1,
                            1, 1, 1, 1, 1, 1, 1, 1, 1, 1, 1, 1, 1, 1, 1,
                            1, 1, 1, 1, 1, 1, 1, 1, 1, 1, 1, 1, 1, 1, 1,
                            1, 1, 1, 1, 1, 1, 1, 1, 1, 1, 1, 1, 1, 1, 1,
                            1, 1, 1, 1, 1, 1, 1, 1, 1, 1, 1, 1, 1, 1, 1,
                            1, 1, 1, 1, 1, 1, 1, 1, 1, 1, 1, 1, 1, 1, 1,
                            1, 1, 1, 1, 1, 1, 1, 1, 1, 1, 1, 1, 1, 1, 1,
                            1, 1, 1, 1, 1, 1, 1, 1, 1, 1, 1, 1, 1, 1, 1,
                            1, 1, 1, 1, 1, 1, 1, 1, 1, 1, 1, 1, 1, 1, 1,
                            1, 1, 1, 1, 1, 1, 1, 1, 1, 1, 1, 1, 1, 1, 1,
                            1, 1, 1, 1, 1, 1, 1, 1, 1, 1, 1, 1, 1, 1, 1,
                            1, 1, 1, 1, 1, 1, 1, 1, 1, 1, 1, 1, 1, 1, 1,
                            1, 1, 1, 1, 1, 1, 1, 1, 1, 1, 1, 1, 1, 1, 1
                        ]
                    }
                },
                "exposure_modes":
                {
                    "normal":
                    {
                        "shutter": [ 100, 10000, 30000, 60000, 66666 ],
                        "gain": [ 1.0, 1.5, 2.0, 4.0, 8.0 ]
                    },
                    "short":
                    {
                        "shutter": [ 100, 5000, 10000, 20000, 60000 ],
                        "gain": [ 1.0, 1.5, 2.0, 4.0, 8.0 ]
                    },
                    "long":
                    {
                        "shutter": [ 100, 10000, 30000, 60000, 90000, 120000 ],
                        "gain": [ 1.0, 1.5, 2.0, 4.0, 8.0, 12.0 ]
                    }
                },
                "constraint_modes":
                {
                    "normal": [
                        {
                            "bound": "LOWER",
                            "q_lo": 0.98,
                            "q_hi": 1.0,
                            "y_target":
                            [
                                0, 0.5,
                                1000, 0.5
                            ]
                        }
                    ],
                    "highlight": [
                        {
                            "bound": "LOWER",
                            "q_lo": 0.98,
                            "q_hi": 1.0,
                            "y_target":
                            [
                                0, 0.5,
                                1000, 0.5
                            ]
                        },
                        {
                            "bound": "UPPER",
                            "q_lo": 0.98,
                            "q_hi": 1.0,
                            "y_target":
                            [
                                0, 0.8,
                                1000, 0.8
                            ]
                        }
                    ]
                },
                "y_target":
                [
                    0, 0.16,
                    1000, 0.165,
                    10000, 0.17
                ]
            }
        },
        {
            "rpi.alsc":
            {
                "omega": 1.3,
                "n_iter": 100,
                "luminance_strength": 0.8,
                "calibrations_Cr": [
                    {
                        "ct": 3000,
                        "table":
                        [
                            1.717, 1.712, 1.703, 1.692, 1.674, 1.653, 1.638, 1.624, 1.613, 1.601, 1.589, 1.579, 1.575, 1.573, 1.571, 1.571, 1.571, 1.571, 1.572, 1.577, 1.583, 1.593, 1.605, 1.618, 1.636, 1.653, 1.677, 1.699, 1.715, 1.722, 1.731, 1.733,
                            1.714, 1.706, 1.696, 1.678, 1.658, 1.639, 1.627, 1.614, 1.602, 1.591, 1.579, 1.572, 1.569, 1.566, 1.565, 1.564, 1.564, 1.565, 1.567, 1.571, 1.578, 1.585, 1.595, 1.607, 1.622, 1.641, 1.661, 1.685, 1.706, 1.717, 1.724, 1.732,
                            1.708, 1.698, 1.688, 1.667, 1.647, 1.629, 1.619, 1.606, 1.593, 1.581, 1.572, 1.565, 1.561, 1.559, 1.559, 1.559, 1.559, 1.561, 1.562, 1.566, 1.571, 1.577, 1.587, 1.598, 1.612, 1.629, 1.649, 1.674, 1.697, 1.713, 1.721, 1.728,
                            1.706, 1.695, 1.681, 1.655, 1.636, 1.622, 1.613, 1.597, 1.585, 1.572, 1.564, 1.559, 1.558, 1.556, 1.555, 1.555, 1.556, 1.556, 1.558, 1.561, 1.566, 1.571, 1.578, 1.591, 1.605, 1.619, 1.638, 1.662, 1.691, 1.708, 1.719, 1.726,
                            1.706, 1.692, 1.675, 1.649, 1.629, 1.615, 1.607, 1.592, 1.575, 1.565, 1.559, 1.554, 1.552, 1.551, 1.551, 1.551, 1.551, 1.552, 1.554, 1.557, 1.561, 1.566, 1.573, 1.582, 1.596, 1.611, 1.627, 1.652, 1.681, 1.705, 1.717, 1.724,
                            1.703, 1.686, 1.664, 1.639, 1.625, 1.612, 1.599, 1.585, 1.569, 1.559, 1.554, 1.549, 1.548, 1.548, 1.546, 1.546, 1.546, 1.547, 1.549, 1.553, 1.557, 1.563, 1.569, 1.576, 1.591, 1.603, 1.621, 1.644, 1.674, 1.698, 1.714, 1.724,
                            1.702, 1.681, 1.659, 1.635, 1.621, 1.607, 1.594, 1.579, 1.565, 1.554, 1.549, 1.546, 1.544, 1.543, 1.543, 1.542, 1.543, 1.543, 1.544, 1.549, 1.553, 1.558, 1.564, 1.572, 1.584, 1.599, 1.614, 1.639, 1.667, 1.695, 1.712, 1.724,
                            1.697, 1.678, 1.655, 1.631, 1.616, 1.602, 1.589, 1.575, 1.559, 1.551, 1.545, 1.543, 1.542, 1.542, 1.541, 1.539, 1.539, 1.539, 1.542, 1.544, 1.551, 1.555, 1.562, 1.571, 1.579, 1.594, 1.611, 1.631, 1.661, 1.691, 1.712, 1.724,
                            1.695, 1.674, 1.651, 1.629, 1.615, 1.599, 1.584, 1.568, 1.554, 1.545, 1.542, 1.541, 1.539, 1.539, 1.538, 1.538, 1.538, 1.539, 1.539, 1.543, 1.548, 1.554, 1.559, 1.568, 1.576, 1.592, 1.608, 1.629, 1.655, 1.689, 1.709, 1.723,
                            1.691, 1.671, 1.648, 1.627, 1.613, 1.597, 1.581, 1.564, 1.551, 1.543, 1.539, 1.538, 1.538, 1.537, 1.536, 1.535, 1.536, 1.538, 1.539, 1.542, 1.546, 1.551, 1.558, 1.564, 1.575, 1.588, 1.604, 1.627, 1.654, 1.686, 1.709, 1.724,
                            1.689, 1.667, 1.643, 1.626, 1.612, 1.594, 1.579, 1.559, 1.549, 1.541, 1.536, 1.535, 1.535, 1.535, 1.534, 1.533, 1.534, 1.536, 1.538, 1.541, 1.545, 1.549, 1.555, 1.563, 1.573, 1.585, 1.602, 1.624, 1.651, 1.683, 1.709, 1.725,
                            1.686, 1.665, 1.641, 1.623, 1.609, 1.594, 1.576, 1.559, 1.546, 1.538, 1.535, 1.534, 1.533, 1.532, 1.531, 1.531, 1.532, 1.534, 1.537, 1.539, 1.544, 1.549, 1.554, 1.562, 1.572, 1.585, 1.601, 1.622, 1.651, 1.682, 1.711, 1.726,
                            1.686, 1.661, 1.639, 1.623, 1.609, 1.592, 1.574, 1.557, 1.545, 1.537, 1.534, 1.533, 1.532, 1.531, 1.529, 1.528, 1.529, 1.532, 1.537, 1.539, 1.542, 1.548, 1.553, 1.562, 1.571, 1.584, 1.601, 1.621, 1.649, 1.682, 1.711, 1.726,
                            1.685, 1.661, 1.638, 1.624, 1.609, 1.592, 1.574, 1.557, 1.544, 1.536, 1.533, 1.532, 1.531, 1.529, 1.527, 1.522, 1.526, 1.531, 1.536, 1.539, 1.542, 1.547, 1.553, 1.562, 1.571, 1.583, 1.601, 1.621, 1.648, 1.682, 1.711, 1.726,
                            1.684, 1.658, 1.638, 1.624, 1.611, 1.592, 1.573, 1.556, 1.543, 1.536, 1.532, 1.531, 1.529, 1.528, 1.522, 1.517, 1.519, 1.527, 1.535, 1.539, 1.541, 1.547, 1.553, 1.562, 1.571, 1.583, 1.601, 1.622, 1.647, 1.681, 1.711, 1.727,
                            1.681, 1.658, 1.641, 1.624, 1.611, 1.593, 1.573, 1.555, 1.541, 1.535, 1.532, 1.529, 1.529, 1.527, 1.517, 1.506, 1.506, 1.522, 1.534, 1.538, 1.541, 1.546, 1.552, 1.562, 1.569, 1.583, 1.601, 1.622, 1.646, 1.679, 1.709, 1.728,
                            1.679, 1.656, 1.639, 1.624, 1.611, 1.595, 1.575, 1.556, 1.541, 1.534, 1.531, 1.529, 1.529, 1.527, 1.517, 1.507, 1.507, 1.522, 1.533, 1.538, 1.539, 1.546, 1.552, 1.561, 1.569, 1.584, 1.601, 1.622, 1.647, 1.681, 1.709, 1.726,
                            1.678, 1.656, 1.638, 1.625, 1.612, 1.597, 1.577, 1.557, 1.542, 1.534, 1.529, 1.529, 1.528, 1.527, 1.522, 1.516, 1.519, 1.525, 1.533, 1.537, 1.539, 1.545, 1.552, 1.561, 1.571, 1.584, 1.601, 1.623, 1.649, 1.681, 1.709, 1.726,
                            1.679, 1.654, 1.639, 1.626, 1.613, 1.598, 1.578, 1.558, 1.543, 1.534, 1.529, 1.529, 1.529, 1.528, 1.527, 1.522, 1.525, 1.528, 1.533, 1.536, 1.539, 1.546, 1.553, 1.561, 1.571, 1.586, 1.602, 1.623, 1.651, 1.683, 1.712, 1.726,
                            1.677, 1.655, 1.641, 1.628, 1.615, 1.599, 1.581, 1.562, 1.545, 1.535, 1.531, 1.529, 1.529, 1.528, 1.527, 1.527, 1.528, 1.531, 1.533, 1.536, 1.539, 1.545, 1.552, 1.561, 1.572, 1.588, 1.607, 1.626, 1.654, 1.686, 1.716, 1.729,
                            1.676, 1.655, 1.642, 1.629, 1.617, 1.602, 1.586, 1.564, 1.546, 1.536, 1.531, 1.529, 1.529, 1.529, 1.529, 1.529, 1.529, 1.532, 1.534, 1.536, 1.539, 1.547, 1.553, 1.563, 1.576, 1.591, 1.609, 1.627, 1.655, 1.688, 1.716, 1.729,
                            1.676, 1.658, 1.641, 1.631, 1.617, 1.605, 1.588, 1.569, 1.553, 1.539, 1.532, 1.531, 1.529, 1.529, 1.529, 1.529, 1.531, 1.532, 1.534, 1.537, 1.541, 1.547, 1.553, 1.564, 1.578, 1.594, 1.613, 1.632, 1.659, 1.691, 1.717, 1.728,
                            1.676, 1.658, 1.642, 1.631, 1.619, 1.608, 1.592, 1.575, 1.556, 1.542, 1.533, 1.531, 1.529, 1.529, 1.529, 1.531, 1.531, 1.532, 1.534, 1.537, 1.542, 1.548, 1.556, 1.567, 1.582, 1.598, 1.616, 1.638, 1.661, 1.693, 1.717, 1.729,
                            1.678, 1.661, 1.644, 1.632, 1.621, 1.611, 1.596, 1.579, 1.561, 1.546, 1.536, 1.532, 1.531, 1.531, 1.531, 1.531, 1.532, 1.533, 1.535, 1.538, 1.544, 1.549, 1.559, 1.569, 1.587, 1.604, 1.618, 1.639, 1.669, 1.697, 1.718, 1.731,
                            1.679, 1.662, 1.648, 1.635, 1.625, 1.615, 1.602, 1.586, 1.569, 1.552, 1.541, 1.535, 1.532, 1.532, 1.531, 1.532, 1.533, 1.534, 1.537, 1.541, 1.546, 1.552, 1.562, 1.576, 1.592, 1.608, 1.622, 1.647, 1.673, 1.703, 1.721, 1.734,
                            1.684, 1.664, 1.649, 1.637, 1.627, 1.618, 1.606, 1.593, 1.576, 1.561, 1.547, 1.539, 1.535, 1.533, 1.533, 1.533, 1.534, 1.536, 1.539, 1.543, 1.549, 1.555, 1.568, 1.583, 1.596, 1.612, 1.629, 1.651, 1.681, 1.706, 1.723, 1.734,
                            1.689, 1.669, 1.649, 1.639, 1.629, 1.621, 1.609, 1.597, 1.585, 1.567, 1.554, 1.546, 1.539, 1.536, 1.535, 1.535, 1.537, 1.538, 1.542, 1.546, 1.553, 1.562, 1.572, 1.589, 1.603, 1.619, 1.635, 1.658, 1.686, 1.708, 1.726, 1.736,
                            1.692, 1.673, 1.655, 1.644, 1.634, 1.624, 1.614, 1.604, 1.592, 1.577, 1.566, 1.554, 1.546, 1.542, 1.538, 1.538, 1.539, 1.542, 1.546, 1.552, 1.559, 1.568, 1.581, 1.596, 1.609, 1.625, 1.642, 1.664, 1.693, 1.714, 1.727, 1.736,
                            1.695, 1.679, 1.662, 1.647, 1.638, 1.631, 1.623, 1.612, 1.601, 1.589, 1.577, 1.565, 1.555, 1.549, 1.546, 1.545, 1.546, 1.548, 1.552, 1.559, 1.568, 1.579, 1.593, 1.604, 1.618, 1.632, 1.648, 1.676, 1.701, 1.718, 1.728, 1.739,
                            1.699, 1.684, 1.667, 1.654, 1.644, 1.635, 1.629, 1.621, 1.609, 1.599, 1.589, 1.578, 1.568, 1.559, 1.556, 1.554, 1.554, 1.557, 1.563, 1.569, 1.578, 1.589, 1.599, 1.612, 1.625, 1.641, 1.661, 1.685, 1.707, 1.722, 1.734, 1.742,
                            1.703, 1.691, 1.672, 1.658, 1.648, 1.639, 1.634, 1.628, 1.618, 1.606, 1.598, 1.589, 1.579, 1.573, 1.568, 1.567, 1.567, 1.568, 1.571, 1.578, 1.587, 1.597, 1.607, 1.618, 1.632, 1.651, 1.672, 1.694, 1.715, 1.728, 1.737, 1.742,
                            1.707, 1.691, 1.676, 1.662, 1.651, 1.643, 1.638, 1.631, 1.622, 1.614, 1.604, 1.596, 1.589, 1.579, 1.575, 1.573, 1.573, 1.574, 1.578, 1.586, 1.589, 1.598, 1.609, 1.625, 1.638, 1.657, 1.679, 1.701, 1.719, 1.728, 1.738, 1.742
                        ]
                    },
                    {
                        "ct": 5000,
                        "table":
                        [
                            2.939, 2.935, 2.916, 2.895, 2.856, 2.825, 2.797, 2.777, 2.761, 2.741, 2.726, 2.709, 2.707, 2.704, 2.702, 2.702, 2.703, 2.706, 2.708, 2.709, 2.719, 2.735, 2.753, 2.776, 2.801, 2.832, 2.874, 2.915, 2.939, 2.943, 2.953, 2.961,
                            2.936, 2.923, 2.901, 2.863, 2.829, 2.801, 2.781, 2.763, 2.743, 2.732, 2.712, 2.701, 2.696, 2.692, 2.691, 2.691, 2.693, 2.694, 2.696, 2.701, 2.709, 2.725, 2.741, 2.758, 2.779, 2.811, 2.838, 2.879, 2.919, 2.939, 2.948, 2.959,
                            2.929, 2.909, 2.887, 2.847, 2.808, 2.783, 2.765, 2.748, 2.732, 2.713, 2.699, 2.691, 2.687, 2.686, 2.685, 2.685, 2.687, 2.689, 2.691, 2.694, 2.701, 2.709, 2.725, 2.745, 2.763, 2.786, 2.818, 2.863, 2.907, 2.933, 2.941, 2.955,
                            2.929, 2.903, 2.875, 2.825, 2.791, 2.769, 2.755, 2.737, 2.718, 2.701, 2.688, 2.683, 2.681, 2.679, 2.681, 2.679, 2.681, 2.682, 2.685, 2.689, 2.694, 2.701, 2.711, 2.737, 2.754, 2.772, 2.803, 2.844, 2.894, 2.931, 2.939, 2.953,
                            2.926, 2.895, 2.862, 2.816, 2.782, 2.759, 2.744, 2.727, 2.709, 2.691, 2.679, 2.673, 2.671, 2.669, 2.669, 2.669, 2.671, 2.674, 2.678, 2.681, 2.685, 2.694, 2.707, 2.725, 2.739, 2.762, 2.786, 2.829, 2.879, 2.919, 2.942, 2.952,
                            2.919, 2.886, 2.846, 2.797, 2.772, 2.751, 2.737, 2.719, 2.694, 2.679, 2.672, 2.666, 2.664, 2.661, 2.659, 2.658, 2.661, 2.664, 2.669, 2.673, 2.678, 2.685, 2.696, 2.715, 2.728, 2.749, 2.774, 2.808, 2.866, 2.909, 2.936, 2.951,
                            2.904, 2.877, 2.835, 2.789, 2.763, 2.744, 2.728, 2.712, 2.686, 2.672, 2.664, 2.657, 2.654, 2.654, 2.652, 2.653, 2.654, 2.657, 2.661, 2.666, 2.672, 2.678, 2.688, 2.703, 2.721, 2.742, 2.762, 2.797, 2.851, 2.902, 2.928, 2.949,
                            2.901, 2.869, 2.825, 2.781, 2.756, 2.738, 2.721, 2.698, 2.679, 2.665, 2.656, 2.652, 2.649, 2.648, 2.648, 2.648, 2.649, 2.651, 2.654, 2.659, 2.667, 2.675, 2.683, 2.699, 2.711, 2.736, 2.754, 2.789, 2.838, 2.896, 2.926, 2.948,
                            2.899, 2.862, 2.815, 2.774, 2.752, 2.734, 2.717, 2.689, 2.669, 2.658, 2.651, 2.646, 2.645, 2.643, 2.643, 2.644, 2.645, 2.646, 2.649, 2.654, 2.661, 2.669, 2.681, 2.693, 2.707, 2.729, 2.751, 2.782, 2.834, 2.887, 2.924, 2.947,
                            2.898, 2.853, 2.812, 2.771, 2.751, 2.731, 2.711, 2.686, 2.663, 2.653, 2.646, 2.642, 2.641, 2.642, 2.642, 2.641, 2.641, 2.641, 2.646, 2.651, 2.657, 2.667, 2.678, 2.693, 2.705, 2.728, 2.746, 2.781, 2.829, 2.885, 2.924, 2.951,
                            2.896, 2.851, 2.807, 2.771, 2.752, 2.729, 2.709, 2.681, 2.661, 2.649, 2.643, 2.641, 2.639, 2.639, 2.638, 2.636, 2.637, 2.638, 2.644, 2.649, 2.657, 2.666, 2.676, 2.688, 2.705, 2.725, 2.745, 2.777, 2.827, 2.884, 2.927, 2.951,
                            2.891, 2.846, 2.803, 2.771, 2.749, 2.728, 2.706, 2.677, 2.658, 2.647, 2.641, 2.637, 2.637, 2.636, 2.636, 2.633, 2.632, 2.635, 2.643, 2.649, 2.656, 2.665, 2.675, 2.688, 2.704, 2.719, 2.744, 2.776, 2.822, 2.881, 2.927, 2.958,
                            2.887, 2.841, 2.797, 2.769, 2.749, 2.729, 2.704, 2.674, 2.655, 2.645, 2.638, 2.635, 2.633, 2.632, 2.631, 2.625, 2.627, 2.631, 2.639, 2.649, 2.654, 2.662, 2.673, 2.686, 2.701, 2.718, 2.742, 2.773, 2.822, 2.881, 2.926, 2.958,
                            2.883, 2.837, 2.796, 2.769, 2.749, 2.729, 2.701, 2.673, 2.653, 2.641, 2.636, 2.632, 2.631, 2.629, 2.623, 2.612, 2.619, 2.627, 2.637, 2.648, 2.652, 2.659, 2.671, 2.688, 2.699, 2.719, 2.742, 2.774, 2.821, 2.882, 2.927, 2.961,
                            2.881, 2.832, 2.795, 2.769, 2.751, 2.729, 2.701, 2.672, 2.652, 2.639, 2.633, 2.631, 2.628, 2.625, 2.611, 2.599, 2.607, 2.619, 2.635, 2.644, 2.652, 2.659, 2.669, 2.686, 2.698, 2.719, 2.743, 2.775, 2.822, 2.881, 2.926, 2.961,
                            2.879, 2.829, 2.793, 2.771, 2.751, 2.731, 2.701, 2.672, 2.651, 2.639, 2.632, 2.628, 2.626, 2.621, 2.601, 2.581, 2.581, 2.611, 2.631, 2.642, 2.648, 2.657, 2.669, 2.685, 2.699, 2.721, 2.743, 2.776, 2.819, 2.879, 2.927, 2.961,
                            2.876, 2.829, 2.796, 2.773, 2.752, 2.731, 2.705, 2.672, 2.651, 2.637, 2.631, 2.627, 2.625, 2.619, 2.601, 2.581, 2.581, 2.611, 2.629, 2.641, 2.647, 2.658, 2.669, 2.685, 2.697, 2.721, 2.746, 2.777, 2.822, 2.881, 2.929, 2.964,
                            2.874, 2.827, 2.796, 2.775, 2.755, 2.733, 2.708, 2.674, 2.649, 2.635, 2.629, 2.626, 2.624, 2.621, 2.609, 2.601, 2.606, 2.615, 2.629, 2.638, 2.645, 2.657, 2.669, 2.682, 2.699, 2.722, 2.747, 2.778, 2.822, 2.881, 2.931, 2.964,
                            2.871, 2.827, 2.797, 2.776, 2.761, 2.734, 2.711, 2.679, 2.651, 2.636, 2.628, 2.626, 2.624, 2.621, 2.618, 2.611, 2.614, 2.619, 2.628, 2.639, 2.644, 2.657, 2.668, 2.683, 2.698, 2.723, 2.749, 2.782, 2.824, 2.882, 2.933, 2.965,
                            2.869, 2.825, 2.797, 2.777, 2.765, 2.741, 2.718, 2.683, 2.655, 2.638, 2.627, 2.625, 2.624, 2.623, 2.621, 2.618, 2.618, 2.624, 2.629, 2.639, 2.644, 2.657, 2.669, 2.684, 2.701, 2.725, 2.755, 2.782, 2.829, 2.887, 2.937, 2.965,
                            2.871, 2.826, 2.799, 2.776, 2.765, 2.744, 2.723, 2.689, 2.659, 2.639, 2.629, 2.626, 2.626, 2.624, 2.624, 2.622, 2.624, 2.627, 2.632, 2.639, 2.646, 2.657, 2.671, 2.687, 2.706, 2.732, 2.757, 2.789, 2.836, 2.893, 2.941, 2.965,
                            2.869, 2.831, 2.803, 2.778, 2.766, 2.748, 2.729, 2.697, 2.667, 2.645, 2.632, 2.628, 2.625, 2.625, 2.625, 2.625, 2.627, 2.629, 2.634, 2.638, 2.648, 2.661, 2.673, 2.688, 2.711, 2.741, 2.762, 2.797, 2.843, 2.901, 2.943, 2.964,
                            2.872, 2.837, 2.802, 2.781, 2.768, 2.753, 2.734, 2.702, 2.674, 2.647, 2.634, 2.629, 2.626, 2.625, 2.625, 2.627, 2.629, 2.632, 2.635, 2.639, 2.649, 2.663, 2.676, 2.694, 2.719, 2.746, 2.771, 2.799, 2.851, 2.905, 2.947, 2.969,
                            2.871, 2.837, 2.805, 2.786, 2.771, 2.755, 2.739, 2.714, 2.685, 2.655, 2.639, 2.631, 2.626, 2.625, 2.626, 2.628, 2.629, 2.632, 2.634, 2.642, 2.651, 2.663, 2.679, 2.701, 2.726, 2.756, 2.773, 2.809, 2.861, 2.913, 2.949, 2.968,
                            2.876, 2.841, 2.808, 2.789, 2.775, 2.759, 2.744, 2.719, 2.693, 2.664, 2.648, 2.636, 2.629, 2.627, 2.627, 2.629, 2.631, 2.633, 2.637, 2.645, 2.653, 2.666, 2.682, 2.708, 2.734, 2.759, 2.779, 2.815, 2.868, 2.918, 2.951, 2.971,
                            2.882, 2.845, 2.816, 2.791, 2.778, 2.766, 2.748, 2.733, 2.707, 2.681, 2.656, 2.643, 2.636, 2.632, 2.631, 2.632, 2.633, 2.637, 2.643, 2.648, 2.659, 2.672, 2.691, 2.719, 2.747, 2.765, 2.791, 2.829, 2.881, 2.931, 2.952, 2.969,
                            2.889, 2.855, 2.819, 2.799, 2.782, 2.769, 2.755, 2.741, 2.717, 2.691, 2.672, 2.652, 2.643, 2.639, 2.636, 2.636, 2.638, 2.642, 2.646, 2.655, 2.665, 2.682, 2.703, 2.729, 2.752, 2.774, 2.798, 2.839, 2.891, 2.933, 2.959, 2.975,
                            2.897, 2.862, 2.829, 2.804, 2.789, 2.776, 2.764, 2.749, 2.734, 2.709, 2.689, 2.669, 2.652, 2.644, 2.642, 2.642, 2.644, 2.647, 2.654, 2.664, 2.677, 2.694, 2.714, 2.742, 2.764, 2.782, 2.809, 2.852, 2.899, 2.936, 2.961, 2.976,
                            2.902, 2.869, 2.841, 2.811, 2.797, 2.785, 2.776, 2.761, 2.748, 2.727, 2.708, 2.689, 2.671, 2.659, 2.655, 2.654, 2.653, 2.656, 2.666, 2.678, 2.693, 2.713, 2.737, 2.756, 2.775, 2.798, 2.825, 2.871, 2.913, 2.944, 2.966, 2.979,
                            2.911, 2.885, 2.848, 2.821, 2.804, 2.793, 2.784, 2.774, 2.759, 2.747, 2.726, 2.709, 2.692, 2.679, 2.673, 2.672, 2.671, 2.672, 2.681, 2.694, 2.712, 2.729, 2.749, 2.768, 2.789, 2.811, 2.844, 2.886, 2.928, 2.956, 2.971, 2.984,
                            2.925, 2.893, 2.861, 2.831, 2.813, 2.802, 2.795, 2.783, 2.773, 2.759, 2.744, 2.729, 2.715, 2.701, 2.698, 2.694, 2.693, 2.694, 2.702, 2.714, 2.729, 2.747, 2.761, 2.781, 2.802, 2.828, 2.864, 2.907, 2.942, 2.967, 2.978, 2.989,
