src/ipa/rpi/pisp/data/imx378.json
{
    "version": 2.0,
    "target": "pisp",
    "algorithms": [
        {
            "rpi.black_level":
            {
                "black_level": 4096
            }
        },
        {
            "rpi.dpc": { }
        },
        {
            "rpi.lux":
            {
                "reference_shutter_speed": 9999,
                "reference_gain": 1.95,
                "reference_aperture": 1.0,
                "reference_lux": 1000,
                "reference_Y": 12996
            }
        },
        {
            "rpi.noise":
            {
                "reference_constant": 0,
                "reference_slope": 2.641
            }
        },
        {
            "rpi.geq":
            {
                "offset": 235,
                "slope": 0.00902
            }
        },
        {
            "rpi.denoise":
            {
                "normal":
                {
                    "sdn":
                    {
                        "deviation": 1.6,
                        "strength": 0.5,
                        "deviation2": 3.2,
                        "deviation_no_tdn": 3.2,
                        "strength_no_tdn": 0.75
                    },
                    "cdn":
                    {
                        "deviation": 200,
                        "strength": 0.3
                    },
                    "tdn":
                    {
                        "deviation": 0.8,
                        "threshold": 0.05
                    }
                },
                "hdr":
                {
                    "sdn":
                    {
                        "deviation": 1.6,
                        "strength": 0.5,
                        "deviation2": 3.2,
                        "deviation_no_tdn": 3.2,
                        "strength_no_tdn": 0.75
                    },
                    "cdn":
                    {
                        "deviation": 200,
                        "strength": 0.3
                    },
                    "tdn":
                    {
                        "deviation": 1.3,
                        "threshold": 0.1
                    }
                },
                "night":
                {
                    "sdn":
                    {
                        "deviation": 1.6,
                        "strength": 0.5,
                        "deviation2": 3.2,
                        "deviation_no_tdn": 3.2,
                        "strength_no_tdn": 0.75
                    },
                    "cdn":
                    {
                        "deviation": 200,
                        "strength": 0.3
                    },
                    "tdn":
                    {
                        "deviation": 1.3,
                        "threshold": 0.1
                    }
                }
            }
        },
        {
            "rpi.awb":
            {
                "priors": [
                    {
                        "lux": 0,
                        "prior":
                        [
                            2000, 1.0,
                            3000, 0.0,
                            13000, 0.0
                        ]
                    },
                    {
                        "lux": 800,
                        "prior":
                        [
                            2000, 0.0,
                            6000, 2.0,
                            13000, 2.0
                        ]
                    },
                    {
                        "lux": 1500,
                        "prior":
                        [
                            2000, 0.0,
                            4000, 1.0,
                            6000, 6.0,
                            6500, 7.0,
                            7000, 1.0,
                            13000, 1.0
                        ]
                    }
                ],
                "modes":
                {
                    "auto":
                    {
                        "lo": 2500,
                        "hi": 8000
                    },
                    "incandescent":
                    {
                        "lo": 2500,
                        "hi": 3000
                    },
                    "tungsten":
                    {
                        "lo": 3000,
                        "hi": 3500
                    },
                    "fluorescent":
                    {
                        "lo": 4000,
                        "hi": 4700
                    },
                    "indoor":
                    {
                        "lo": 3000,
                        "hi": 5000
                    },
                    "daylight":
                    {
                        "lo": 5500,
                        "hi": 6500
                    },
                    "cloudy":
                    {
                        "lo": 7000,
                        "hi": 8100
                    }
                },
                "bayes": 1,
                "ct_curve":
                [
                    2850.0, 0.6361, 0.3911,
                    3550.0, 0.5386, 0.5077,
                    4500.0, 0.4472, 0.6171,
                    5600.0, 0.3906, 0.6848,
                    8000.0, 0.3412, 0.7441
                ],
                "sensitivity_r": 1.0,
                "sensitivity_b": 1.0,
                "transverse_pos": 0.01667,
                "transverse_neg": 0.01195
            }
        },
        {
            "rpi.agc":
            {
                "metering_modes":
                {
                    "centre-weighted":
                    {
                        "weights":
                        [
                            0, 0, 1, 1, 1, 1, 1, 1, 1, 1, 1, 1, 1, 0, 0,
                            0, 1, 1, 1, 1, 1, 2, 2, 2, 1, 1, 1, 1, 1, 0,
                            1, 1, 1, 1, 2, 2, 2, 2, 2, 2, 2, 1, 1, 1, 1,
                            1, 1, 2, 2, 2, 2, 2, 2, 2, 2, 2, 2, 2, 1, 1,
                            1, 1, 2, 2, 2, 2, 3, 3, 3, 2, 2, 2, 2, 1, 1,
                            1, 1, 2, 2, 2, 3, 3, 3, 3, 3, 2, 2, 2, 1, 1,
                            1, 1, 2, 2, 3, 3, 3, 4, 3, 3, 3, 2, 2, 1, 1,
                            1, 1, 2, 2, 3, 3, 4, 4, 4, 3, 3, 2, 2, 1, 1,
                            1, 1, 2, 2, 3, 3, 3, 4, 3, 3, 3, 2, 2, 1, 1,
                            1, 1, 2, 2, 2, 3, 3, 3, 3, 3, 2, 2, 2, 1, 1,
                            1, 1, 2, 2, 2, 2, 3, 3, 3, 2, 2, 2, 2, 1, 1,
                            1, 1, 2, 2, 2, 2, 2, 2, 2, 2, 2, 2, 2, 1, 1,
                            1, 1, 1, 1, 2, 2, 2, 2, 2, 2, 2, 1, 1, 1, 1,
                            0, 1, 1, 1, 1, 1, 2, 2, 2, 1, 1, 1, 1, 1, 0,
                            0, 0, 1, 1, 1, 1, 1, 1, 1, 1, 1, 1, 1, 0, 0
                        ]
                    },
                    "spot":
                    {
                        "weights":
                        [
                            0, 0, 0, 0, 0, 0, 0, 0, 0, 0, 0, 0, 0, 0, 0,
                            0, 0, 0, 0, 0, 0, 0, 0, 0, 0, 0, 0, 0, 0, 0,
                            0, 0, 0, 0, 0, 0, 0, 0, 0, 0, 0, 0, 0, 0, 0,
                            0, 0, 0, 0, 0, 0, 0, 0, 0, 0, 0, 0, 0, 0, 0,
                            0, 0, 0, 0, 0, 0, 0, 0, 0, 0, 0, 0, 0, 0, 0,
                            0, 0, 0, 0, 0, 0, 0, 1, 0, 0, 0, 0, 0, 0, 0,
                            0, 0, 0, 0, 0, 0, 1, 2, 1, 0, 0, 0, 0, 0, 0,
                            0, 0, 0, 0, 0, 1, 2, 3, 2, 1, 0, 0, 0, 0, 0,
                            0, 0, 0, 0, 0, 0, 1, 2, 1, 0, 0, 0, 0, 0, 0,
                            0, 0, 0, 0, 0, 0, 0, 1, 0, 0, 0, 0, 0, 0, 0,
                            0, 0, 0, 0, 0, 0, 0, 0, 0, 0, 0, 0, 0, 0, 0,
                            0, 0, 0, 0, 0, 0, 0, 0, 0, 0, 0, 0, 0, 0, 0,
                            0, 0, 0, 0, 0, 0, 0, 0, 0, 0, 0, 0, 0, 0, 0,
                            0, 0, 0, 0, 0, 0, 0, 0, 0, 0, 0, 0, 0, 0, 0,
                            0, 0, 0, 0, 0, 0, 0, 0, 0, 0, 0, 0, 0, 0, 0
                        ]
                    },
                    "matrix":
                    {
                        "weights":
                        [
                            1, 1, 1, 1, 1, 1, 1, 1, 1, 1, 1, 1, 1, 1, 1,
                            1, 1, 1, 1, 1, 1, 1, 1, 1, 1, 1, 1, 1, 1, 1,
                            1, 1, 1, 1, 1, 1, 1, 1, 1, 1, 1, 1, 1, 1, 1,
                            1, 1, 1, 1, 1, 1, 1, 1, 1, 1, 1, 1, 1, 1, 1,
                            1, 1, 1, 1, 1, 1, 1, 1, 1, 1, 1, 1, 1, 1, 1,
                            1, 1, 1, 1, 1, 1, 1, 1, 1, 1, 1, 1, 1, 1, 1,
                            1, 1, 1, 1, 1, 1, 1, 1, 1, 1, 1, 1, 1, 1, 1,
                            1, 1, 1, 1, 1, 1, 1, 1, 1, 1, 1, 1, 1, 1, 1,
                            1, 1, 1, 1, 1, 1, 1, 1, 1, 1, 1, 1, 1, 1, 1,
                            1, 1, 1, 1, 1, 1, 1, 1, 1, 1, 1, 1, 1, 1, 1,
                            1, 1, 1, 1, 1, 1, 1, 1, 1, 1, 1, 1, 1, 1, 1,
                            1, 1, 1, 1, 1, 1, 1, 1, 1, 1, 1, 1, 1, 1, 1,
                            1, 1, 1, 1, 1, 1, 1, 1, 1, 1, 1, 1, 1, 1, 1,
                            1, 1, 1, 1, 1, 1, 1, 1, 1, 1, 1, 1, 1, 1, 1,
                            1, 1, 1, 1, 1, 1, 1, 1, 1, 1, 1, 1, 1, 1, 1
                        ]
                    }
                },
                "exposure_modes":
                {
                    "normal":
                    {
                        "shutter": [ 100, 10000, 30000, 60000, 120000 ],
                        "gain": [ 1.0, 2.0, 4.0, 6.0, 8.0 ]
                    },
                    "short":
                    {
                        "shutter": [ 100, 5000, 10000, 20000, 120000 ],
                        "gain": [ 1.0, 2.0, 4.0, 6.0, 8.0 ]
                    },
                    "long":
                    {
                        "shutter": [ 1000, 30000, 60000, 90000, 120000 ],
                        "gain": [ 1.0, 2.0, 4.0, 6.0, 12.0 ]
                    }
                },
                "constraint_modes":
                {
                    "normal": [
                        {
                            "bound": "LOWER",
                            "q_lo": 0.98,
                            "q_hi": 1.0,
                            "y_target":
                            [
                                0, 0.5,
                                1000, 0.5
                            ]
                        }
                    ],
                    "highlight": [
                        {
                            "bound": "LOWER",
                            "q_lo": 0.98,
                            "q_hi": 1.0,
                            "y_target":
                            [
                                0, 0.5,
                                1000, 0.5
                            ]
                        },
                        {
                            "bound": "UPPER",
                            "q_lo": 0.98,
                            "q_hi": 1.0,
                            "y_target":
                            [
                                0, 0.8,
                                1000, 0.8
                            ]
                        }
                    ]
                },
                "y_target":
                [
                    0, 0.16,
                    1000, 0.165,
                    10000, 0.17
                ]
            }
        },
        {
            "rpi.alsc":
            {
                "omega": 1.3,
                "n_iter": 100,
                "luminance_strength": 0.5,
                "calibrations_Cr": [
                    {
                        "ct": 2800,
                        "table":
                        [
                            1.604, 1.603, 1.601, 1.597, 1.594, 1.588, 1.582, 1.576, 1.57, 1.566, 1.562, 1.561, 1.561, 1.561, 1.561, 1.561, 1.561, 1.562, 1.565, 1.57, 1.577, 1.584, 1.591, 1.598, 1.604, 1.61, 1.617, 1.623, 1.627, 1.632, 1.634, 1.636,
                            1.603, 1.601, 1.599, 1.595, 1.591, 1.585, 1.579, 1.572, 1.565, 1.561, 1.557, 1.555, 1.555, 1.555, 1.555, 1.555, 1.556, 1.558, 1.561, 1.566, 1.573, 1.581, 1.587, 1.594, 1.6, 1.607, 1.613, 1.62, 1.625, 1.63, 1.632, 1.635,
                            1.602, 1.599, 1.596, 1.592, 1.589, 1.582, 1.575, 1.568, 1.561, 1.556, 1.552, 1.55, 1.549, 1.548, 1.548, 1.549, 1.55, 1.553, 1.556, 1.562, 1.57, 1.577, 1.583, 1.589, 1.596, 1.603, 1.61, 1.617, 1.622, 1.627, 1.63, 1.633,
                            1.601, 1.597, 1.594, 1.59, 1.586, 1.579, 1.571, 1.564, 1.556, 1.551, 1.546, 1.544, 1.542, 1.541, 1.541, 1.542, 1.544, 1.547, 1.551, 1.557, 1.565, 1.573, 1.579, 1.585, 1.592, 1.6, 1.607, 1.614, 1.62, 1.625, 1.628, 1.632,
                            1.6, 1.596, 1.591, 1.586, 1.58, 1.573, 1.566, 1.559, 1.551, 1.546, 1.54, 1.537, 1.534, 1.533, 1.533, 1.534, 1.536, 1.539, 1.544, 1.551, 1.559, 1.567, 1.574, 1.581, 1.589, 1.596, 1.604, 1.612, 1.618, 1.624, 1.627, 1.631,
                            1.599, 1.594, 1.588, 1.582, 1.575, 1.568, 1.56, 1.553, 1.547, 1.54, 1.534, 1.529, 1.525, 1.524, 1.524, 1.525, 1.527, 1.531, 1.537, 1.545, 1.553, 1.561, 1.569, 1.577, 1.585, 1.593, 1.601, 1.609, 1.616, 1.623, 1.626, 1.63,
                            1.599, 1.592, 1.586, 1.578, 1.571, 1.563, 1.555, 1.548, 1.542, 1.535, 1.528, 1.522, 1.517, 1.515, 1.515, 1.516, 1.519, 1.523, 1.531, 1.539, 1.547, 1.556, 1.564, 1.573, 1.581, 1.59, 1.599, 1.607, 1.615, 1.622, 1.625, 1.629,
                            1.598, 1.591, 1.583, 1.575, 1.567, 1.559, 1.55, 1.543, 1.537, 1.53, 1.523, 1.516, 1.509, 1.506, 1.506, 1.507, 1.51, 1.516, 1.525, 1.533, 1.541, 1.55, 1.56, 1.57, 1.579, 1.587, 1.596, 1.605, 1.613, 1.621, 1.625, 1.629,
                            1.597, 1.589, 1.581, 1.572, 1.564, 1.555, 1.546, 1.539, 1.532, 1.525, 1.517, 1.509, 1.5, 1.497, 1.497, 1.499, 1.501, 1.508, 1.519, 1.528, 1.535, 1.544, 1.556, 1.567, 1.576, 1.585, 1.594, 1.603, 1.612, 1.62, 1.624, 1.629,
                            1.597, 1.588, 1.579, 1.57, 1.561, 1.552, 1.543, 1.535, 1.527, 1.519, 1.511, 1.503, 1.494, 1.491, 1.49, 1.492, 1.496, 1.502, 1.512, 1.521, 1.529, 1.539, 1.552, 1.564, 1.574, 1.583, 1.592, 1.602, 1.611, 1.619, 1.624, 1.629,
                            1.597, 1.588, 1.579, 1.569, 1.56, 1.55, 1.54, 1.531, 1.522, 1.513, 1.504, 1.497, 1.489, 1.486, 1.486, 1.488, 1.493, 1.498, 1.506, 1.514, 1.523, 1.535, 1.548, 1.561, 1.572, 1.582, 1.591, 1.601, 1.61, 1.619, 1.624, 1.629,
                            1.597, 1.587, 1.578, 1.568, 1.559, 1.548, 1.538, 1.527, 1.516, 1.507, 1.498, 1.491, 1.485, 1.482, 1.481, 1.484, 1.489, 1.495, 1.499, 1.506, 1.518, 1.53, 1.545, 1.559, 1.57, 1.58, 1.59, 1.6, 1.61, 1.619, 1.624, 1.629,
                            1.597, 1.587, 1.578, 1.568, 1.558, 1.548, 1.537, 1.526, 1.514, 1.504, 1.494, 1.487, 1.482, 1.479, 1.479, 1.481, 1.486, 1.491, 1.496, 1.503, 1.515, 1.529, 1.544, 1.558, 1.569, 1.58, 1.59, 1.6, 1.61, 1.619, 1.624, 1.629,
                            1.597, 1.587, 1.578, 1.568, 1.558, 1.548, 1.537, 1.525, 1.513, 1.502, 1.491, 1.484, 1.48, 1.478, 1.477, 1.479, 1.483, 1.488, 1.494, 1.502, 1.515, 1.528, 1.543, 1.557, 1.569, 1.58, 1.59, 1.6, 1.61, 1.619, 1.624, 1.629,
                            1.597, 1.587, 1.578, 1.568, 1.558, 1.547, 1.536, 1.524, 1.511, 1.499, 1.487, 1.481, 1.478, 1.476, 1.476, 1.477, 1.48, 1.485, 1.492, 1.501, 1.514, 1.527, 1.543, 1.557, 1.569, 1.58, 1.59, 1.6, 1.61, 1.619, 1.624, 1.629,
                            1.597, 1.587, 1.578, 1.568, 1.558, 1.547, 1.536, 1.524, 1.511, 1.499, 1.487, 1.481, 1.479, 1.477, 1.477, 1.478, 1.48, 1.484, 1.492, 1.501, 1.514, 1.527, 1.543, 1.557, 1.569, 1.58, 1.591, 1.601, 1.61, 1.619, 1.624, 1.63,
                            1.597, 1.588, 1.578, 1.568, 1.558, 1.547, 1.536, 1.524, 1.511, 1.499, 1.487, 1.482, 1.48, 1.479, 1.478, 1.479, 1.48, 1.484, 1.492, 1.501, 1.514, 1.527, 1.543, 1.557, 1.569, 1.581, 1.591, 1.602, 1.611, 1.619, 1.625, 1.63,
                            1.597, 1.588, 1.579, 1.569, 1.559, 1.548, 1.536, 1.524, 1.512, 1.5, 1.488, 1.483, 1.482, 1.48, 1.48, 1.48, 1.481, 1.485, 1.492, 1.501, 1.514, 1.527, 1.543, 1.557, 1.57, 1.581, 1.592, 1.602, 1.611, 1.62, 1.625, 1.631,
                            1.597, 1.588, 1.58, 1.57, 1.56, 1.549, 1.538, 1.526, 1.515, 1.504, 1.494, 1.488, 1.484, 1.481, 1.48, 1.482, 1.485, 1.49, 1.497, 1.506, 1.518, 1.531, 1.546, 1.56, 1.572, 1.583, 1.594, 1.604, 1.613, 1.621, 1.626, 1.631,
                            1.597, 1.589, 1.581, 1.571, 1.562, 1.551, 1.54, 1.529, 1.518, 1.509, 1.501, 1.493, 1.486, 1.482, 1.481, 1.483, 1.489, 1.496, 1.503, 1.511, 1.522, 1.534, 1.548, 1.562, 1.574, 1.586, 1.596, 1.607, 1.615, 1.622, 1.627, 1.632,
                            1.597, 1.59, 1.582, 1.573, 1.564, 1.553, 1.543, 1.532, 1.522, 1.514, 1.507, 1.499, 1.489, 1.485, 1.484, 1.487, 1.494, 1.501, 1.508, 1.517, 1.527, 1.538, 1.552, 1.565, 1.577, 1.588, 1.599, 1.609, 1.616, 1.624, 1.628, 1.632,
                            1.599, 1.592, 1.585, 1.576, 1.566, 1.557, 1.548, 1.538, 1.529, 1.521, 1.513, 1.504, 1.496, 1.492, 1.492, 1.494, 1.5, 1.507, 1.515, 1.524, 1.534, 1.545, 1.557, 1.569, 1.581, 1.592, 1.602, 1.611, 1.619, 1.626, 1.63, 1.634,
                            1.6, 1.594, 1.588, 1.579, 1.569, 1.561, 1.553, 1.545, 1.537, 1.528, 1.518, 1.51, 1.503, 1.5, 1.5, 1.502, 1.506, 1.512, 1.522, 1.531, 1.542, 1.552, 1.563, 1.574, 1.585, 1.596, 1.605, 1.614, 1.621, 1.628, 1.632, 1.635,
                            1.602, 1.597, 1.591, 1.582, 1.573, 1.565, 1.558, 1.551, 1.543, 1.534, 1.524, 1.517, 1.511, 1.509, 1.509, 1.511, 1.514, 1.52, 1.529, 1.539, 1.549, 1.559, 1.569, 1.579, 1.589, 1.6, 1.608, 1.617, 1.624, 1.631, 1.634, 1.637,
                            1.605, 1.6, 1.596, 1.587, 1.579, 1.571, 1.563, 1.556, 1.549, 1.541, 1.533, 1.527, 1.522, 1.52, 1.52, 1.522, 1.525, 1.53, 1.538, 1.546, 1.557, 1.566, 1.576, 1.585, 1.595, 1.604, 1.612, 1.621, 1.627, 1.633, 1.637, 1.641,
                            1.608, 1.604, 1.6, 1.592, 1.585, 1.577, 1.569, 1.561, 1.554, 1.547, 1.541, 1.536, 1.533, 1.531, 1.531, 1.533, 1.536, 1.54, 1.546, 1.554, 1.564, 1.574, 1.583, 1.592, 1.6, 1.608, 1.616, 1.624, 1.63, 1.636, 1.64, 1.644,
                            1.611, 1.607, 1.604, 1.597, 1.59, 1.582, 1.574, 1.567, 1.56, 1.554, 1.549, 1.545, 1.543, 1.542, 1.542, 1.543, 1.546, 1.55, 1.556, 1.562, 1.571, 1.58, 1.589, 1.598, 1.605, 1.613, 1.621, 1.628, 1.634, 1.639, 1.643, 1.647,
                            1.614, 1.61, 1.607, 1.601, 1.595, 1.588, 1.58, 1.574, 1.567, 1.562, 1.557, 1.554, 1.553, 1.552, 1.552, 1.554, 1.557, 1.561, 1.565, 1.571, 1.579, 1.587, 1.595, 1.603, 1.61, 1.618, 1.625, 1.633, 1.638, 1.642, 1.646, 1.65,
                            1.616, 1.614, 1.611, 1.606, 1.601, 1.594, 1.586, 1.58, 1.574, 1.569, 1.565, 1.563, 1.562, 1.562, 1.562, 1.564, 1.567, 1.571, 1.575, 1.58, 1.586, 1.593, 1.601, 1.609, 1.616, 1.623, 1.63, 1.637, 1.641, 1.646, 1.65, 1.653,
                            1.618, 1.615, 1.613, 1.609, 1.604, 1.598, 1.592, 1.586, 1.58, 1.575, 1.572, 1.571, 1.57, 1.57, 1.57, 1.572, 1.574, 1.577, 1.581, 1.585, 1.592, 1.599, 1.606, 1.614, 1.621, 1.628, 1.634, 1.64, 1.644, 1.649, 1.651, 1.654,
                            1.618, 1.617, 1.615, 1.612, 1.608, 1.603, 1.597, 1.591, 1.585, 1.581, 1.579, 1.578, 1.578, 1.578, 1.578, 1.579, 1.581, 1.583, 1.586, 1.59, 1.597, 1.604, 1.612, 1.619, 1.626, 1.633, 1.638, 1.643, 1.647, 1.651, 1.653, 1.655,
                            1.619, 1.618, 1.617, 1.614, 1.611, 1.607, 1.602, 1.596, 1.59, 1.587, 1.585, 1.585, 1.585, 1.585, 1.585, 1.586, 1.587, 1.589, 1.591, 1.595, 1.602, 1.609, 1.617, 1.624, 1.631, 1.638, 1.642, 1.646, 1.65, 1.654, 1.655, 1.655
                        ]
                    },
                    {
                        "ct": 5500,
                        "table":
                        [
                            2.664, 2.661, 2.658, 2.652, 2.646, 2.638, 2.631, 2.619, 2.605, 2.602, 2.602, 2.602, 2.602, 2.603, 2.605, 2.609, 2.614, 2.619, 2.625, 2.632, 2.642, 2.654, 2.667, 2.68, 2.69, 2.701, 2.712, 2.723, 2.73, 2.736, 2.742, 2.747,
                            2.662, 2.659, 2.656, 2.649, 2.64, 2.631, 2.622, 2.61, 2.596, 2.593, 2.592, 2.593, 2.593, 2.595, 2.599, 2.604, 2.61, 2.616, 2.621, 2.628, 2.636, 2.646, 2.659, 2.671, 2.682, 2.694, 2.706, 2.718, 2.726, 2.733, 2.739, 2.745,
                            2.66, 2.657, 2.655, 2.645, 2.635, 2.625, 2.614, 2.601, 2.587, 2.583, 2.583, 2.583, 2.584, 2.588, 2.593, 2.599, 2.606, 2.612, 2.618, 2.624, 2.63, 2.639, 2.65, 2.662, 2.674, 2.687, 2.7, 2.713, 2.721, 2.73, 2.736, 2.743,
                            2.657, 2.655, 2.652, 2.641, 2.629, 2.617, 2.605, 2.592, 2.579, 2.575, 2.574, 2.574, 2.575, 2.58, 2.587, 2.593, 2.6, 2.607, 2.613, 2.619, 2.625, 2.632, 2.643, 2.654, 2.667, 2.68, 2.694, 2.708, 2.717, 2.727, 2.734, 2.741,
                            2.654, 2.649, 2.644, 2.633, 2.621, 2.608, 2.595, 2.584, 2.573, 2.569, 2.566, 2.566, 2.566, 2.57, 2.575, 2.582, 2.59, 2.598, 2.607, 2.615, 2.621, 2.628, 2.639, 2.65, 2.664, 2.677, 2.691, 2.705, 2.715, 2.725, 2.733, 2.741,
                            2.651, 2.644, 2.636, 2.624, 2.612, 2.599, 2.585, 2.576, 2.568, 2.563, 2.559, 2.557, 2.558, 2.56, 2.563, 2.57, 2.579, 2.589, 2.6, 2.61, 2.617, 2.625, 2.635, 2.647, 2.66, 2.674, 2.688, 2.701, 2.712, 2.723, 2.732, 2.741,
                            2.648, 2.639, 2.629, 2.617, 2.604, 2.59, 2.577, 2.569, 2.563, 2.557, 2.551, 2.549, 2.549, 2.55, 2.552, 2.558, 2.568, 2.58, 2.593, 2.604, 2.612, 2.621, 2.632, 2.644, 2.658, 2.671, 2.685, 2.699, 2.71, 2.722, 2.731, 2.741,
                            2.646, 2.635, 2.623, 2.61, 2.596, 2.584, 2.572, 2.565, 2.559, 2.552, 2.544, 2.541, 2.54, 2.541, 2.542, 2.548, 2.559, 2.57, 2.583, 2.595, 2.605, 2.616, 2.63, 2.643, 2.656, 2.67, 2.684, 2.698, 2.71, 2.722, 2.731, 2.741,
                            2.644, 2.63, 2.617, 2.603, 2.588, 2.578, 2.567, 2.561, 2.555, 2.547, 2.538, 2.533, 2.532, 2.531, 2.532, 2.538, 2.549, 2.561, 2.574, 2.586, 2.598, 2.612, 2.627, 2.642, 2.655, 2.668, 2.682, 2.696, 2.709, 2.722, 2.731, 2.741,
                            2.643, 2.628, 2.613, 2.598, 2.583, 2.573, 2.564, 2.557, 2.55, 2.541, 2.531, 2.526, 2.524, 2.523, 2.524, 2.53, 2.541, 2.552, 2.565, 2.578, 2.593, 2.608, 2.625, 2.641, 2.654, 2.668, 2.682, 2.696, 2.709, 2.722, 2.731, 2.741,
                            2.643, 2.627, 2.61, 2.595, 2.581, 2.571, 2.562, 2.553, 2.543, 2.534, 2.526, 2.52, 2.516, 2.516, 2.519, 2.525, 2.533, 2.543, 2.556, 2.57, 2.588, 2.606, 2.623, 2.64, 2.654, 2.668, 2.682, 2.696, 2.709, 2.722, 2.731, 2.741,
                            2.643, 2.625, 2.608, 2.593, 2.578, 2.569, 2.56, 2.549, 2.536, 2.528, 2.52, 2.514, 2.508, 2.509, 2.515, 2.52, 2.526, 2.535, 2.546, 2.562, 2.583, 2.603, 2.622, 2.639, 2.653, 2.668, 2.682, 2.696, 2.709, 2.722, 2.731, 2.741,
                            2.643, 2.625, 2.607, 2.592, 2.577, 2.568, 2.56, 2.548, 2.534, 2.524, 2.516, 2.51, 2.505, 2.506, 2.51, 2.516, 2.522, 2.531, 2.544, 2.56, 2.581, 2.601, 2.621, 2.639, 2.654, 2.669, 2.683, 2.696, 2.71, 2.723, 2.732, 2.742,
                            2.643, 2.625, 2.607, 2.592, 2.577, 2.568, 2.56, 2.548, 2.534, 2.523, 2.512, 2.506, 2.503, 2.504, 2.506, 2.512, 2.52, 2.53, 2.543, 2.559, 2.58, 2.6, 2.62, 2.639, 2.655, 2.67, 2.684, 2.697, 2.711, 2.725, 2.734, 2.743,
                            2.643, 2.625, 2.607, 2.592, 2.577, 2.568, 2.56, 2.548, 2.534, 2.521, 2.508, 2.503, 2.502, 2.501, 2.502, 2.508, 2.517, 2.529, 2.543, 2.559, 2.579, 2.599, 2.62, 2.639, 2.656, 2.671, 2.685, 2.698, 2.713, 2.727, 2.736, 2.744,
                            2.645, 2.627, 2.609, 2.593, 2.578, 2.569, 2.56, 2.548, 2.535, 2.522, 2.51, 2.504, 2.502, 2.502, 2.504, 2.509, 2.518, 2.529, 2.543, 2.559, 2.579, 2.599, 2.621, 2.642, 2.658, 2.673, 2.686, 2.7, 2.715, 2.729, 2.738, 2.747,
