src/ipa/rpi/pisp/data/imx519.json
{
    "version": 2.0,
    "target": "pisp",
    "algorithms": [
        {
            "rpi.black_level":
            {
                "black_level": 4096
            }
        },
        {
            "rpi.dpc": { }
        },
        {
            "rpi.lux":
            {
                "reference_shutter_speed": 13841,
                "reference_gain": 2.0,
                "reference_aperture": 1.0,
                "reference_lux": 900,
                "reference_Y": 12064
            }
        },
        {
            "rpi.noise":
            {
                "reference_constant": 0,
                "reference_slope": 3.8
            }
        },
        {
            "rpi.geq":
            {
                "offset": 189,
                "slope": 0.01495
            }
        },
        {
            "rpi.denoise":
            {
                "normal":
                {
                    "sdn":
                    {
                        "deviation": 0.6,
                        "strength": 0.95,
                        "deviation2": 3.2,
                        "deviation_no_tdn": 3.2,
                        "strength_no_tdn": 0.95
                    },
                    "cdn":
                    {
                        "deviation": 200,
                        "strength": 0.3
                    },
                    "tdn":
                    {
                        "deviation": 1.0,
                        "threshold": 0.05
                    }
                },
                "hdr":
                {
                    "sdn":
                    {
                        "deviation": 0.6,
                        "strength": 0.95,
                        "deviation2": 3.2,
                        "deviation_no_tdn": 3.2,
                        "strength_no_tdn": 0.95
                    },
                    "cdn":
                    {
                        "deviation": 200,
                        "strength": 0.3
                    },
                    "tdn":
                    {
                        "deviation": 1.0,
                        "threshold": 0.05
                    }
                },
                "night":
                {
                    "sdn":
                    {
                        "deviation": 0.6,
                        "strength": 0.95,
                        "deviation2": 3.2,
                        "deviation_no_tdn": 3.2,
                        "strength_no_tdn": 0.95
                    },
                    "cdn":
                    {
                        "deviation": 200,
                        "strength": 0.3
                    },
                    "tdn":
                    {
                        "deviation": 1.0,
                        "threshold": 0.05
                    }
                }
            }
        },
        {
            "rpi.awb":
            {
                "priors": [
                    {
                        "lux": 0,
                        "prior":
                        [
                            2000, 1.0,
                            3000, 0.0,
                            13000, 0.0
                        ]
                    },
                    {
                        "lux": 800,
                        "prior":
                        [
                            2000, 0.0,
                            6000, 2.0,
                            13000, 2.0
                        ]
                    },
                    {
                        "lux": 1500,
                        "prior":
                        [
                            2000, 0.0,
                            4000, 1.0,
                            6000, 6.0,
                            6500, 7.0,
                            7000, 1.0,
                            13000, 1.0
                        ]
                    }
                ],
                "modes":
                {
                    "auto":
                    {
                        "lo": 2500,
                        "hi": 7900
                    },
                    "incandescent":
                    {
                        "lo": 2500,
                        "hi": 3000
                    },
                    "tungsten":
                    {
                        "lo": 3000,
                        "hi": 3500
                    },
                    "fluorescent":
                    {
                        "lo": 4000,
                        "hi": 4700
                    },
                    "indoor":
                    {
                        "lo": 3000,
                        "hi": 5000
                    },
                    "daylight":
                    {
                        "lo": 5500,
                        "hi": 6500
                    },
                    "cloudy":
                    {
                        "lo": 7000,
                        "hi": 8000
                    }
                },
                "bayes": 1,
                "ct_curve":
                [
                    2890.0, 0.7328, 0.3734,
                    3550.0, 0.6228, 0.4763,
                    4500.0, 0.5208, 0.5825,
                    5700.0, 0.4467, 0.6671,
                    7900.0, 0.3858, 0.7411
                ],
                "sensitivity_r": 1.0,
                "sensitivity_b": 1.0,
                "transverse_pos": 0.02027,
                "transverse_neg": 0.01935
            }
        },
        {
            "rpi.agc":
            {
                "metering_modes":
                {
                    "centre-weighted":
                    {
                        "weights":
                        [
                            0, 0, 1, 1, 1, 1, 1, 1, 1, 1, 1, 1, 1, 0, 0,
                            0, 1, 1, 1, 1, 1, 2, 2, 2, 1, 1, 1, 1, 1, 0,
                            1, 1, 1, 1, 2, 2, 2, 2, 2, 2, 2, 1, 1, 1, 1,
                            1, 1, 2, 2, 2, 2, 2, 2, 2, 2, 2, 2, 2, 1, 1,
                            1, 1, 2, 2, 2, 2, 3, 3, 3, 2, 2, 2, 2, 1, 1,
                            1, 1, 2, 2, 2, 3, 3, 3, 3, 3, 2, 2, 2, 1, 1,
                            1, 1, 2, 2, 3, 3, 3, 4, 3, 3, 3, 2, 2, 1, 1,
                            1, 1, 2, 2, 3, 3, 4, 4, 4, 3, 3, 2, 2, 1, 1,
                            1, 1, 2, 2, 3, 3, 3, 4, 3, 3, 3, 2, 2, 1, 1,
                            1, 1, 2, 2, 2, 3, 3, 3, 3, 3, 2, 2, 2, 1, 1,
                            1, 1, 2, 2, 2, 2, 3, 3, 3, 2, 2, 2, 2, 1, 1,
                            1, 1, 2, 2, 2, 2, 2, 2, 2, 2, 2, 2, 2, 1, 1,
                            1, 1, 1, 1, 2, 2, 2, 2, 2, 2, 2, 1, 1, 1, 1,
                            0, 1, 1, 1, 1, 1, 2, 2, 2, 1, 1, 1, 1, 1, 0,
                            0, 0, 1, 1, 1, 1, 1, 1, 1, 1, 1, 1, 1, 0, 0
                        ]
                    },
                    "spot":
                    {
                        "weights":
                        [
                            0, 0, 0, 0, 0, 0, 0, 0, 0, 0, 0, 0, 0, 0, 0,
                            0, 0, 0, 0, 0, 0, 0, 0, 0, 0, 0, 0, 0, 0, 0,
                            0, 0, 0, 0, 0, 0, 0, 0, 0, 0, 0, 0, 0, 0, 0,
                            0, 0, 0, 0, 0, 0, 0, 0, 0, 0, 0, 0, 0, 0, 0,
                            0, 0, 0, 0, 0, 0, 0, 0, 0, 0, 0, 0, 0, 0, 0,
                            0, 0, 0, 0, 0, 0, 0, 1, 0, 0, 0, 0, 0, 0, 0,
                            0, 0, 0, 0, 0, 0, 1, 2, 1, 0, 0, 0, 0, 0, 0,
                            0, 0, 0, 0, 0, 1, 2, 3, 2, 1, 0, 0, 0, 0, 0,
                            0, 0, 0, 0, 0, 0, 1, 2, 1, 0, 0, 0, 0, 0, 0,
                            0, 0, 0, 0, 0, 0, 0, 1, 0, 0, 0, 0, 0, 0, 0,
                            0, 0, 0, 0, 0, 0, 0, 0, 0, 0, 0, 0, 0, 0, 0,
                            0, 0, 0, 0, 0, 0, 0, 0, 0, 0, 0, 0, 0, 0, 0,
                            0, 0, 0, 0, 0, 0, 0, 0, 0, 0, 0, 0, 0, 0, 0,
                            0, 0, 0, 0, 0, 0, 0, 0, 0, 0, 0, 0, 0, 0, 0,
                            0, 0, 0, 0, 0, 0, 0, 0, 0, 0, 0, 0, 0, 0, 0
                        ]
                    },
                    "matrix":
                    {
                        "weights":
                        [
                            1, 1, 1, 1, 1, 1, 1, 1, 1, 1, 1, 1, 1, 1, 1,
                            1, 1, 1, 1, 1, 1, 1, 1, 1, 1, 1, 1, 1, 1, 1,
                            1, 1, 1, 1, 1, 1, 1, 1, 1, 1, 1, 1, 1, 1, 1,
                            1, 1, 1, 1, 1, 1, 1, 1, 1, 1, 1, 1, 1, 1, 1,
                            1, 1, 1, 1, 1, 1, 1, 1, 1, 1, 1, 1, 1, 1, 1,
                            1, 1, 1, 1, 1, 1, 1, 1, 1, 1, 1, 1, 1, 1, 1,
                            1, 1, 1, 1, 1, 1, 1, 1, 1, 1, 1, 1, 1, 1, 1,
                            1, 1, 1, 1, 1, 1, 1, 1, 1, 1, 1, 1, 1, 1, 1,
                            1, 1, 1, 1, 1, 1, 1, 1, 1, 1, 1, 1, 1, 1, 1,
                            1, 1, 1, 1, 1, 1, 1, 1, 1, 1, 1, 1, 1, 1, 1,
                            1, 1, 1, 1, 1, 1, 1, 1, 1, 1, 1, 1, 1, 1, 1,
                            1, 1, 1, 1, 1, 1, 1, 1, 1, 1, 1, 1, 1, 1, 1,
                            1, 1, 1, 1, 1, 1, 1, 1, 1, 1, 1, 1, 1, 1, 1,
                            1, 1, 1, 1, 1, 1, 1, 1, 1, 1, 1, 1, 1, 1, 1,
                            1, 1, 1, 1, 1, 1, 1, 1, 1, 1, 1, 1, 1, 1, 1
                        ]
                    }
                },
                "exposure_modes":
                {
                    "normal":
                    {
                        "shutter": [ 100, 10000, 30000, 60000, 120000 ],
                        "gain": [ 1.0, 2.0, 4.0, 6.0, 8.0 ]
                    },
                    "short":
                    {
                        "shutter": [ 100, 5000, 10000, 20000, 120000 ],
                        "gain": [ 1.0, 2.0, 4.0, 6.0, 8.0 ]
                    },
                    "long":
                    {
                        "shutter": [ 1000, 30000, 60000, 90000, 120000 ],
                        "gain": [ 1.0, 2.0, 4.0, 6.0, 12.0 ]
                    }
                },
                "constraint_modes":
                {
                    "normal": [
                        {
                            "bound": "LOWER",
                            "q_lo": 0.98,
                            "q_hi": 1.0,
                            "y_target":
                            [
                                0, 0.5,
                                1000, 0.5
                            ]
                        }
                    ],
                    "highlight": [
                        {
                            "bound": "LOWER",
                            "q_lo": 0.98,
                            "q_hi": 1.0,
                            "y_target":
                            [
                                0, 0.5,
                                1000, 0.5
                            ]
                        },
                        {
                            "bound": "UPPER",
                            "q_lo": 0.98,
                            "q_hi": 1.0,
                            "y_target":
                            [
                                0, 0.8,
                                1000, 0.8
                            ]
                        }
                    ]
                },
                "y_target":
                [
                    0, 0.16,
                    1000, 0.165,
                    10000, 0.17
                ]
            }
        },
        {
            "rpi.alsc":
            {
                "omega": 1.3,
                "n_iter": 100,
                "luminance_strength": 0.5,
                "calibrations_Cr": [
                    {
                        "ct": 3000,
                        "table":
                        [
                            1.527, 1.524, 1.521, 1.515, 1.509, 1.502, 1.494, 1.486, 1.478, 1.469, 1.458, 1.451, 1.445, 1.442, 1.441, 1.441, 1.441, 1.441, 1.441, 1.442, 1.446, 1.451, 1.46, 1.469, 1.477, 1.484, 1.489, 1.495, 1.499, 1.503, 1.504, 1.504,
                            1.526, 1.522, 1.518, 1.512, 1.505, 1.497, 1.489, 1.481, 1.473, 1.462, 1.451, 1.443, 1.436, 1.432, 1.431, 1.43, 1.43, 1.43, 1.431, 1.434, 1.438, 1.444, 1.454, 1.463, 1.471, 1.479, 1.485, 1.491, 1.496, 1.5, 1.502, 1.504,
                            1.526, 1.521, 1.516, 1.508, 1.501, 1.492, 1.483, 1.475, 1.467, 1.456, 1.444, 1.435, 1.428, 1.423, 1.42, 1.418, 1.418, 1.419, 1.422, 1.425, 1.431, 1.438, 1.447, 1.457, 1.466, 1.474, 1.482, 1.488, 1.493, 1.498, 1.5, 1.503,
                            1.524, 1.519, 1.513, 1.505, 1.496, 1.487, 1.478, 1.469, 1.461, 1.45, 1.437, 1.427, 1.419, 1.413, 1.409, 1.407, 1.407, 1.408, 1.412, 1.417, 1.423, 1.431, 1.441, 1.45, 1.46, 1.469, 1.477, 1.485, 1.49, 1.495, 1.499, 1.502,
                            1.522, 1.516, 1.51, 1.502, 1.493, 1.483, 1.472, 1.462, 1.452, 1.441, 1.429, 1.419, 1.409, 1.402, 1.397, 1.395, 1.395, 1.397, 1.401, 1.406, 1.414, 1.422, 1.433, 1.443, 1.453, 1.462, 1.471, 1.48, 1.486, 1.492, 1.496, 1.5,
                            1.519, 1.513, 1.508, 1.499, 1.489, 1.478, 1.467, 1.455, 1.443, 1.432, 1.421, 1.41, 1.399, 1.391, 1.386, 1.383, 1.383, 1.386, 1.39, 1.396, 1.405, 1.414, 1.425, 1.436, 1.446, 1.456, 1.466, 1.475, 1.483, 1.49, 1.493, 1.497,
                            1.516, 1.511, 1.505, 1.495, 1.485, 1.473, 1.461, 1.448, 1.435, 1.423, 1.412, 1.401, 1.389, 1.381, 1.375, 1.372, 1.372, 1.374, 1.379, 1.386, 1.396, 1.406, 1.418, 1.429, 1.439, 1.449, 1.46, 1.47, 1.479, 1.487, 1.491, 1.494,
                            1.515, 1.508, 1.502, 1.491, 1.48, 1.467, 1.454, 1.441, 1.427, 1.415, 1.404, 1.392, 1.38, 1.371, 1.364, 1.361, 1.361, 1.363, 1.369, 1.377, 1.388, 1.398, 1.409, 1.42, 1.431, 1.443, 1.454, 1.465, 1.475, 1.484, 1.488, 1.492,
                            1.513, 1.505, 1.498, 1.487, 1.475, 1.461, 1.448, 1.434, 1.419, 1.407, 1.396, 1.383, 1.37, 1.361, 1.353, 1.349, 1.349, 1.352, 1.359, 1.367, 1.379, 1.391, 1.401, 1.412, 1.424, 1.436, 1.448, 1.46, 1.471, 1.481, 1.485, 1.49,
                            1.511, 1.503, 1.495, 1.483, 1.47, 1.456, 1.442, 1.427, 1.412, 1.399, 1.387, 1.375, 1.362, 1.352, 1.344, 1.34, 1.34, 1.343, 1.35, 1.36, 1.371, 1.383, 1.393, 1.405, 1.418, 1.431, 1.443, 1.455, 1.467, 1.478, 1.483, 1.488,
                            1.51, 1.501, 1.492, 1.479, 1.466, 1.451, 1.436, 1.421, 1.406, 1.392, 1.378, 1.366, 1.355, 1.346, 1.336, 1.332, 1.332, 1.335, 1.344, 1.353, 1.363, 1.374, 1.385, 1.398, 1.412, 1.425, 1.439, 1.452, 1.463, 1.475, 1.481, 1.486,
                            1.508, 1.499, 1.489, 1.475, 1.461, 1.446, 1.43, 1.414, 1.399, 1.384, 1.369, 1.358, 1.348, 1.339, 1.329, 1.324, 1.323, 1.328, 1.338, 1.347, 1.355, 1.365, 1.378, 1.391, 1.406, 1.42, 1.434, 1.448, 1.46, 1.472, 1.478, 1.484,
                            1.508, 1.497, 1.487, 1.473, 1.459, 1.443, 1.426, 1.41, 1.394, 1.379, 1.363, 1.351, 1.342, 1.333, 1.325, 1.321, 1.32, 1.324, 1.332, 1.34, 1.349, 1.359, 1.372, 1.386, 1.401, 1.416, 1.43, 1.445, 1.457, 1.47, 1.477, 1.484,
                            1.507, 1.496, 1.485, 1.471, 1.457, 1.441, 1.424, 1.407, 1.391, 1.375, 1.359, 1.346, 1.335, 1.327, 1.322, 1.319, 1.319, 1.321, 1.326, 1.333, 1.343, 1.354, 1.368, 1.382, 1.397, 1.412, 1.427, 1.442, 1.455, 1.468, 1.476, 1.483,
                            1.507, 1.495, 1.483, 1.469, 1.455, 1.439, 1.422, 1.404, 1.387, 1.371, 1.355, 1.341, 1.328, 1.321, 1.319, 1.318, 1.318, 1.319, 1.321, 1.326, 1.338, 1.35, 1.363, 1.378, 1.393, 1.408, 1.424, 1.439, 1.453, 1.466, 1.474, 1.483,
                            1.507, 1.495, 1.483, 1.469, 1.455, 1.438, 1.421, 1.404, 1.387, 1.37, 1.354, 1.34, 1.327, 1.32, 1.318, 1.316, 1.316, 1.317, 1.32, 1.326, 1.337, 1.35, 1.363, 1.377, 1.393, 1.408, 1.424, 1.439, 1.452, 1.466, 1.474, 1.483,
                            1.507, 1.495, 1.483, 1.469, 1.455, 1.438, 1.421, 1.404, 1.387, 1.37, 1.354, 1.34, 1.327, 1.32, 1.316, 1.315, 1.315, 1.316, 1.319, 1.326, 1.337, 1.35, 1.363, 1.377, 1.393, 1.408, 1.424, 1.439, 1.452, 1.466, 1.474, 1.483,
                            1.507, 1.495, 1.483, 1.469, 1.455, 1.438, 1.422, 1.404, 1.387, 1.37, 1.355, 1.341, 1.328, 1.32, 1.315, 1.313, 1.313, 1.315, 1.319, 1.326, 1.338, 1.35, 1.363, 1.377, 1.393, 1.408, 1.424, 1.439, 1.452, 1.466, 1.474, 1.483,
                            1.507, 1.495, 1.484, 1.47, 1.456, 1.439, 1.423, 1.406, 1.389, 1.372, 1.357, 1.343, 1.331, 1.323, 1.318, 1.316, 1.316, 1.318, 1.323, 1.33, 1.34, 1.352, 1.366, 1.38, 1.395, 1.41, 1.425, 1.44, 1.453, 1.466, 1.475, 1.483,
                            1.507, 1.496, 1.485, 1.471, 1.456, 1.44, 1.424, 1.407, 1.39, 1.374, 1.359, 1.346, 1.335, 1.326, 1.32, 1.318, 1.319, 1.321, 1.327, 1.334, 1.343, 1.354, 1.368, 1.383, 1.398, 1.412, 1.427, 1.442, 1.455, 1.467, 1.475, 1.483,
                            1.507, 1.497, 1.486, 1.472, 1.458, 1.442, 1.426, 1.41, 1.393, 1.377, 1.362, 1.35, 1.339, 1.331, 1.324, 1.321, 1.322, 1.325, 1.331, 1.338, 1.347, 1.357, 1.372, 1.386, 1.4, 1.415, 1.429, 1.443, 1.456, 1.468, 1.475, 1.483,
                            1.507, 1.497, 1.487, 1.474, 1.46, 1.445, 1.43, 1.414, 1.398, 1.382, 1.368, 1.356, 1.347, 1.338, 1.329, 1.326, 1.326, 1.33, 1.337, 1.345, 1.353, 1.364, 1.377, 1.39, 1.405, 1.419, 1.432, 1.446, 1.458, 1.469, 1.476, 1.483,
                            1.508, 1.498, 1.489, 1.476, 1.463, 1.448, 1.433, 1.418, 1.402, 1.388, 1.373, 1.363, 1.354, 1.345, 1.335, 1.33, 1.331, 1.334, 1.343, 1.351, 1.36, 1.37, 1.382, 1.394, 1.409, 1.422, 1.435, 1.448, 1.46, 1.471, 1.477, 1.484,
                            1.508, 1.499, 1.49, 1.478, 1.466, 1.452, 1.437, 1.422, 1.407, 1.394, 1.381, 1.37, 1.361, 1.352, 1.342, 1.338, 1.338, 1.341, 1.349, 1.358, 1.367, 1.377, 1.388, 1.4, 1.413, 1.427, 1.439, 1.451, 1.462, 1.472, 1.478, 1.484,
                            1.51, 1.501, 1.492, 1.481, 1.469, 1.455, 1.441, 1.427, 1.413, 1.4, 1.389, 1.378, 1.368, 1.359, 1.351, 1.347, 1.347, 1.35, 1.357, 1.364, 1.375, 1.385, 1.395, 1.406, 1.419, 1.432, 1.443, 1.455, 1.465, 1.474, 1.48, 1.486,
                            1.511, 1.502, 1.494, 1.483, 1.472, 1.459, 1.445, 1.431, 1.418, 1.407, 1.398, 1.387, 1.375, 1.366, 1.36, 1.357, 1.357, 1.359, 1.364, 1.371, 1.382, 1.393, 1.402, 1.412, 1.424, 1.436, 1.447, 1.458, 1.467, 1.477, 1.482, 1.487,
                            1.511, 1.503, 1.495, 1.485, 1.475, 1.462, 1.449, 1.436, 1.424, 1.414, 1.405, 1.394, 1.383, 1.375, 1.37, 1.368, 1.368, 1.369, 1.373, 1.38, 1.39, 1.4, 1.409, 1.418, 1.43, 1.441, 1.451, 1.461, 1.469, 1.478, 1.482, 1.487,
                            1.511, 1.503, 1.496, 1.486, 1.477, 1.465, 1.453, 1.442, 1.431, 1.421, 1.412, 1.402, 1.392, 1.385, 1.381, 1.378, 1.378, 1.38, 1.383, 1.389, 1.398, 1.406, 1.415, 1.424, 1.436, 1.446, 1.455, 1.464, 1.471, 1.478, 1.483, 1.487,
                            1.511, 1.504, 1.496, 1.488, 1.479, 1.468, 1.457, 1.447, 1.437, 1.428, 1.418, 1.409, 1.401, 1.395, 1.391, 1.389, 1.389, 1.39, 1.393, 1.398, 1.405, 1.413, 1.421, 1.431, 1.441, 1.452, 1.459, 1.466, 1.473, 1.479, 1.483, 1.487,
                            1.511, 1.504, 1.496, 1.488, 1.479, 1.469, 1.459, 1.45, 1.442, 1.433, 1.424, 1.416, 1.408, 1.403, 1.4, 1.399, 1.399, 1.4, 1.402, 1.406, 1.412, 1.419, 1.427, 1.436, 1.446, 1.455, 1.462, 1.468, 1.474, 1.48, 1.484, 1.487,
                            1.511, 1.503, 1.496, 1.488, 1.479, 1.47, 1.461, 1.453, 1.446, 1.438, 1.429, 1.422, 1.415, 1.411, 1.41, 1.409, 1.409, 1.41, 1.411, 1.413, 1.419, 1.425, 1.433, 1.441, 1.45, 1.457, 1.464, 1.47, 1.476, 1.481, 1.484, 1.487,
                            1.511, 1.503, 1.496, 1.487, 1.479, 1.471, 1.464, 1.457, 1.45, 1.442, 1.435, 1.428, 1.422, 1.419, 1.419, 1.419, 1.419, 1.419, 1.419, 1.421, 1.426, 1.432, 1.439, 1.447, 1.454, 1.46, 1.466, 1.472, 1.477, 1.482, 1.485, 1.487
                        ]
                    },
                    {
                        "ct": 6000,
                        "table":
                        [
                            2.581, 2.577, 2.573, 2.566, 2.559, 2.55, 2.541, 2.529, 2.517, 2.504, 2.491, 2.482, 2.476, 2.472, 2.471, 2.471, 2.471, 2.471, 2.471, 2.473, 2.476, 2.482, 2.492, 2.501, 2.51, 2.518, 2.526, 2.533, 2.538, 2.543, 2.544, 2.544,
                            2.579, 2.574, 2.568, 2.56, 2.552, 2.543, 2.534, 2.522, 2.509, 2.496, 2.481, 2.471, 2.463, 2.458, 2.455, 2.453, 2.453, 2.454, 2.455, 2.458, 2.464, 2.472, 2.483, 2.494, 2.503, 2.512, 2.52, 2.528, 2.534, 2.54, 2.542, 2.544,
                            2.577, 2.57, 2.564, 2.555, 2.546, 2.537, 2.528, 2.515, 2.501, 2.487, 2.471, 2.46, 2.45, 2.443, 2.438, 2.436, 2.436, 2.437, 2.44, 2.444, 2.452, 2.462, 2.474, 2.486, 2.496, 2.506, 2.515, 2.524, 2.53, 2.537, 2.54, 2.543,
                            2.574, 2.566, 2.559, 2.549, 2.539, 2.53, 2.521, 2.507, 2.493, 2.477, 2.461, 2.448, 2.437, 2.428, 2.421, 2.418, 2.418, 2.42, 2.424, 2.43, 2.44, 2.451, 2.465, 2.478, 2.489, 2.499, 2.509, 2.519, 2.526, 2.533, 2.538, 2.542,
                            2.569, 2.562, 2.555, 2.544, 2.533, 2.522, 2.511, 2.496, 2.481, 2.465, 2.449, 2.435, 2.422, 2.413, 2.405, 2.402, 2.402, 2.404, 2.409, 2.416, 2.426, 2.438, 2.453, 2.466, 2.479, 2.491, 2.502, 2.512, 2.52, 2.528, 2.533, 2.538,
                            2.564, 2.558, 2.552, 2.539, 2.527, 2.514, 2.5, 2.485, 2.469, 2.453, 2.436, 2.422, 2.408, 2.398, 2.389, 2.385, 2.385, 2.388, 2.393, 2.401, 2.413, 2.425, 2.44, 2.455, 2.469, 2.483, 2.494, 2.505, 2.514, 2.523, 2.529, 2.534,
                            2.56, 2.553, 2.547, 2.534, 2.52, 2.505, 2.49, 2.474, 2.457, 2.441, 2.424, 2.409, 2.393, 2.382, 2.373, 2.369, 2.369, 2.371, 2.378, 2.386, 2.399, 2.412, 2.428, 2.444, 2.459, 2.473, 2.486, 2.497, 2.508, 2.518, 2.524, 2.53,
                            2.557, 2.549, 2.541, 2.527, 2.512, 2.495, 2.479, 2.462, 2.445, 2.429, 2.413, 2.396, 2.379, 2.366, 2.356, 2.351, 2.351, 2.354, 2.362, 2.372, 2.385, 2.399, 2.416, 2.433, 2.448, 2.463, 2.476, 2.489, 2.501, 2.513, 2.519, 2.526,
                            2.553, 2.544, 2.535, 2.519, 2.504, 2.486, 2.468, 2.45, 2.433, 2.417, 2.401, 2.383, 2.364, 2.349, 2.338, 2.333, 2.333, 2.337, 2.346, 2.357, 2.371, 2.386, 2.404, 2.421, 2.437, 2.452, 2.467, 2.481, 2.495, 2.508, 2.514, 2.521,
                            2.55, 2.54, 2.529, 2.513, 2.497, 2.478, 2.458, 2.44, 2.422, 2.405, 2.388, 2.37, 2.352, 2.336, 2.323, 2.317, 2.317, 2.322, 2.332, 2.344, 2.358, 2.374, 2.392, 2.409, 2.426, 2.442, 2.458, 2.474, 2.489, 2.502, 2.509, 2.516,
                            2.547, 2.536, 2.525, 2.507, 2.49, 2.47, 2.45, 2.43, 2.411, 2.393, 2.374, 2.357, 2.342, 2.326, 2.31, 2.303, 2.302, 2.308, 2.32, 2.333, 2.348, 2.363, 2.379, 2.396, 2.414, 2.433, 2.45, 2.468, 2.482, 2.497, 2.504, 2.512,
                            2.544, 2.532, 2.52, 2.502, 2.483, 2.463, 2.442, 2.421, 2.4, 2.38, 2.36, 2.344, 2.332, 2.316, 2.297, 2.288, 2.288, 2.294, 2.308, 2.322, 2.337, 2.352, 2.367, 2.383, 2.403, 2.423, 2.442, 2.461, 2.476, 2.491, 2.499, 2.507,
                            2.542, 2.53, 2.517, 2.498, 2.479, 2.458, 2.436, 2.414, 2.393, 2.371, 2.35, 2.334, 2.319, 2.305, 2.29, 2.283, 2.282, 2.287, 2.298, 2.311, 2.326, 2.341, 2.358, 2.375, 2.396, 2.417, 2.436, 2.456, 2.472, 2.487, 2.496, 2.505,
                            2.542, 2.528, 2.515, 2.495, 2.476, 2.453, 2.431, 2.408, 2.386, 2.364, 2.342, 2.323, 2.306, 2.294, 2.284, 2.28, 2.28, 2.284, 2.291, 2.3, 2.315, 2.331, 2.35, 2.369, 2.39, 2.411, 2.431, 2.451, 2.467, 2.484, 2.494, 2.505,
                            2.541, 2.527, 2.512, 2.492, 2.472, 2.449, 2.426, 2.403, 2.379, 2.356, 2.334, 2.313, 2.293, 2.283, 2.279, 2.278, 2.279, 2.28, 2.283, 2.29, 2.304, 2.321, 2.342, 2.363, 2.384, 2.406, 2.426, 2.446, 2.463, 2.48, 2.492, 2.504,
                            2.541, 2.526, 2.512, 2.492, 2.472, 2.449, 2.426, 2.402, 2.378, 2.356, 2.333, 2.312, 2.292, 2.281, 2.276, 2.274, 2.275, 2.277, 2.28, 2.288, 2.303, 2.32, 2.341, 2.363, 2.384, 2.405, 2.425, 2.445, 2.463, 2.48, 2.492, 2.504,
