src/ipa/rpi/pisp/data/ov5647_noir.json
{
    "version": 2.0,
    "target": "pisp",
    "algorithms": [
        {
            "rpi.black_level":
            {
                "black_level": 1024
            }
        },
        {
            "rpi.lux":
            {
                "reference_shutter_speed": 29381,
                "reference_gain": 1.0,
                "reference_aperture": 1.0,
                "reference_lux": 870,
                "reference_Y": 12388
            }
        },
        {
            "rpi.dpc":
            {
                "strength": 1
            }
        },
        {
            "rpi.noise":
            {
                "reference_constant": 0,
                "reference_slope": 4.371
            }
        },
        {
            "rpi.geq":
            {
                "offset": 280,
                "slope": 0.02153
            }
        },
        {
            "rpi.denoise":
            {
                "normal":
                {
                    "sdn":
                    {
                        "deviation": 1.6,
                        "strength": 0.5,
                        "deviation2": 3.2,
                        "deviation_no_tdn": 3.2,
                        "strength_no_tdn": 0.75
                    },
                    "cdn":
                    {
                        "deviation": 200,
                        "strength": 0.3
                    },
                    "tdn":
                    {
                        "deviation": 0.8,
                        "threshold": 0.05
                    }
                },
                "hdr":
                {
                    "sdn":
                    {
                        "deviation": 1.6,
                        "strength": 0.5,
                        "deviation2": 3.2,
                        "deviation_no_tdn": 3.2,
                        "strength_no_tdn": 0.75
                    },
                    "cdn":
                    {
                        "deviation": 200,
                        "strength": 0.3
                    },
                    "tdn":
                    {
                        "deviation": 1.3,
                        "threshold": 0.1
                    }
                },
                "night":
                {
                    "sdn":
                    {
                        "deviation": 1.6,
                        "strength": 0.5,
                        "deviation2": 3.2,
                        "deviation_no_tdn": 3.2,
                        "strength_no_tdn": 0.75
                    },
                    "cdn":
                    {
                        "deviation": 200,
                        "strength": 0.3
                    },
                    "tdn":
                    {
                        "deviation": 1.3,
                        "threshold": 0.1
                    }
                }
            }
        },
        {
            "rpi.awb":
            {
                "bayes": 0
            }
        },
        {
            "rpi.agc":
            {
                "channels": [
                    {
                        "comment": "Channel 0 is normal AGC",
                        "metering_modes":
                        {
                            "centre-weighted":
                            {
                                "weights":
                                [
                                    0, 0, 1, 1, 1, 1, 1, 1, 1, 1, 1, 1, 1, 0, 0,
                                    0, 1, 1, 1, 1, 1, 2, 2, 2, 1, 1, 1, 1, 1, 0,
                                    1, 1, 1, 1, 2, 2, 2, 2, 2, 2, 2, 1, 1, 1, 1,
                                    1, 1, 2, 2, 2, 2, 2, 2, 2, 2, 2, 2, 2, 1, 1,
                                    1, 1, 2, 2, 2, 2, 3, 3, 3, 2, 2, 2, 2, 1, 1,
                                    1, 1, 2, 2, 2, 3, 3, 3, 3, 3, 2, 2, 2, 1, 1,
                                    1, 1, 2, 2, 3, 3, 3, 4, 3, 3, 3, 2, 2, 1, 1,
                                    1, 1, 2, 2, 3, 3, 4, 4, 4, 3, 3, 2, 2, 1, 1,
                                    1, 1, 2, 2, 3, 3, 3, 4, 3, 3, 3, 2, 2, 1, 1,
                                    1, 1, 2, 2, 2, 3, 3, 3, 3, 3, 2, 2, 2, 1, 1,
                                    1, 1, 2, 2, 2, 2, 3, 3, 3, 2, 2, 2, 2, 1, 1,
                                    1, 1, 2, 2, 2, 2, 2, 2, 2, 2, 2, 2, 2, 1, 1,
                                    1, 1, 1, 1, 2, 2, 2, 2, 2, 2, 2, 1, 1, 1, 1,
                                    0, 1, 1, 1, 1, 1, 2, 2, 2, 1, 1, 1, 1, 1, 0,
                                    0, 0, 1, 1, 1, 1, 1, 1, 1, 1, 1, 1, 1, 0, 0
                                ]
                            },
                            "spot":
                            {
                                "weights":
                                [
                                    0, 0, 0, 0, 0, 0, 0, 0, 0, 0, 0, 0, 0, 0, 0,
                                    0, 0, 0, 0, 0, 0, 0, 0, 0, 0, 0, 0, 0, 0, 0,
                                    0, 0, 0, 0, 0, 0, 0, 0, 0, 0, 0, 0, 0, 0, 0,
                                    0, 0, 0, 0, 0, 0, 0, 0, 0, 0, 0, 0, 0, 0, 0,
                                    0, 0, 0, 0, 0, 0, 0, 0, 0, 0, 0, 0, 0, 0, 0,
                                    0, 0, 0, 0, 0, 0, 0, 1, 0, 0, 0, 0, 0, 0, 0,
                                    0, 0, 0, 0, 0, 0, 1, 2, 1, 0, 0, 0, 0, 0, 0,
                                    0, 0, 0, 0, 0, 1, 2, 3, 2, 1, 0, 0, 0, 0, 0,
                                    0, 0, 0, 0, 0, 0, 1, 2, 1, 0, 0, 0, 0, 0, 0,
                                    0, 0, 0, 0, 0, 0, 0, 1, 0, 0, 0, 0, 0, 0, 0,
                                    0, 0, 0, 0, 0, 0, 0, 0, 0, 0, 0, 0, 0, 0, 0,
                                    0, 0, 0, 0, 0, 0, 0, 0, 0, 0, 0, 0, 0, 0, 0,
                                    0, 0, 0, 0, 0, 0, 0, 0, 0, 0, 0, 0, 0, 0, 0,
                                    0, 0, 0, 0, 0, 0, 0, 0, 0, 0, 0, 0, 0, 0, 0,
                                    0, 0, 0, 0, 0, 0, 0, 0, 0, 0, 0, 0, 0, 0, 0
                                ]
                            },
                            "matrix":
                            {
                                "weights":
                                [
                                    1, 1, 1, 1, 1, 1, 1, 1, 1, 1, 1, 1, 1, 1, 1,
                                    1, 1, 1, 1, 1, 1, 1, 1, 1, 1, 1, 1, 1, 1, 1,
                                    1, 1, 1, 1, 1, 1, 1, 1, 1, 1, 1, 1, 1, 1, 1,
                                    1, 1, 1, 1, 1, 1, 1, 1, 1, 1, 1, 1, 1, 1, 1,
                                    1, 1, 1, 1, 1, 1, 1, 1, 1, 1, 1, 1, 1, 1, 1,
                                    1, 1, 1, 1, 1, 1, 1, 1, 1, 1, 1, 1, 1, 1, 1,
                                    1, 1, 1, 1, 1, 1, 1, 1, 1, 1, 1, 1, 1, 1, 1,
                                    1, 1, 1, 1, 1, 1, 1, 1, 1, 1, 1, 1, 1, 1, 1,
                                    1, 1, 1, 1, 1, 1, 1, 1, 1, 1, 1, 1, 1, 1, 1,
                                    1, 1, 1, 1, 1, 1, 1, 1, 1, 1, 1, 1, 1, 1, 1,
                                    1, 1, 1, 1, 1, 1, 1, 1, 1, 1, 1, 1, 1, 1, 1,
                                    1, 1, 1, 1, 1, 1, 1, 1, 1, 1, 1, 1, 1, 1, 1,
                                    1, 1, 1, 1, 1, 1, 1, 1, 1, 1, 1, 1, 1, 1, 1,
                                    1, 1, 1, 1, 1, 1, 1, 1, 1, 1, 1, 1, 1, 1, 1,
                                    1, 1, 1, 1, 1, 1, 1, 1, 1, 1, 1, 1, 1, 1, 1
                                ]
                            }
                        },
                        "exposure_modes":
                        {
                            "normal":
                            {
                                "shutter": [ 100, 10000, 30000, 60000, 66666 ],
                                "gain": [ 1.0, 1.5, 2.0, 4.0, 8.0 ]
                            },
                            "short":
                            {
                                "shutter": [ 100, 5000, 10000, 20000, 60000 ],
                                "gain": [ 1.0, 1.5, 2.0, 4.0, 8.0 ]
                            },
                            "long":
                            {
                                "shutter": [ 100, 10000, 30000, 60000, 90000, 120000 ],
                                "gain": [ 1.0, 1.5, 2.0, 4.0, 8.0, 12.0 ]
                            }
                        },
                        "constraint_modes":
                        {
                            "normal": [
                                {
                                    "bound": "LOWER",
                                    "q_lo": 0.98,
                                    "q_hi": 1.0,
                                    "y_target":
                                    [
                                        0, 0.5,
                                        1000, 0.5
                                    ]
                                }
                            ],
                            "highlight": [
                                {
                                    "bound": "LOWER",
                                    "q_lo": 0.98,
                                    "q_hi": 1.0,
                                    "y_target":
                                    [
                                        0, 0.5,
                                        1000, 0.5
                                    ]
                                },
                                {
                                    "bound": "UPPER",
                                    "q_lo": 0.98,
                                    "q_hi": 1.0,
                                    "y_target":
                                    [
                                        0, 0.8,
                                        1000, 0.8
                                    ]
                                }
                            ],
                            "shadows": [
                                {
                                    "bound": "LOWER",
                                    "q_lo": 0.0,
                                    "q_hi": 0.5,
                                    "y_target":
                                    [
                                        0, 0.17,
                                        1000, 0.17
                                    ]
                                }
                            ]
                        },
                        "y_target":
                        [
                            0, 0.16,
                            1000, 0.165,
                            10000, 0.17
                        ]
                    },
                    {
                        "comment": "Channel 1 is the HDR short channel",
                        "desaturate": 0,
                        "metering_modes":
                        {
                            "centre-weighted":
                            {
                                "weights":
                                [
                                    0, 0, 1, 1, 1, 1, 1, 1, 1, 1, 1, 1, 1, 0, 0,
                                    0, 1, 1, 1, 1, 1, 2, 2, 2, 1, 1, 1, 1, 1, 0,
                                    1, 1, 1, 1, 2, 2, 2, 2, 2, 2, 2, 1, 1, 1, 1,
                                    1, 1, 2, 2, 2, 2, 2, 2, 2, 2, 2, 2, 2, 1, 1,
                                    1, 1, 2, 2, 2, 2, 3, 3, 3, 2, 2, 2, 2, 1, 1,
                                    1, 1, 2, 2, 2, 3, 3, 3, 3, 3, 2, 2, 2, 1, 1,
                                    1, 1, 2, 2, 3, 3, 3, 4, 3, 3, 3, 2, 2, 1, 1,
                                    1, 1, 2, 2, 3, 3, 4, 4, 4, 3, 3, 2, 2, 1, 1,
                                    1, 1, 2, 2, 3, 3, 3, 4, 3, 3, 3, 2, 2, 1, 1,
                                    1, 1, 2, 2, 2, 3, 3, 3, 3, 3, 2, 2, 2, 1, 1,
                                    1, 1, 2, 2, 2, 2, 3, 3, 3, 2, 2, 2, 2, 1, 1,
                                    1, 1, 2, 2, 2, 2, 2, 2, 2, 2, 2, 2, 2, 1, 1,
                                    1, 1, 1, 1, 2, 2, 2, 2, 2, 2, 2, 1, 1, 1, 1,
                                    0, 1, 1, 1, 1, 1, 2, 2, 2, 1, 1, 1, 1, 1, 0,
                                    0, 0, 1, 1, 1, 1, 1, 1, 1, 1, 1, 1, 1, 0, 0
                                ]
                            },
                            "spot":
                            {
                                "weights":
                                [
                                    0, 0, 0, 0, 0, 0, 0, 0, 0, 0, 0, 0, 0, 0, 0,
                                    0, 0, 0, 0, 0, 0, 0, 0, 0, 0, 0, 0, 0, 0, 0,
                                    0, 0, 0, 0, 0, 0, 0, 0, 0, 0, 0, 0, 0, 0, 0,
                                    0, 0, 0, 0, 0, 0, 0, 0, 0, 0, 0, 0, 0, 0, 0,
                                    0, 0, 0, 0, 0, 0, 0, 0, 0, 0, 0, 0, 0, 0, 0,
                                    0, 0, 0, 0, 0, 0, 0, 1, 0, 0, 0, 0, 0, 0, 0,
                                    0, 0, 0, 0, 0, 0, 1, 2, 1, 0, 0, 0, 0, 0, 0,
                                    0, 0, 0, 0, 0, 1, 2, 3, 2, 1, 0, 0, 0, 0, 0,
                                    0, 0, 0, 0, 0, 0, 1, 2, 1, 0, 0, 0, 0, 0, 0,
                                    0, 0, 0, 0, 0, 0, 0, 1, 0, 0, 0, 0, 0, 0, 0,
                                    0, 0, 0, 0, 0, 0, 0, 0, 0, 0, 0, 0, 0, 0, 0,
                                    0, 0, 0, 0, 0, 0, 0, 0, 0, 0, 0, 0, 0, 0, 0,
                                    0, 0, 0, 0, 0, 0, 0, 0, 0, 0, 0, 0, 0, 0, 0,
                                    0, 0, 0, 0, 0, 0, 0, 0, 0, 0, 0, 0, 0, 0, 0,
                                    0, 0, 0, 0, 0, 0, 0, 0, 0, 0, 0, 0, 0, 0, 0
                                ]
                            },
                            "matrix":
                            {
                                "weights":
                                [
                                    1, 1, 1, 1, 1, 1, 1, 1, 1, 1, 1, 1, 1, 1, 1,
                                    1, 1, 1, 1, 1, 1, 1, 1, 1, 1, 1, 1, 1, 1, 1,
                                    1, 1, 1, 1, 1, 1, 1, 1, 1, 1, 1, 1, 1, 1, 1,
                                    1, 1, 1, 1, 1, 1, 1, 1, 1, 1, 1, 1, 1, 1, 1,
                                    1, 1, 1, 1, 1, 1, 1, 1, 1, 1, 1, 1, 1, 1, 1,
                                    1, 1, 1, 1, 1, 1, 1, 1, 1, 1, 1, 1, 1, 1, 1,
                                    1, 1, 1, 1, 1, 1, 1, 1, 1, 1, 1, 1, 1, 1, 1,
                                    1, 1, 1, 1, 1, 1, 1, 1, 1, 1, 1, 1, 1, 1, 1,
                                    1, 1, 1, 1, 1, 1, 1, 1, 1, 1, 1, 1, 1, 1, 1,
                                    1, 1, 1, 1, 1, 1, 1, 1, 1, 1, 1, 1, 1, 1, 1,
                                    1, 1, 1, 1, 1, 1, 1, 1, 1, 1, 1, 1, 1, 1, 1,
                                    1, 1, 1, 1, 1, 1, 1, 1, 1, 1, 1, 1, 1, 1, 1,
                                    1, 1, 1, 1, 1, 1, 1, 1, 1, 1, 1, 1, 1, 1, 1,
                                    1, 1, 1, 1, 1, 1, 1, 1, 1, 1, 1, 1, 1, 1, 1,
                                    1, 1, 1, 1, 1, 1, 1, 1, 1, 1, 1, 1, 1, 1, 1
                                ]
                            }
                        },
                        "exposure_modes":
                        {
                            "normal":
                            {
                                "shutter": [ 100, 15000, 30000 ],
                                "gain": [ 1.0, 1.0, 2.0 ]
                            },
                            "short":
                            {
                                "shutter": [ 100, 15000, 30000 ],
                                "gain": [ 1.0, 2.0, 2.0 ]
                            },
                            "long":
                            {
                                "shutter": [ 100, 15000, 60000 ],
                                "gain": [ 1.0, 1.0, 1.0 ]
                            }
                        },
                        "constraint_modes":
                        {
                            "normal": [
                                {
                                    "bound": "LOWER",
                                    "q_lo": 0.0,
                                    "q_hi": 0.2,
                                    "y_target":
                                    [
                                        0, 0.02,
                                        1000, 0.02
                                    ]
                                },
                                {
                                    "bound": "UPPER",
                                    "q_lo": 0.98,
                                    "q_hi": 1.0,
                                    "y_target":
                                    [
                                        0, 0.7,
                                        1000, 0.7
                                    ]
                                },
                                {
                                    "bound": "LOWER",
                                    "q_lo": 0.0,
                                    "q_hi": 0.2,
                                    "y_target":
                                    [
                                        0, 0.01,
                                        1000, 0.01
                                    ]
                                },
                                {
                                    "bound": "UPPER",
                                    "q_lo": 0.9,
                                    "q_hi": 1.0,
                                    "y_target":
                                    [
                                        0, 0.7,
                                        1000, 0.7
                                    ]
                                },
                                {
                                    "bound": "LOWER",
                                    "q_lo": 0.0,
                                    "q_hi": 0.2,
                                    "y_target":
                                    [
                                        0, 0.005,
                                        1000, 0.005
                                    ]
                                }
                            ],
                            "highlight": [
                                {
                                    "bound": "LOWER",
                                    "q_lo": 0.95,
                                    "q_hi": 1.0,
                                    "y_target":
                                    [
                                        0, 0.5,
                                        1000, 0.5
                                    ]
                                },
                                {
                                    "bound": "UPPER",
                                    "q_lo": 0.95,
                                    "q_hi": 1.0,
                                    "y_target":
                                    [
                                        0, 0.7,
                                        1000, 0.7
                                    ]
                                },
                                {
                                    "bound": "LOWER",
                                    "q_lo": 0.0,
                                    "q_hi": 0.2,
                                    "y_target":
                                    [
                                        0, 0.002,
                                        1000, 0.002
                                    ]
                                }
                            ],
                            "shadows": [
                                {
                                    "bound": "LOWER",
                                    "q_lo": 0.95,
                                    "q_hi": 1.0,
                                    "y_target":
                                    [
                                        0, 0.5,
                                        1000, 0.5
                                    ]
                                },
                                {
                                    "bound": "UPPER",
                                    "q_lo": 0.95,
                                    "q_hi": 1.0,
                                    "y_target":
                                    [
                                        0, 0.7,
                                        1000, 0.7
                                    ]
                                },
                                {
                                    "bound": "LOWER",
                                    "q_lo": 0.0,
                                    "q_hi": 0.2,
                                    "y_target":
                                    [
                                        0, 0.002,
                                        1000, 0.002
                                    ]
                                }
                            ]
                        },
                        "y_target":
                        [
                            0, 0.19,
                            1000, 0.19,
                            10000, 0.19
                        ]
                    },
                    {
                        "comment": "Channel 2 is the HDR long channel",
                        "desaturate": 0,
                        "metering_modes":
                        {
                            "centre-weighted":
                            {
                                "weights":
                                [
                                    0, 0, 1, 1, 1, 1, 1, 1, 1, 1, 1, 1, 1, 0, 0,
                                    0, 1, 1, 1, 1, 1, 2, 2, 2, 1, 1, 1, 1, 1, 0,
                                    1, 1, 1, 1, 2, 2, 2, 2, 2, 2, 2, 1, 1, 1, 1,
                                    1, 1, 2, 2, 2, 2, 2, 2, 2, 2, 2, 2, 2, 1, 1,
                                    1, 1, 2, 2, 2, 2, 3, 3, 3, 2, 2, 2, 2, 1, 1,
                                    1, 1, 2, 2, 2, 3, 3, 3, 3, 3, 2, 2, 2, 1, 1,
                                    1, 1, 2, 2, 3, 3, 3, 4, 3, 3, 3, 2, 2, 1, 1,
                                    1, 1, 2, 2, 3, 3, 4, 4, 4, 3, 3, 2, 2, 1, 1,
                                    1, 1, 2, 2, 3, 3, 3, 4, 3, 3, 3, 2, 2, 1, 1,
                                    1, 1, 2, 2, 2, 3, 3, 3, 3, 3, 2, 2, 2, 1, 1,
                                    1, 1, 2, 2, 2, 2, 3, 3, 3, 2, 2, 2, 2, 1, 1,
                                    1, 1, 2, 2, 2, 2, 2, 2, 2, 2, 2, 2, 2, 1, 1,
                                    1, 1, 1, 1, 2, 2, 2, 2, 2, 2, 2, 1, 1, 1, 1,
                                    0, 1, 1, 1, 1, 1, 2, 2, 2, 1, 1, 1, 1, 1, 0,
                                    0, 0, 1, 1, 1, 1, 1, 1, 1, 1, 1, 1, 1, 0, 0
                                ]
                            },
                            "spot":
                            {
                                "weights":
                                [
                                    0, 0, 0, 0, 0, 0, 0, 0, 0, 0, 0, 0, 0, 0, 0,
                                    0, 0, 0, 0, 0, 0, 0, 0, 0, 0, 0, 0, 0, 0, 0,
                                    0, 0, 0, 0, 0, 0, 0, 0, 0, 0, 0, 0, 0, 0, 0,
                                    0, 0, 0, 0, 0, 0, 0, 0, 0, 0, 0, 0, 0, 0, 0,
                                    0, 0, 0, 0, 0, 0, 0, 0, 0, 0, 0, 0, 0, 0, 0,
                                    0, 0, 0, 0, 0, 0, 0, 1, 0, 0, 0, 0, 0, 0, 0,
                                    0, 0, 0, 0, 0, 0, 1, 2, 1, 0, 0, 0, 0, 0, 0,
                                    0, 0, 0, 0, 0, 1, 2, 3, 2, 1, 0, 0, 0, 0, 0,
                                    0, 0, 0, 0, 0, 0, 1, 2, 1, 0, 0, 0, 0, 0, 0,
