src/ipa/rpi/pisp/data/se327m12.json
{
    "version": 2.0,
    "target": "pisp",
    "algorithms": [
        {
            "rpi.black_level":
            {
                "black_level": 3840
            }
        },
        {
            "rpi.dpc": { }
        },
        {
            "rpi.lux":
            {
                "reference_shutter_speed": 6873,
                "reference_gain": 1.0,
                "reference_aperture": 1.0,
                "reference_lux": 800,
                "reference_Y": 12293
            }
        },
        {
            "rpi.noise":
            {
                "reference_constant": 0,
                "reference_slope": 1.986
            }
        },
        {
            "rpi.geq":
            {
                "offset": 207,
                "slope": 0.00539
            }
        },
        {
            "rpi.denoise":
            {
                "normal":
                {
                    "sdn":
                    {
                        "deviation": 1.6,
                        "strength": 0.5,
                        "deviation2": 3.2,
                        "deviation_no_tdn": 3.2,
                        "strength_no_tdn": 0.75
                    },
                    "cdn":
                    {
                        "deviation": 200,
                        "strength": 0.3
                    },
                    "tdn":
                    {
                        "deviation": 0.8,
                        "threshold": 0.05
                    }
                },
                "hdr":
                {
                    "sdn":
                    {
                        "deviation": 1.6,
                        "strength": 0.5,
                        "deviation2": 3.2,
                        "deviation_no_tdn": 3.2,
                        "strength_no_tdn": 0.75
                    },
                    "cdn":
                    {
                        "deviation": 200,
                        "strength": 0.3
                    },
                    "tdn":
                    {
                        "deviation": 1.3,
                        "threshold": 0.1
                    }
                },
                "night":
                {
                    "sdn":
                    {
                        "deviation": 1.6,
                        "strength": 0.5,
                        "deviation2": 3.2,
                        "deviation_no_tdn": 3.2,
                        "strength_no_tdn": 0.75
                    },
                    "cdn":
                    {
                        "deviation": 200,
                        "strength": 0.3
                    },
                    "tdn":
                    {
                        "deviation": 1.3,
                        "threshold": 0.1
                    }
                }
            }
        },
        {
            "rpi.awb":
            {
                "priors": [
                    {
                        "lux": 0,
                        "prior":
                        [
                            2000, 1.0,
                            3000, 0.0,
                            13000, 0.0
                        ]
                    },
                    {
                        "lux": 800,
                        "prior":
                        [
                            2000, 0.0,
                            6000, 2.0,
                            13000, 2.0
                        ]
                    },
                    {
                        "lux": 1500,
                        "prior":
                        [
                            2000, 0.0,
                            4000, 1.0,
                            6000, 6.0,
                            6500, 7.0,
                            7000, 1.0,
                            13000, 1.0
                        ]
                    }
                ],
                "modes":
                {
                    "auto":
                    {
                        "lo": 2500,
                        "hi": 8000
                    },
                    "incandescent":
                    {
                        "lo": 2500,
                        "hi": 3000
                    },
                    "tungsten":
                    {
                        "lo": 3000,
                        "hi": 3500
                    },
                    "fluorescent":
                    {
                        "lo": 4000,
                        "hi": 4700
                    },
                    "indoor":
                    {
                        "lo": 3000,
                        "hi": 5000
                    },
                    "daylight":
                    {
                        "lo": 5500,
                        "hi": 6500
                    },
                    "cloudy":
                    {
                        "lo": 7000,
                        "hi": 8600
                    }
                },
                "bayes": 1,
                "ct_curve":
                [
                    2900.0, 0.9217, 0.3657,
                    3600.0, 0.7876, 0.4651,
                    4600.0, 0.6807, 0.5684,
                    5800.0, 0.5937, 0.6724,
                    8100.0, 0.5447, 0.7403
                ],
                "sensitivity_r": 1.0,
                "sensitivity_b": 1.0,
                "transverse_pos": 0.0162,
                "transverse_neg": 0.0204
            }
        },
        {
            "rpi.agc":
            {
                "metering_modes":
                {
                    "centre-weighted":
                    {
                        "weights":
                        [
                            0, 0, 1, 1, 1, 1, 1, 1, 1, 1, 1, 1, 1, 0, 0,
                            0, 1, 1, 1, 1, 1, 2, 2, 2, 1, 1, 1, 1, 1, 0,
                            1, 1, 1, 1, 2, 2, 2, 2, 2, 2, 2, 1, 1, 1, 1,
                            1, 1, 2, 2, 2, 2, 2, 2, 2, 2, 2, 2, 2, 1, 1,
                            1, 1, 2, 2, 2, 2, 3, 3, 3, 2, 2, 2, 2, 1, 1,
                            1, 1, 2, 2, 2, 3, 3, 3, 3, 3, 2, 2, 2, 1, 1,
                            1, 1, 2, 2, 3, 3, 3, 4, 3, 3, 3, 2, 2, 1, 1,
                            1, 1, 2, 2, 3, 3, 4, 4, 4, 3, 3, 2, 2, 1, 1,
                            1, 1, 2, 2, 3, 3, 3, 4, 3, 3, 3, 2, 2, 1, 1,
                            1, 1, 2, 2, 2, 3, 3, 3, 3, 3, 2, 2, 2, 1, 1,
                            1, 1, 2, 2, 2, 2, 3, 3, 3, 2, 2, 2, 2, 1, 1,
                            1, 1, 2, 2, 2, 2, 2, 2, 2, 2, 2, 2, 2, 1, 1,
                            1, 1, 1, 1, 2, 2, 2, 2, 2, 2, 2, 1, 1, 1, 1,
                            0, 1, 1, 1, 1, 1, 2, 2, 2, 1, 1, 1, 1, 1, 0,
                            0, 0, 1, 1, 1, 1, 1, 1, 1, 1, 1, 1, 1, 0, 0
                        ]
                    },
                    "spot":
                    {
                        "weights":
                        [
                            0, 0, 0, 0, 0, 0, 0, 0, 0, 0, 0, 0, 0, 0, 0,
                            0, 0, 0, 0, 0, 0, 0, 0, 0, 0, 0, 0, 0, 0, 0,
                            0, 0, 0, 0, 0, 0, 0, 0, 0, 0, 0, 0, 0, 0, 0,
                            0, 0, 0, 0, 0, 0, 0, 0, 0, 0, 0, 0, 0, 0, 0,
                            0, 0, 0, 0, 0, 0, 0, 0, 0, 0, 0, 0, 0, 0, 0,
                            0, 0, 0, 0, 0, 0, 0, 1, 0, 0, 0, 0, 0, 0, 0,
                            0, 0, 0, 0, 0, 0, 1, 2, 1, 0, 0, 0, 0, 0, 0,
                            0, 0, 0, 0, 0, 1, 2, 3, 2, 1, 0, 0, 0, 0, 0,
                            0, 0, 0, 0, 0, 0, 1, 2, 1, 0, 0, 0, 0, 0, 0,
                            0, 0, 0, 0, 0, 0, 0, 1, 0, 0, 0, 0, 0, 0, 0,
                            0, 0, 0, 0, 0, 0, 0, 0, 0, 0, 0, 0, 0, 0, 0,
                            0, 0, 0, 0, 0, 0, 0, 0, 0, 0, 0, 0, 0, 0, 0,
                            0, 0, 0, 0, 0, 0, 0, 0, 0, 0, 0, 0, 0, 0, 0,
                            0, 0, 0, 0, 0, 0, 0, 0, 0, 0, 0, 0, 0, 0, 0,
                            0, 0, 0, 0, 0, 0, 0, 0, 0, 0, 0, 0, 0, 0, 0
                        ]
                    },
                    "matrix":
                    {
                        "weights":
                        [
                            1, 1, 1, 1, 1, 1, 1, 1, 1, 1, 1, 1, 1, 1, 1,
                            1, 1, 1, 1, 1, 1, 1, 1, 1, 1, 1, 1, 1, 1, 1,
                            1, 1, 1, 1, 1, 1, 1, 1, 1, 1, 1, 1, 1, 1, 1,
                            1, 1, 1, 1, 1, 1, 1, 1, 1, 1, 1, 1, 1, 1, 1,
                            1, 1, 1, 1, 1, 1, 1, 1, 1, 1, 1, 1, 1, 1, 1,
                            1, 1, 1, 1, 1, 1, 1, 1, 1, 1, 1, 1, 1, 1, 1,
                            1, 1, 1, 1, 1, 1, 1, 1, 1, 1, 1, 1, 1, 1, 1,
                            1, 1, 1, 1, 1, 1, 1, 1, 1, 1, 1, 1, 1, 1, 1,
                            1, 1, 1, 1, 1, 1, 1, 1, 1, 1, 1, 1, 1, 1, 1,
                            1, 1, 1, 1, 1, 1, 1, 1, 1, 1, 1, 1, 1, 1, 1,
                            1, 1, 1, 1, 1, 1, 1, 1, 1, 1, 1, 1, 1, 1, 1,
                            1, 1, 1, 1, 1, 1, 1, 1, 1, 1, 1, 1, 1, 1, 1,
                            1, 1, 1, 1, 1, 1, 1, 1, 1, 1, 1, 1, 1, 1, 1,
                            1, 1, 1, 1, 1, 1, 1, 1, 1, 1, 1, 1, 1, 1, 1,
                            1, 1, 1, 1, 1, 1, 1, 1, 1, 1, 1, 1, 1, 1, 1
                        ]
                    }
                },
                "exposure_modes":
                {
                    "normal":
                    {
                        "shutter": [ 100, 10000, 30000, 60000, 120000 ],
                        "gain": [ 1.0, 2.0, 4.0, 6.0, 8.0 ]
                    },
                    "short":
                    {
                        "shutter": [ 100, 5000, 10000, 20000, 120000 ],
                        "gain": [ 1.0, 2.0, 4.0, 6.0, 8.0 ]
                    },
                    "long":
                    {
                        "shutter": [ 1000, 30000, 60000, 90000, 120000 ],
                        "gain": [ 1.0, 2.0, 4.0, 6.0, 12.0 ]
                    }
                },
                "constraint_modes":
                {
                    "normal": [
                        {
                            "bound": "LOWER",
                            "q_lo": 0.98,
                            "q_hi": 1.0,
                            "y_target":
                            [
                                0, 0.5,
                                1000, 0.5
                            ]
                        }
                    ],
                    "highlight": [
                        {
                            "bound": "LOWER",
                            "q_lo": 0.98,
                            "q_hi": 1.0,
                            "y_target":
                            [
                                0, 0.5,
                                1000, 0.5
                            ]
                        },
                        {
                            "bound": "UPPER",
                            "q_lo": 0.98,
                            "q_hi": 1.0,
                            "y_target":
                            [
                                0, 0.8,
                                1000, 0.8
                            ]
                        }
                    ]
                },
                "y_target":
                [
                    0, 0.16,
                    1000, 0.165,
                    10000, 0.17
                ]
            }
        },
        {
            "rpi.alsc":
            {
                "omega": 1.3,
                "n_iter": 100,
                "luminance_strength": 0.5,
                "calibrations_Cr": [
                    {
                        "ct": 4000,
                        "table":
                        [
                            1.481, 1.476, 1.471, 1.461, 1.45, 1.441, 1.431, 1.424, 1.418, 1.412, 1.406, 1.401, 1.396, 1.393, 1.39, 1.389, 1.389, 1.389, 1.389, 1.39, 1.391, 1.393, 1.395, 1.398, 1.401, 1.405, 1.411, 1.417, 1.423, 1.429, 1.433, 1.437,
                            1.478, 1.472, 1.466, 1.456, 1.446, 1.436, 1.427, 1.42, 1.414, 1.408, 1.402, 1.398, 1.394, 1.391, 1.388, 1.387, 1.387, 1.387, 1.387, 1.387, 1.389, 1.391, 1.392, 1.395, 1.399, 1.403, 1.408, 1.414, 1.42, 1.427, 1.43, 1.434,
                            1.475, 1.468, 1.461, 1.451, 1.441, 1.432, 1.423, 1.416, 1.41, 1.404, 1.399, 1.395, 1.392, 1.389, 1.387, 1.385, 1.384, 1.384, 1.384, 1.385, 1.387, 1.388, 1.39, 1.392, 1.396, 1.401, 1.405, 1.411, 1.418, 1.424, 1.428, 1.431,
                            1.472, 1.464, 1.456, 1.446, 1.437, 1.428, 1.419, 1.412, 1.406, 1.401, 1.395, 1.392, 1.39, 1.387, 1.385, 1.383, 1.382, 1.382, 1.382, 1.382, 1.384, 1.386, 1.387, 1.389, 1.394, 1.398, 1.403, 1.407, 1.415, 1.422, 1.425, 1.429,
                            1.469, 1.46, 1.451, 1.442, 1.433, 1.425, 1.417, 1.41, 1.403, 1.398, 1.393, 1.39, 1.388, 1.385, 1.382, 1.381, 1.38, 1.38, 1.38, 1.381, 1.382, 1.384, 1.385, 1.387, 1.391, 1.395, 1.399, 1.404, 1.411, 1.418, 1.422, 1.426,
                            1.467, 1.457, 1.447, 1.438, 1.429, 1.422, 1.414, 1.407, 1.401, 1.396, 1.392, 1.388, 1.385, 1.383, 1.38, 1.378, 1.378, 1.378, 1.378, 1.379, 1.38, 1.381, 1.383, 1.386, 1.388, 1.391, 1.396, 1.401, 1.407, 1.414, 1.419, 1.424,
                            1.465, 1.454, 1.443, 1.435, 1.427, 1.419, 1.412, 1.405, 1.399, 1.394, 1.39, 1.387, 1.384, 1.381, 1.378, 1.377, 1.377, 1.377, 1.377, 1.377, 1.378, 1.379, 1.382, 1.384, 1.386, 1.388, 1.393, 1.398, 1.405, 1.411, 1.416, 1.421,
                            1.464, 1.453, 1.443, 1.434, 1.426, 1.418, 1.411, 1.405, 1.398, 1.393, 1.389, 1.385, 1.382, 1.38, 1.378, 1.376, 1.376, 1.376, 1.376, 1.376, 1.377, 1.378, 1.38, 1.382, 1.384, 1.387, 1.392, 1.397, 1.403, 1.409, 1.415, 1.42,
                            1.462, 1.452, 1.442, 1.433, 1.425, 1.418, 1.411, 1.404, 1.397, 1.392, 1.387, 1.384, 1.381, 1.379, 1.377, 1.376, 1.375, 1.374, 1.374, 1.375, 1.375, 1.376, 1.378, 1.38, 1.383, 1.386, 1.39, 1.395, 1.402, 1.408, 1.413, 1.419,
                            1.462, 1.452, 1.441, 1.432, 1.424, 1.417, 1.41, 1.403, 1.397, 1.391, 1.387, 1.383, 1.38, 1.378, 1.377, 1.375, 1.374, 1.374, 1.374, 1.374, 1.374, 1.375, 1.377, 1.379, 1.381, 1.384, 1.389, 1.394, 1.4, 1.407, 1.412, 1.417,
                            1.461, 1.451, 1.441, 1.432, 1.423, 1.416, 1.409, 1.403, 1.396, 1.391, 1.387, 1.383, 1.381, 1.379, 1.377, 1.375, 1.374, 1.373, 1.373, 1.374, 1.374, 1.374, 1.376, 1.378, 1.38, 1.383, 1.388, 1.392, 1.399, 1.405, 1.411, 1.416,
                            1.461, 1.45, 1.44, 1.431, 1.422, 1.415, 1.409, 1.402, 1.396, 1.391, 1.386, 1.384, 1.382, 1.379, 1.377, 1.375, 1.374, 1.373, 1.373, 1.373, 1.373, 1.374, 1.375, 1.377, 1.379, 1.382, 1.386, 1.39, 1.397, 1.404, 1.41, 1.415,
                            1.461, 1.45, 1.44, 1.431, 1.422, 1.415, 1.408, 1.401, 1.395, 1.39, 1.386, 1.383, 1.381, 1.379, 1.377, 1.375, 1.374, 1.373, 1.373, 1.373, 1.373, 1.374, 1.375, 1.376, 1.379, 1.381, 1.385, 1.39, 1.396, 1.403, 1.409, 1.414,
                            1.461, 1.45, 1.44, 1.43, 1.421, 1.414, 1.407, 1.4, 1.394, 1.39, 1.386, 1.383, 1.381, 1.379, 1.377, 1.375, 1.374, 1.373, 1.373, 1.373, 1.373, 1.374, 1.375, 1.376, 1.378, 1.381, 1.385, 1.39, 1.396, 1.402, 1.408, 1.414,
                            1.461, 1.45, 1.44, 1.43, 1.42, 1.413, 1.406, 1.399, 1.394, 1.389, 1.385, 1.382, 1.38, 1.378, 1.377, 1.375, 1.374, 1.373, 1.372, 1.372, 1.373, 1.374, 1.375, 1.376, 1.378, 1.38, 1.385, 1.39, 1.396, 1.401, 1.407, 1.413,
                            1.461, 1.45, 1.439, 1.43, 1.42, 1.412, 1.405, 1.399, 1.393, 1.388, 1.385, 1.382, 1.379, 1.378, 1.376, 1.375, 1.374, 1.373, 1.372, 1.372, 1.373, 1.374, 1.374, 1.376, 1.378, 1.381, 1.385, 1.389, 1.395, 1.401, 1.407, 1.413,
                            1.461, 1.45, 1.439, 1.43, 1.42, 1.412, 1.404, 1.398, 1.392, 1.388, 1.384, 1.381, 1.379, 1.377, 1.376, 1.375, 1.374, 1.373, 1.372, 1.372, 1.372, 1.373, 1.374, 1.376, 1.378, 1.381, 1.385, 1.389, 1.395, 1.401, 1.408, 1.414,
                            1.461, 1.45, 1.439, 1.429, 1.42, 1.412, 1.404, 1.397, 1.391, 1.387, 1.384, 1.381, 1.378, 1.376, 1.375, 1.374, 1.374, 1.373, 1.372, 1.372, 1.372, 1.373, 1.374, 1.376, 1.379, 1.382, 1.385, 1.389, 1.395, 1.401, 1.408, 1.414,
                            1.461, 1.45, 1.439, 1.429, 1.42, 1.412, 1.404, 1.398, 1.391, 1.387, 1.383, 1.381, 1.378, 1.376, 1.375, 1.374, 1.373, 1.373, 1.373, 1.372, 1.373, 1.373, 1.374, 1.376, 1.379, 1.382, 1.385, 1.389, 1.395, 1.401, 1.408, 1.414,
                            1.462, 1.45, 1.439, 1.429, 1.42, 1.412, 1.404, 1.398, 1.392, 1.387, 1.383, 1.38, 1.378, 1.376, 1.375, 1.374, 1.373, 1.373, 1.373, 1.373, 1.373, 1.374, 1.375, 1.376, 1.379, 1.382, 1.385, 1.39, 1.395, 1.401, 1.408, 1.414,
                            1.462, 1.451, 1.439, 1.43, 1.421, 1.413, 1.405, 1.399, 1.393, 1.388, 1.383, 1.38, 1.378, 1.376, 1.375, 1.374, 1.373, 1.373, 1.373, 1.373, 1.374, 1.374, 1.375, 1.377, 1.379, 1.382, 1.386, 1.39, 1.396, 1.402, 1.408, 1.414,
                            1.462, 1.451, 1.44, 1.431, 1.422, 1.414, 1.406, 1.399, 1.393, 1.388, 1.383, 1.38, 1.378, 1.376, 1.375, 1.374, 1.373, 1.373, 1.373, 1.373, 1.373, 1.374, 1.375, 1.377, 1.379, 1.382, 1.386, 1.391, 1.396, 1.402, 1.408, 1.414,
                            1.462, 1.452, 1.441, 1.432, 1.423, 1.415, 1.406, 1.4, 1.393, 1.389, 1.384, 1.381, 1.378, 1.376, 1.375, 1.374, 1.373, 1.373, 1.372, 1.372, 1.373, 1.374, 1.375, 1.377, 1.38, 1.383, 1.387, 1.391, 1.397, 1.402, 1.408, 1.414,
                            1.462, 1.452, 1.442, 1.433, 1.424, 1.416, 1.407, 1.4, 1.394, 1.389, 1.384, 1.381, 1.378, 1.376, 1.375, 1.373, 1.373, 1.372, 1.372, 1.372, 1.372, 1.373, 1.375, 1.377, 1.38, 1.383, 1.387, 1.391, 1.397, 1.402, 1.408, 1.414,
                            1.464, 1.453, 1.443, 1.434, 1.425, 1.416, 1.408, 1.401, 1.394, 1.389, 1.384, 1.381, 1.378, 1.376, 1.374, 1.373, 1.372, 1.371, 1.371, 1.371, 1.372, 1.373, 1.374, 1.376, 1.379, 1.382, 1.386, 1.391, 1.397, 1.402, 1.409, 1.416,
                            1.465, 1.454, 1.444, 1.435, 1.425, 1.417, 1.408, 1.401, 1.395, 1.389, 1.384, 1.381, 1.379, 1.376, 1.374, 1.372, 1.37, 1.369, 1.369, 1.37, 1.371, 1.373, 1.374, 1.376, 1.379, 1.382, 1.386, 1.39, 1.396, 1.402, 1.41, 1.417,
                            1.466, 1.456, 1.446, 1.436, 1.426, 1.418, 1.41, 1.403, 1.396, 1.39, 1.384, 1.381, 1.379, 1.377, 1.375, 1.372, 1.37, 1.369, 1.369, 1.37, 1.371, 1.373, 1.374, 1.376, 1.379, 1.383, 1.387, 1.391, 1.397, 1.404, 1.411, 1.418,
                            1.467, 1.457, 1.448, 1.437, 1.427, 1.419, 1.412, 1.404, 1.397, 1.391, 1.385, 1.382, 1.38, 1.378, 1.375, 1.373, 1.371, 1.37, 1.37, 1.371, 1.372, 1.373, 1.375, 1.377, 1.381, 1.384, 1.388, 1.392, 1.399, 1.405, 1.413, 1.42,
                            1.469, 1.459, 1.449, 1.439, 1.428, 1.421, 1.414, 1.406, 1.398, 1.392, 1.386, 1.383, 1.381, 1.379, 1.376, 1.374, 1.372, 1.371, 1.371, 1.371, 1.372, 1.374, 1.375, 1.378, 1.382, 1.386, 1.389, 1.394, 1.4, 1.407, 1.414, 1.422,
                            1.47, 1.461, 1.452, 1.441, 1.431, 1.423, 1.416, 1.409, 1.401, 1.395, 1.388, 1.385, 1.382, 1.38, 1.377, 1.375, 1.374, 1.373, 1.373, 1.373, 1.374, 1.375, 1.377, 1.379, 1.383, 1.388, 1.392, 1.397, 1.405, 1.412, 1.417, 1.423,
                            1.472, 1.463, 1.454, 1.444, 1.434, 1.426, 1.418, 1.412, 1.405, 1.398, 1.391, 1.387, 1.383, 1.381, 1.379, 1.377, 1.376, 1.375, 1.375, 1.375, 1.376, 1.377, 1.378, 1.381, 1.385, 1.39, 1.395, 1.401, 1.409, 1.417, 1.421, 1.425,
                            1.474, 1.465, 1.457, 1.447, 1.437, 1.429, 1.421, 1.414, 1.409, 1.401, 1.394, 1.388, 1.385, 1.382, 1.38, 1.378, 1.378, 1.377, 1.377, 1.377, 1.378, 1.378, 1.38, 1.382, 1.387, 1.392, 1.399, 1.405, 1.414, 1.422, 1.424, 1.426
                        ]
                    },
                    {
                        "ct": 5000,
                        "table":
                        [
                            1.742, 1.732, 1.722, 1.707, 1.691, 1.677, 1.664, 1.652, 1.642, 1.633, 1.626, 1.62, 1.615, 1.612, 1.61, 1.608, 1.608, 1.607, 1.606, 1.607, 1.608, 1.61, 1.614, 1.618, 1.623, 1.627, 1.635, 1.643, 1.654, 1.666, 1.673, 1.681,
                            1.737, 1.726, 1.715, 1.7, 1.685, 1.671, 1.658, 1.648, 1.639, 1.63, 1.622, 1.616, 1.611, 1.608, 1.606, 1.605, 1.604, 1.603, 1.603, 1.603, 1.605, 1.607, 1.611, 1.615, 1.62, 1.625, 1.631, 1.639, 1.65, 1.661, 1.669, 1.677,
                            1.732, 1.721, 1.709, 1.694, 1.679, 1.665, 1.652, 1.643, 1.635, 1.627, 1.619, 1.613, 1.607, 1.604, 1.603, 1.601, 1.6, 1.599, 1.599, 1.6, 1.602, 1.604, 1.608, 1.612, 1.617, 1.622, 1.628, 1.635, 1.646, 1.657, 1.665, 1.674,
                            1.727, 1.715, 1.703, 1.688, 1.673, 1.66, 1.647, 1.639, 1.632, 1.624, 1.616, 1.61, 1.604, 1.601, 1.599, 1.598, 1.596, 1.596, 1.596, 1.597, 1.599, 1.602, 1.605, 1.609, 1.614, 1.619, 1.625, 1.632, 1.642, 1.653, 1.661, 1.67,
                            1.722, 1.71, 1.699, 1.684, 1.668, 1.656, 1.643, 1.635, 1.628, 1.62, 1.613, 1.607, 1.601, 1.598, 1.596, 1.595, 1.593, 1.593, 1.593, 1.594, 1.596, 1.598, 1.602, 1.606, 1.61, 1.615, 1.622, 1.629, 1.639, 1.649, 1.657, 1.666,
                            1.716, 1.705, 1.694, 1.679, 1.663, 1.651, 1.64, 1.631, 1.623, 1.616, 1.61, 1.604, 1.599, 1.595, 1.594, 1.592, 1.591, 1.59, 1.59, 1.591, 1.592, 1.595, 1.599, 1.604, 1.607, 1.612, 1.619, 1.627, 1.636, 1.644, 1.653, 1.661,
                            1.712, 1.701, 1.69, 1.675, 1.659, 1.647, 1.636, 1.628, 1.619, 1.613, 1.607, 1.602, 1.597, 1.593, 1.591, 1.589, 1.588, 1.587, 1.587, 1.588, 1.59, 1.592, 1.596, 1.601, 1.604, 1.609, 1.616, 1.624, 1.632, 1.641, 1.649, 1.658,
                            1.71, 1.699, 1.687, 1.672, 1.657, 1.645, 1.633, 1.625, 1.618, 1.611, 1.605, 1.6, 1.595, 1.592, 1.589, 1.587, 1.586, 1.586, 1.586, 1.587, 1.588, 1.59, 1.594, 1.597, 1.601, 1.606, 1.613, 1.621, 1.629, 1.638, 1.647, 1.657,
                            1.708, 1.696, 1.683, 1.669, 1.654, 1.642, 1.631, 1.623, 1.616, 1.609, 1.602, 1.597, 1.593, 1.59, 1.587, 1.585, 1.584, 1.584, 1.584, 1.585, 1.587, 1.588, 1.591, 1.594, 1.598, 1.604, 1.61, 1.618, 1.626, 1.635, 1.645, 1.655,
                            1.705, 1.693, 1.68, 1.666, 1.652, 1.64, 1.628, 1.62, 1.614, 1.607, 1.6, 1.595, 1.592, 1.588, 1.586, 1.584, 1.583, 1.582, 1.583, 1.584, 1.585, 1.587, 1.589, 1.592, 1.596, 1.602, 1.608, 1.615, 1.624, 1.633, 1.644, 1.654,
                            1.703, 1.69, 1.677, 1.663, 1.649, 1.638, 1.626, 1.618, 1.611, 1.604, 1.598, 1.593, 1.59, 1.587, 1.584, 1.582, 1.581, 1.581, 1.582, 1.583, 1.584, 1.585, 1.587, 1.59, 1.595, 1.6, 1.607, 1.614, 1.623, 1.633, 1.643, 1.653,
                            1.7, 1.687, 1.674, 1.66, 1.646, 1.635, 1.625, 1.616, 1.609, 1.602, 1.596, 1.591, 1.588, 1.585, 1.583, 1.581, 1.58, 1.58, 1.581, 1.582, 1.583, 1.584, 1.586, 1.589, 1.594, 1.599, 1.606, 1.613, 1.622, 1.632, 1.642, 1.652,
                            1.698, 1.685, 1.671, 1.658, 1.644, 1.633, 1.623, 1.615, 1.607, 1.6, 1.594, 1.59, 1.587, 1.584, 1.582, 1.58, 1.579, 1.579, 1.58, 1.581, 1.582, 1.583, 1.585, 1.588, 1.593, 1.598, 1.605, 1.611, 1.621, 1.631, 1.641, 1.652,
                            1.698, 1.683, 1.669, 1.655, 1.642, 1.631, 1.621, 1.613, 1.605, 1.599, 1.593, 1.589, 1.586, 1.583, 1.581, 1.579, 1.578, 1.578, 1.579, 1.58, 1.581, 1.582, 1.584, 1.587, 1.593, 1.598, 1.604, 1.61, 1.62, 1.629, 1.641, 1.652,
                            1.697, 1.682, 1.666, 1.653, 1.639, 1.629, 1.619, 1.611, 1.603, 1.597, 1.591, 1.587, 1.585, 1.583, 1.58, 1.579, 1.578, 1.577, 1.578, 1.579, 1.58, 1.582, 1.584, 1.587, 1.592, 1.598, 1.603, 1.608, 1.618, 1.628, 1.64, 1.652,
                            1.697, 1.681, 1.665, 1.651, 1.638, 1.628, 1.618, 1.61, 1.602, 1.597, 1.591, 1.588, 1.585, 1.582, 1.58, 1.578, 1.577, 1.577, 1.577, 1.578, 1.579, 1.581, 1.584, 1.587, 1.592, 1.598, 1.603, 1.608, 1.618, 1.628, 1.64, 1.652,
